P3
748 98
255
0 0 0  0 0 0  0 0 0  0 0 0  0 0 0  0 0 0
0 0 0  0 0 0  3 7 14  19 46 86  21 51 97  21 51 96
21 51 96  21 51 96  21 51 96  21 51 96  21 51 96  21 51 96
21 51 96  21 51 96  21 51 96  21 51 96  21 51 96  21 51 96
21 51 96  21 51 96  21 51 96  21 51 96  21 51 96  21 51 96
21 51 97  9 22 42  0 0 0  0 0 0  0 0 0  0 0 0
0 0 0  0 0 0  0 0 0  0 0 0  0 0 0  0 0 0
0 0 0  0 0 0  0 0 0  0 0 0  0 0 0  0 0 0
0 0 0  0 0 0  0 0 0  0 0 0  0 0 0  0 0 0
0 0 0  0 0 0  0 0 0  0 0 0  0 0 0  0 0 0
0 0 0  0 0 0  0 0 0  0 0 0  0 0 0  0 0 0
0 0 0  0 0 0  0 0 0  0 0 0  0 0 0  0 0 0
0 0 0  0 0 0  0 0 0  0 0 0  0 0 0  0 0 0
0 0 0  0 0 0  0 0 0  0 0 0  0 0 0  0 0 0
1 2 3  15 37 71  21 51 97  21 51 96  21 51 96  21 51 96
21 51 96  21 51 96  21 51 96  21 51 96  21 51 96  21 51 96
21 51 96  21 51 96  21 51 96  21 51 96  21 51 96  21 51 96
21 51 96  21 51 96  21 51 96  21 51 96  21 51 97  19 46 88
3 8 16  0 0 0  0 0 0  0 0 0  0 0 0  0 0 0
0 0 0  0 0 0  0 0 0  0 0 0  0 0 0  0 0 0
0 0 0  0 0 0  0 0 0  0 0 0  0 0 0  0 0 0
0 0 0  0 0 0  0 0 0  0 0 0  0 0 0  0 0 0
0 0 0  0 0 0  0 0 0  0 0 0  0 0 0  0 0 0
0 0 0  0 0 0  0 0 0  0 0 0  0 0 0  0 0 0
0 0 0  0 0 0  0 0 0  0 0 0  0 0 0  0 0 0
0 0 0  0 0 0  0 0 0  0 0 0  0 0 0  0 0 0
0 0 0  0 0 0  0 0 0  0 0 0  0 0 0  0 0 0
0 0 0  0 0 0  0 0 0  0 0 0  0 0 0  0 0 0
0 0 0  0 0 0  0 0 0  0 0 0  0 0 0  0 0 0
0 0 0  0 0 0  0 0 0  0 0 0  0 0 0  0 0 0
0 0 0  0 0 0  0 0 0  0 0 0  0 0 0  0 0 0
0 0 0  0 0 0  0 0 0  0 0 0  0 0 0  0 0 0
0 0 0  0 0 0  0 0 0  0 0 0  0 0 0  0 0 0
0 0 0  0 0 0  0 0 0  0 0 0  0 0 0  0 0 0
0 0 0  0 0 0  0 0 0  0 0 0  0 0 0  0 0 0
0 0 0  0 0 0  0 0 0  0 0 0  0 0 0  0 0 0
0 0 0  0 0 0  0 0 0  0 0 0  0 0 0  0 0 0
0 0 0  0 0 0  0 0 0  0 0 0  0 0 0  0 0 0
0 0 0  0 0 0  0 0 0  0 0 0  0 0 0  0 0 0
0 0 0  0 0 0  0 0 0  0 0 0  0 0 0  0 0 0
0 0 0  0 0 0  0 0 0  0 0 0  0 0 0  0 0 0
0 0 0  0 0 0  18 11 2  48 29 6  100 78 15  184 135 26
230 143 33  232 155 33  234 166 34  234 166 34  211 168 32  184 135 26
172 75 22  100 78 15  18 11 2  0 0 0  0 0 0  0 0 0
0 0 0  0 0 0  0 0 0  0 0 0  0 0 0  0 0 0
0 0 0  0 0 0  0 0 0  0 0 0  0 0 0  0 0 0
0 0 0  0 0 0  0 0 0  0 0 0  0 0 0  0 0 0
2 5 9  26 64 121  33 81 153  33 81 153  33 81 153  33 81 153
33 81 153  33 81 153  33 81 153  33 81 153  33 81 153  33 81 153
33 81 153  33 81 153  33 81 153  33 81 153  33 81 153  33 81 153
33 81 153  33 81 153  33 81 153  33 81 153  33 81 153  33 81 153
33 81 153  33 81 153  33 81 153  33 81 153  33 81 153  33 81 153
33 81 153  33 81 153  33 81 153  33 81 153  33 81 153  33 81 153
33 81 153  33 81 153  33 81 153  33 81 153  33 81 153  33 81 153
33 81 153  33 81 153  33 81 153  33 81 153  33 81 153  33 81 153
33 81 153  33 81 153  33 81 153  33 81 153  33 81 153  33 81 153
33 81 153  33 81 153  33 81 153  33 81 153  33 81 153  33 81 152
32 80 151  32 78 148  31 77 145  30 74 140  29 72 136  28 68 129
26 64 121  24 59 112  22 53 100  19 46 86  16 39 73  12 30 57
9 22 41  6 14 27  3 8 14  1 3 5  0 0 0  0 0 0
0 0 0  0 0 0  0 0 0  0 0 0  0 0 0  0 0 0
0 0 0  0 0 0  0 0 0  0 0 0  0 0 0  0 0 0
0 0 0  0 0 0  0 0 0  0 0 0  0 0 0  0 0 0
0 0 0  0 0 0  0 0 0  0 0 0  0 0 0  0 0 0
0 0 0  0 0 0  0 0 0  0 0 0  0 0 0  0 0 0
0 0 0  0 0 0  0 0 0  0 0 0  0 0 0  0 0 0
0 0 0  0 0 0  0 0 0  0 0 0  0 0 0  0 0 0
0 0 0  0 0 0  0 0 0  0 0 0  0 0 0  0 0 0
0 0 0  0 0 0  0 0 0  0 0 0  0 0 0  0 0 0
0 0 0  0 0 0  0 0 0  0 0 0  0 0 0  0 0 0
0 0 0  0 0 0  0 0 0  0 0 0  0 0 0  0 0 0
0 0 0  0 0 0  0 0 0  0 0 0  0 0 0  0 0 0
0 0 0  0 0 0  0 0 0  0 0 0  0 0 0  0 0 0
0 0 0  0 0 0  0 0 0  0 0 0  0 0 0  0 0 0
0 0 0  0 0 0  0 0 0  0 0 0  0 0 0  0 0 0
0 0 0  0 0 0  0 0 0  0 0 0  0 0 0  0 0 0
0 0 0  0 0 0  0 0 0  0 0 0  0 0 0  0 0 0
0 0 0  0 0 0  0 0 0  0 0 0  0 0 0  0 0 0
0 0 0  0 0 0  0 0 0  0 0 0  0 0 0  0 0 0
0 0 0  0 0 0  0 0 0  0 0 0  0 0 0  0 0 0
0 0 0  0 0 0  0 0 0  0 0 0  0 0 0  0 0 0
0 0 0  0 0 0  0 0 0  0 0 0  0 0 0  0 0 0
0 0 0  0 0 0  0 0 0  0 0 0  0 0 0  0 0 0
0 0 0  0 0 0  0 0 0  0 0 0  0 0 0  0 0 0
0 0 0  0 0 0  0 0 0  0 0 0  0 0 0  0 0 0
0 0 0  0 0 0  0 0 0  0 0 0  0 0 0  0 0 0
0 0 0  0 0 0  0 0 0  0 0 0  0 0 0  0 0 0
0 0 0  0 0 0  0 0 0  0 0 0  0 0 0  0 0 0
0 0 0  0 0 0  0 0 0  0 0 0  0 0 0  0 0 0
0 0 0  0 0 0  0 0 0  0 0 0  0 0 0  0 0 0
0 0 0  0 0 0  0 0 0  0 0 0  0 0 0  0 0 0
0 0 0  0 0 0  0 0 0  0 0 0  0 0 0  0 0 0
0 0 0  0 0 0  0 0 0  0 0 0  0 0 0  0 0 0
0 0 0  0 0 0  0 0 0  0 0 0  0 0 0  0 0 0
0 0 0  0 0 0  0 0 0  0 0 0  0 0 0  0 0 0
0 0 0  0 0 0  0 0 0  0 0 0  0 0 0  0 0 0
0 0 0  0 0 0  0 0 0  0 0 0  0 0 0  0 0 0
0 0 0  0 0 0  0 0 0  0 0 0  0 0 0  0 0 0
0 0 0  0 0 0  0 0 0  0 0 0  0 0 0  0 0 0
0 0 0  0 0 0  0 0 0  0 0 0  0 0 0  0 0 0
0 0 0  0 0 0  0 0 0  0 0 0  0 0 0  0 0 0
0 0 0  0 0 0  0 0 0  0 0 0  0 0 0  0 0 0
0 0 0  0 0 0  0 0 0  0 0 0  0 0 0  0 0 0
0 0 0  0 0 0  0 0 0  0 0 0  0 0 0  0 0 0
0 0 0  0 0 0  0 0 0  0 0 0  0 0 0  0 0 0
0 0 0  0 0 0  0 0 0  0 0 0  0 0 0  0 0 0
0 0 0  0 0 0  0 0 0  0 0 0  0 0 0  0 0 0
0 0 0  0 0 0  0 0 0  0 0 0  0 0 0  0 0 0
0 0 0  0 0 0  0 0 0  0 0 0  0 0 0  0 0 0
0 0 0  0 0 0  0 0 0  0 0 0  0 0 0  0 0 0
0 0 0  0 0 0  0 0 0  0 0 0  0 0 0  0 0 0
0 0 0  0 0 0  0 0 0  0 0 0  0 0 0  0 0 0
0 0 0  0 0 0  0 0 0  0 0 0  0 0 0  0 0 0
0 0 0  0 0 0  0 0 0  0 0 0  0 0 0  0 0 0
0 0 0  0 0 0  0 0 0  0 0 0  0 0 0  0 0 0
0 0 0  0 0 0  0 0 0  0 0 0  0 0 0  0 0 0
0 0 0  0 0 0  0 0 0  0 0 0  0 0 0  0 0 0
0 0 0  0 0 0  0 0 0  0 0 0  0 0 0  0 0 0
0 0 0  0 0 0  0 0 0  0 0 0  0 0 0  0 0 0
0 0 0  0 0 0  0 0 0  0 0 0  0 0 0  0 0 0
0 0 0  0 0 0  0 0 0  0 0 0  0 0 0  0 0 0
0 0 0  0 0 0  0 0 0  0 0 0  0 0 0  0 0 0
0 0 0  0 0 0  0 0 0  0 0 0  0 0 0  0 0 0
0 0 0  0 0 0  0 0 0  0 0 0  0 0 0  0 0 0
0 0 0  0 0 0  0 0 0  0 0 0
0 0 0  0 0 0  0 0 0  0 0 0  0 0 0  0 0 0
0 0 0  0 0 0  6 15 29  31 76 143  33 81 153  33 81 153
33 81 153  33 81 153  33 81 153  33 81 153  33 81 153  33 81 153
33 81 153  33 81 153  33 81 153  33 81 153  33 81 153  33 81 153
33 81 153  33 81 153  33 81 153  33 81 153  33 81 153  33 81 153
33 81 153  16 39 73  0 0 0  0 0 0  0 0 0  0 0 0
0 0 0  0 0 0  0 0 0  0 0 0  0 0 0  0 0 0
0 0 0  0 0 0  0 0 0  0 0 0  0 0 0  0 0 0
0 0 0  0 0 0  0 0 0  0 0 0  0 0 0  0 0 0
0 0 0  0 0 0  0 0 0  0 0 0  0 0 0  0 0 0
0 0 0  0 0 0  0 0 0  0 0 0  0 0 0  0 0 0
0 0 0  0 0 0  0 0 0  0 0 0  0 0 0  0 0 0
0 0 0  0 0 0  0 0 0  0 0 0  0 0 0  0 0 0
0 0 0  0 0 0  0 0 0  0 0 0  0 0 0  0 0 0
1 3 7  25 63 118  33 81 153  33 81 153  33 81 153  33 81 153
33 81 153  33 81 153  33 81 153  33 81 153  33 81 153  33 81 153
33 81 153  33 81 153  33 81 153  33 81 153  33 81 153  33 81 153
33 81 153  33 81 153  33 81 153  33 81 153  33 81 153  31 77 145
7 17 32  0 0 0  0 0 0  0 0 0  0 0 0  0 0 0
0 0 0  0 0 0  0 0 0  0 0 0  2 4 8  15 38 71
17 43 81  16 39 74  14 35 66  12 30 56  10 24 45  7 17 33
5 11 21  2 6 11  1 2 3  0 0 0  0 0 0  0 0 0
0 0 0  0 0 0  0 0 0  0 0 0  0 0 0  0 0 0
0 0 0  0 0 0  0 0 0  0 0 0  0 0 0  0 0 0
0 0 0  0 0 0  0 0 0  0 0 0  0 0 0  0 0 0
0 0 0  0 0 0  0 0 0  0 0 0  0 0 0  0 0 0
0 0 0  0 0 0  0 0 0  0 0 0  0 0 0  0 0 0
0 0 0  0 0 0  0 0 0  0 0 0  0 0 0  0 0 0
0 0 0  0 0 0  0 0 0  0 0 0  0 0 0  0 0 0
0 0 0  0 0 0  0 0 0  0 0 0  0 0 0  0 0 0
0 0 0  0 0 0  0 0 0  0 0 0  0 0 0  0 0 0
0 0 0  0 0 0  0 0 0  0 0 0  0 0 0  0 0 0
0 0 0  0 0 0  0 0 0  0 0 0  0 0 0  0 0 0
0 0 0  0 0 0  0 0 0  0 0 0  0 0 0  0 0 0
0 0 0  0 0 0  0 0 0  0 0 0  0 0 0  0 0 0
0 0 0  0 0 0  0 0 0  0 0 0  0 0 0  0 0 0
0 0 0  0 0 0  0 0 0  1 3 5  3 7 13  5 13 24
8 19 35  10 25 47  13 31 59  15 36 68  16 40 75  18 44 83
12 30 57  0 0 1  0 0 0  0 0 0  0 0 0  0 0 0
0 0 0  0 0 0  0 0 0  0 0 0  0 0 0  0 0 0
0 0 0  0 0 0  0 0 0  0 0 0  0 0 0  0 0 0
18 11 2  95 32 12  172 75 22  229 132 32  231 148 33  232 155 33
233 161 34  233 161 34  234 166 34  234 172 35  235 180 35  235 180 35
235 180 35  227 187 35  184 135 26  100 78 15  18 11 2  0 0 0
0 0 0  0 0 0  0 0 0  0 0 0  0 0 0  0 0 0
0 0 0  0 0 0  0 0 0  0 0 0  0 0 0  0 0 0
0 0 0  0 0 0  0 0 0  0 0 0  0 0 0  0 0 0
2 5 9  26 64 121  33 81 153  33 81 153  33 81 153  33 81 153
33 81 153  33 81 153  33 81 153  33 81 153  33 81 153  33 81 153
33 81 153  33 81 153  33 81 153  33 81 153  33 81 153  33 81 153
33 81 153  33 81 153  33 81 153  33 81 153  33 81 153  33 81 153
33 81 153  33 81 153  33 81 153  33 81 153  33 81 153  33 81 153
33 81 153  33 81 153  33 81 153  33 81 153  33 81 153  33 81 153
33 81 153  33 81 153  33 81 153  33 81 153  33 81 153  33 81 153
33 81 153  33 81 153  33 81 153  33 81 153  33 81 153  33 81 153
33 81 153  33 81 153  33 81 153  33 81 153  33 81 153  33 81 153
33 81 153  33 81 153  33 81 153  33 81 153  33 81 153  33 81 153
33 81 153  33 81 153  33 81 153  33 81 153  33 81 153  33 81 153
33 81 153  33 81 153  33 81 153  33 81 153  33 81 152  32 79 150
31 77 145  30 73 137  27 67 126  24 58 110  19 47 89  14 34 64
9 21 40  4 10 19  1 2 4  0 0 0  0 0 0  0 0 0
0 0 0  0 0 0  0 0 0  0 0 0  0 0 0  0 0 0
0 0 0  0 0 0  0 0 0  0 0 0  0 0 0  0 0 0
0 0 0  0 0 0  0 0 0  0 0 0  0 0 0  0 0 0
0 0 0  0 0 0  0 0 0  0 0 0  0 0 0  0 0 0
0 0 0  0 0 0  0 0 0  0 0 0  0 0 0  0 0 0
0 0 0  0 0 0  0 0 0  0 0 0  0 0 0  0 0 0
0 0 0  0 0 0  0 0 0  0 0 0  0 0 0  0 0 0
0 0 0  0 0 0  0 0 0  0 0 0  0 0 0  0 0 0
0 0 0  0 0 0  0 0 0  0 0 0  0 0 0  0 0 0
0 0 0  0 0 0  0 0 0  0 0 0  0 0 0  0 0 0
0 0 0  0 0 0  0 0 0  0 0 0  0 0 0  0 0 0
0 0 0  0 0 0  0 0 0  0 0 0  0 0 0  0 0 0
0 0 0  0 0 0  0 0 0  0 0 0  0 0 0  0 0 0
0 0 0  0 0 0  0 0 0  0 0 0  0 0 0  0 0 0
0 0 0  0 0 0  0 0 0  0 0 0  0 0 0  0 0 0
0 0 0  0 0 0  0 0 0  0 0 0  0 0 0  0 0 0
0 0 0  0 0 0  0 0 0  0 0 0  0 0 0  0 0 0
0 0 0  0 0 0  0 0 0  0 0 0  0 0 0  0 0 0
0 0 0  0 0 0  0 0 0  0 0 0  0 0 0  0 0 0
0 0 0  0 0 0  0 0 0  0 0 0  0 0 0  0 0 0
0 0 0  0 0 0  0 0 0  0 0 0  0 0 0  0 0 0
0 0 0  0 0 0  0 0 0  0 0 0  0 0 0  0 0 0
0 0 0  0 0 0  0 0 0  0 0 0  0 0 0  0 0 0
0 0 0  0 0 0  0 0 0  0 0 0  0 0 0  0 0 0
0 0 0  0 0 0  0 0 0  0 0 0  0 0 0  0 0 0
0 0 0  0 0 0  0 0 0  0 0 0  0 0 0  0 0 0
0 0 0  0 0 0  0 0 0  0 0 0  0 0 0  0 0 0
0 0 0  0 0 0  0 0 0  0 0 0  0 0 0  0 0 0
0 0 0  0 0 0  0 0 0  0 0 0  0 0 0  0 0 0
0 0 0  0 0 0  0 0 0  0 0 0  0 0 0  0 0 0
0 0 0  0 0 0  0 0 0  0 0 0  0 0 0  0 0 0
0 0 0  0 0 0  0 0 0  0 0 0  0 0 0  0 0 0
0 0 0  0 0 0  0 0 0  0 0 0  0 0 0  0 0 0
0 0 0  0 0 0  0 0 0  0 0 0  0 0 0  0 0 0
0 0 0  0 0 0  0 0 0  0 0 0  0 0 0  0 0 0
0 0 0  0 0 0  0 0 0  0 0 0  0 0 0  0 0 0
0 0 0  0 0 0  0 0 0  0 0 0  0 0 0  0 0 0
0 0 0  0 0 0  0 0 0  0 0 0  0 0 0  0 0 0
0 0 0  0 0 0  0 0 0  0 0 0  0 0 0  0 0 0
0 0 0  0 0 0  0 0 0  0 0 0  0 0 0  0 0 0
0 0 0  0 0 0  0 0 0  0 0 0  0 0 0  0 0 0
0 0 0  0 0 0  0 0 0  0 0 0  0 0 0  0 0 0
0 0 0  0 0 0  0 0 0  0 0 0  0 0 0  0 0 0
0 0 0  0 0 0  0 0 0  0 0 0  0 0 0  0 0 0
0 0 0  0 0 0  0 0 0  0 0 0  0 0 0  0 0 0
0 0 0  0 0 0  0 0 0  0 0 0  0 0 0  0 0 0
0 0 0  0 0 0  0 0 0  0 0 0  0 0 0  0 0 0
0 0 0  0 0 0  0 0 0  0 0 0  0 0 0  0 0 0
0 0 0  0 0 0  0 0 0  0 0 0  0 0 0  0 0 0
0 0 0  0 0 0  0 0 0  0 0 0  0 0 0  0 0 0
0 0 0  0 0 0  0 0 0  0 0 0  0 0 0  0 0 0
0 0 0  0 0 0  0 0 0  0 0 0  0 0 0  0 0 0
0 0 0  0 0 0  0 0 0  0 0 0  0 0 0  0 0 0
0 0 0  0 0 0  0 0 0  0 0 0  0 0 0  0 0 0
0 0 0  0 0 0  0 0 0  0 0 0  0 0 0  0 0 0
0 0 0  0 0 0  0 0 0  0 0 0  0 0 0  0 0 0
0 0 0  0 0 0  0 0 0  0 0 0  0 0 0  0 0 0
0 0 0  0 0 0  0 0 0  0 0 0  0 0 0  0 0 0
0 0 0  0 0 0  0 0 0  0 0 0  0 0 0  0 0 0
0 0 0  0 0 0  0 0 0  0 0 0  0 0 0  0 0 0
0 0 0  0 0 0  0 0 0  0 0 0  0 0 0  0 0 0
0 0 0  0 0 0  0 0 0  0 0 0  0 0 0  0 0 0
0 0 0  0 0 0  0 0 0  0 0 0  0 0 0  0 0 0
0 0 0  0 0 0  0 0 0  0 0 0
0 0 0  0 0 0  0 0 0  0 0 0  0 0 0  0 0 0
0 0 0  0 0 0  8 20 38  32 78 148  33 81 153  33 81 153
33 81 153  33 81 153  33 81 153  33 81 153  33 81 153  33 81 153
33 81 153  33 81 153  33 81 153  33 81 153  33 81 153  33 81 153
33 81 153  33 81 153  33 81 153  33 81 153  33 81 153  33 81 153
33 81 153  17 43 80  0 0 0  0 0 0  0 0 0  0 0 0
0 0 0  0 0 0  0 0 0  0 0 0  0 0 0  0 0 0
0 0 0  0 0 0  0 0 0  0 0 0  0 0 0  0 0 0
0 0 0  0 0 0  0 0 0  0 0 0  0 0 0  0 0 0
0 0 0  0 0 0  0 0 0  0 0 0  0 0 0  0 0 0
0 0 0  0 0 0  0 0 0  0 0 0  0 0 0  0 0 0
0 0 0  0 0 0  0 0 0  0 0 0  0 0 0  0 0 0
0 0 0  0 0 0  0 0 0  0 0 0  0 0 0  0 0 0
0 0 0  0 0 0  0 0 0  0 0 0  0 0 0  0 0 0
2 5 10  27 65 124  33 81 153  33 81 153  33 81 153  33 81 153
33 81 153  33 81 153  33 81 153  33 81 153  33 81 153  33 81 153
33 81 153  33 81 153  33 81 153  33 81 153  33 81 153  33 81 153
33 81 153  33 81 153  33 81 153  33 81 153  33 81 153  32 79 149
9 22 42  0 0 0  0 0 0  0 0 0  0 0 0  0 0 0
0 0 0  0 0 0  0 0 0  0 0 0  3 7 14  28 69 131
33 81 153  33 81 153  33 81 153  33 81 152  32 79 150  31 77 145
30 72 137  27 66 124  23 57 107  19 45 86  13 32 61  8 19 37
3 9 16  1 2 3  0 0 0  0 0 0  0 0 0  0 0 0
0 0 0  0 0 0  0 0 0  0 0 0  0 0 0  0 0 0
0 0 0  0 0 0  0 0 0  0 0 0  0 0 0  0 0 0
0 0 0  0 0 0  0 0 0  0 0 0  0 0 0  0 0 0
0 0 0  0 0 0  0 0 0  0 0 0  0 0 0  0 0 0
0 0 0  0 0 0  0 0 0  0 0 0  0 0 0  0 0 0
0 0 0  0 0 0  0 0 0  0 0 0  0 0 0  0 0 0
0 0 0  0 0 0  0 0 0  0 0 0  0 0 0  0 0 0
0 0 0  0 0 0  0 0 0  0 0 0  0 0 0  0 0 0
0 0 0  0 0 0  0 0 0  0 0 0  0 0 0  0 0 0
0 0 0  0 0 0  0 0 0  0 0 0  0 0 0  0 0 0
0 0 0  0 0 0  0 0 0  0 0 0  0 0 0  0 0 0
0 0 0  0 0 0  0 0 0  0 0 0  0 0 0  0 0 0
0 0 0  0 0 0  0 0 0  0 0 0  1 3 5  4 11 20
9 22 41  14 35 67  20 48 91  24 59 112  28 68 128  30 74 139
32 78 146  32 80 151  33 81 153  33 81 153  33 81 153  33 81 153
23 56 105  0 1 2  0 0 0  0 0 0  0 0 0  0 0 0
0 0 0  0 0 0  0 0 0  0 0 0  0 0 0  0 0 0
0 0 0  0 0 0  0 0 0  0 0 0  2 1 0  48 29 6
172 75 22  229 132 32  230 138 32  230 143 33  231 148 33  232 155 33
233 161 34  234 166 34  234 172 35  235 175 35  235 180 35  235 180 35
238 195 36  238 195 36  238 195 36  234 205 37  211 168 32  100 78 15
2 1 0  0 0 0  0 0 0  0 0 0  0 0 0  0 0 0
0 0 0  0 0 0  0 0 0  0 0 0  0 0 0  0 0 0
0 0 0  0 0 0  0 0 0  0 0 0  0 0 0  0 0 0
2 5 9  26 64 121  33 81 153  33 81 153  33 81 153  33 81 153
33 81 153  33 81 153  33 81 153  33 81 153  33 81 153  33 81 153
33 81 153  33 81 153  33 81 153  33 81 153  33 81 153  33 81 153
33 81 153  33 81 153  33 81 153  33 81 153  33 81 153  33 81 153
33 81 153  33 81 153  33 81 153  33 81 153  33 81 153  33 81 153
33 81 153  33 81 153  33 81 153  33 81 153  33 81 153  33 81 153
33 81 153  33 81 153  33 81 153  33 81 153  33 81 153  33 81 153
33 81 153  33 81 153  33 81 153  33 81 153  33 81 153  33 81 153
33 81 153  33 81 153  33 81 153  33 81 153  33 81 153  33 81 153
33 81 153  33 81 153  33 81 153  33 81 153  33 81 153  33 81 153
33 81 153  33 81 153  33 81 153  33 81 153  33 81 153  33 81 153
33 81 153  33 81 153  33 81 153  33 81 153  33 81 153  33 81 153
33 81 153  33 81 153  33 81 153  33 81 153  33 81 153  33 81 153
32 78 148  29 71 133  23 57 109  16 40 75  8 21 39  2 6 11
0 0 0  0 0 0  0 0 0  0 0 0  0 0 0  0 0 0
0 0 0  0 0 0  0 0 0  0 0 0  0 0 0  0 0 0
0 0 0  0 0 0  0 0 0  0 0 0  0 0 0  0 0 0
0 0 0  0 0 0  0 0 0  0 0 0  0 0 0  0 0 0
0 0 0  0 0 0  0 0 0  0 0 0  0 0 0  0 0 0
0 0 0  0 0 0  0 0 0  0 0 0  0 0 0  0 0 0
0 0 0  0 0 0  0 0 0  0 0 0  0 0 0  0 0 0
0 0 0  0 0 0  0 0 0  0 0 0  0 0 0  0 0 0
0 0 0  0 0 0  0 0 0  0 0 0  0 0 0  0 0 0
0 0 0  0 0 0  0 0 0  0 0 0  0 0 0  0 0 0
0 0 0  0 0 0  0 0 0  0 0 0  0 0 0  0 0 0
0 0 0  0 0 0  0 0 0  0 0 0  0 0 0  0 0 0
0 0 0  0 0 0  0 0 0  0 0 0  0 0 0  0 0 0
0 0 0  0 0 0  0 0 0  0 0 0  0 0 0  0 0 0
0 0 0  0 0 0  0 0 0  0 0 0  0 0 0  0 0 0
0 0 0  0 0 0  0 0 0  0 0 0  0 0 0  0 0 0
0 0 0  0 0 0  0 0 0  0 0 0  0 0 0  0 0 0
0 0 0  0 0 0  0 0 0  0 0 0  0 0 0  0 0 0
0 0 0  0 0 0  0 0 0  0 0 0  0 0 0  0 0 0
0 0 0  0 0 0  0 0 0  0 0 0  0 0 0  0 0 0
0 0 0  0 0 0  0 0 0  0 0 0  0 0 0  0 0 0
0 0 0  0 0 0  0 0 0  0 0 0  0 0 0  0 0 0
0 0 0  0 0 0  0 0 0  0 0 0  0 0 0  0 0 0
0 0 0  0 0 0  0 0 0  0 0 0  0 0 0  0 0 0
0 0 0  0 0 0  0 0 0  0 0 0  0 0 0  0 0 0
0 0 0  0 0 0  0 0 0  0 0 0  0 0 0  0 0 0
0 0 0  0 0 0  0 0 0  0 0 0  0 0 0  0 0 0
0 0 0  0 0 0  0 0 0  0 0 0  0 0 0  0 0 0
0 0 0  0 0 0  0 0 0  0 0 0  0 0 0  0 0 0
0 0 0  0 0 0  0 0 0  0 0 0  0 0 0  0 0 0
0 0 0  0 0 0  0 0 0  0 0 0  0 0 0  0 0 0
0 0 0  0 0 0  0 0 0  0 0 0  0 0 0  0 0 0
0 0 0  0 0 0  0 0 0  0 0 0  0 0 0  0 0 0
0 0 0  0 0 0  0 0 0  0 0 0  0 0 0  0 0 0
0 0 0  0 0 0  0 0 0  0 0 0  0 0 0  0 0 0
0 0 0  0 0 0  0 0 0  0 0 0  0 0 0  0 0 0
0 0 0  0 0 0  0 0 0  0 0 0  0 0 0  0 0 0
0 0 0  0 0 0  0 0 0  0 0 0  0 0 0  0 0 0
0 0 0  0 0 0  0 0 0  0 0 0  0 0 0  0 0 0
0 0 0  0 0 0  0 0 0  0 0 0  0 0 0  0 0 0
0 0 0  0 0 0  0 0 0  0 0 0  0 0 0  0 0 0
0 0 0  0 0 0  0 0 0  0 0 0  3 7 13  6 15 28
6 15 28  6 15 28  6 15 28  6 15 28  6 15 28  6 15 28
6 15 28  6 15 28  6 15 28  6 15 28  6 15 28  2 6 11
0 0 0  0 0 0  0 0 0  0 0 0  0 0 0  0 0 0
0 0 0  0 0 0  0 0 0  0 0 0  0 0 0  0 0 0
0 0 0  0 0 0  0 0 0  0 0 0  0 0 0  0 0 0
0 0 0  0 0 0  0 0 0  0 0 0  0 0 0  0 0 0
0 0 0  0 0 0  0 0 0  0 0 0  0 0 0  0 0 0
0 0 0  0 0 0  0 0 0  0 0 0  0 0 0  0 0 0
0 0 0  0 0 0  0 0 0  0 0 0  0 0 0  2 5 10
15 36 68  17 42 79  17 42 79  17 42 79  17 42 79  17 42 79
17 42 79  17 42 79  17 42 79  17 42 79  17 42 79  17 42 79
17 42 79  17 42 79  17 42 79  17 42 79  17 42 79  17 42 79
17 42 79  17 42 79  17 42 79  17 42 79  17 42 79  17 42 79
17 42 79  17 42 79  17 42 79  17 42 79  17 42 79  17 42 79
17 42 79  17 42 79  17 42 79  17 42 79  17 42 79  17 42 79
17 42 79  17 42 79  17 42 79  17 42 79  17 42 79  17 42 79
17 42 79  17 42 79  17 42 79  17 42 79  17 42 79  17 42 79
17 42 79  17 42 79  17 42 79  17 42 79  17 42 79  17 42 79
17 42 79  17 42 79  17 42 79  17 42 79  17 42 79  17 42 79
17 42 79  17 42 79  17 42 79  17 42 79  17 42 79  17 42 79
17 42 79  17 42 79  17 42 79  17 42 79  17 42 79  17 42 80
10 24 46  0 0 0  0 0 0  0 0 0
0 0 0  0 0 0  0 0 0  0 0 0  0 0 0  0 0 0
0 0 0  0 0 0  11 26 49  33 80 151  33 81 153  33 81 153
33 81 153  33 81 153  33 81 153  33 81 153  33 81 153  33 81 153
33 81 153  33 81 153  33 81 153  33 81 153  33 81 153  33 81 153
33 81 153  33 81 153  33 81 153  33 81 153  33 81 153  33 81 153
33 81 153  19 48 90  0 0 0  0 0 0  0 0 0  0 0 0
0 0 0  0 0 0  0 0 0  0 0 0  0 0 0  0 0 0
0 0 0  0 0 0  0 0 0  0 0 0  0 0 0  0 0 0
0 0 0  0 0 0  0 0 0  0 0 0  0 0 0  0 0 0
0 0 0  0 0 0  0 0 0  0 0 0  0 0 0  0 0 0
0 0 0  0 0 0  0 0 0  0 0 0  0 0 0  0 0 0
0 0 0  0 0 0  0 0 0  0 0 0  0 0 0  0 0 0
0 0 0  0 0 0  0 0 0  0 0 0  0 0 0  0 0 0
0 0 0  0 0 0  0 0 0  0 0 0  0 0 0  0 0 0
3 8 15  28 69 130  33 81 153  33 81 153  33 81 153  33 81 153
33 81 153  33 81 153  33 81 153  33 81 153  33 81 153  33 81 153
33 81 153  33 81 153  33 81 153  33 81 153  33 81 153  33 81 153
33 81 153  33 81 153  33 81 153  33 81 153  33 81 153  33 80 152
12 28 53  0 0 0  0 0 0  0 0 0  0 0 0  0 0 0
0 0 0  0 0 0  0 0 0  0 0 0  3 7 13  28 68 128
33 81 153  33 81 153  33 81 153  33 81 153  33 81 153  33 81 153
33 81 153  33 81 153  33 81 153  33 81 153  33 81 153  31 77 146
28 69 131  23 56 106  16 39 73  9 21 40  3 7 13  0 0 0
0 0 0  0 0 0  0 0 0  0 0 0  0 0 0  0 0 0
0 0 0  0 0 0  0 0 0  0 0 0  0 0 0  0 0 0
0 0 0  0 0 0  0 0 0  0 0 0  0 0 0  0 0 0
0 0 0  0 0 0  0 0 0  0 0 0  0 0 0  0 0 0
0 0 0  0 0 0  0 0 0  0 0 0  0 0 0  0 0 0
0 0 0  0 0 0  0 0 0  0 0 0  0 0 0  0 0 0
0 0 0  0 0 0  0 0 0  0 0 0  0 0 0  0 0 0
0 0 0  0 0 0  0 0 0  0 0 0  0 0 0  0 0 0
0 0 0  0 0 0  0 0 0  0 0 0  0 0 0  0 0 0
0 0 0  0 0 0  0 0 0  0 0 0  0 0 0  0 0 0
0 0 0  0 0 0  0 0 0  0 0 0  0 0 0  0 0 0
0 0 0  0 0 0  0 0 0  0 0 0  0 0 0  0 0 0
1 1 2  4 10 19  10 25 47  17 43 81  24 59 112  29 71 135
32 78 148  33 81 153  33 81 153  33 81 153  33 81 153  33 81 153
33 81 153  33 81 153  33 81 153  33 81 153  33 81 153  33 81 153
22 55 103  0 1 2  0 0 0  0 0 0  0 0 0  0 0 0
0 0 0  0 0 0  0 0 0  0 0 0  0 0 0  0 0 0
0 0 0  0 0 0  0 0 0  7 4 0  100 78 15  226 111 30
229 127 32  230 135 32  230 138 32  230 143 33  232 151 33  232 155 33
233 161 34  234 166 34  234 172 35  235 180 35  235 180 35  238 195 36
238 195 36  238 195 36  234 205 37  234 205 37  234 205 37  234 205 37
100 78 15  18 11 2  0 0 0  0 0 0  0 0 0  0 0 0
0 0 0  0 0 0  0 0 0  0 0 0  0 0 0  0 0 0
0 0 0  0 0 0  0 0 0  0 0 0  0 0 0  0 0 0
2 5 9  26 64 121  33 81 153  33 81 153  33 81 153  33 81 153
33 81 153  33 81 153  33 81 153  33 81 153  33 81 153  33 81 153
33 81 153  33 81 153  33 81 153  33 81 153  33 81 153  33 81 153
33 81 153  33 81 153  33 81 153  33 81 153  33 81 153  33 81 153
33 81 153  33 81 153  33 81 153  33 81 153  33 81 153  33 81 153
33 81 153  33 81 153  33 81 153  33 81 153  33 81 153  33 81 153
33 81 153  33 81 153  33 81 153  33 81 153  33 81 153  33 81 153
33 81 153  33 81 153  33 81 153  33 81 153  33 81 153  33 81 153
33 81 153  33 81 153  33 81 153  33 81 153  33 81 153  33 81 153
33 81 153  33 81 153  33 81 153  33 81 153  33 81 153  33 81 153
33 81 153  33 81 153  33 81 153  33 81 153  33 81 153  33 81 153
33 81 153  33 81 153  33 81 153  33 81 153  33 81 153  33 81 153
33 81 153  33 81 153  33 81 153  33 81 153  33 81 153  33 81 153
33 81 153  33 81 153  33 81 153  33 81 153  32 78 146  26 65 122
17 43 80  7 17 33  1 2 4  0 0 0  0 0 0  0 0 0
0 0 0  0 0 0  0 0 0  0 0 0  0 0 0  0 0 0
0 0 0  0 0 0  0 0 0  0 0 0  0 0 0  0 0 0
0 0 0  0 0 0  0 0 0  0 0 0  0 0 0  0 0 0
0 0 0  0 0 0  0 0 0  0 0 0  0 0 0  0 0 0
0 0 0  0 0 0  0 0 0  0 0 0  0 0 0  0 0 0
0 0 0  0 0 0  0 0 0  0 0 0  0 0 0  0 0 0
0 0 0  0 0 0  0 0 0  0 0 0  0 0 0  0 0 0
0 0 0  0 0 0  1 2 4  2 5 9  2 5 9  2 5 9
2 5 9  2 5 9  2 5 9  2 5 9  2 5 9  2 5 9
2 5 9  2 5 9  1 3 5  0 0 0  0 0 0  0 0 0
0 0 0  0 0 0  0 0 0  0 0 0  0 0 0  0 0 0
0 0 0  0 0 0  0 0 0  0 0 0  0 0 0  0 0 0
0 0 0  0 1 1  7 18 34  10 25 47  10 25 47  10 25 47
10 25 47  10 25 47  10 25 47  10 25 47  10 25 47  10 25 47
10 25 47  10 25 47  6 16 29  0 0 0  0 0 0  0 0 0
0 0 0  0 0 0  0 0 0  0 0 0  0 0 0  0 0 0
0 0 0  0 0 0  0 0 0  0 0 0  0 0 0  0 0 0
0 0 0  0 0 0  0 1 2  2 4 8  2 5 9  2 5 9
2 5 9  2 5 9  2 5 9  2 5 9  2 5 9  2 5 9
2 5 9  2 5 9  2 5 9  1 3 5  0 0 0  0 0 0
0 0 0  0 0 0  0 0 0  0 0 0  0 0 0  0 0 0
0 0 0  0 0 0  0 0 0  0 0 0  0 0 0  0 0 0
0 0 0  0 0 0  0 0 0  0 0 0  0 0 0  0 0 0
0 0 0  2 4 8  9 23 43  10 25 47  10 25 47  10 25 47
10 25 47  10 25 47  10 25 47  10 25 47  10 25 47  10 25 47
10 25 47  10 25 47  9 23 44  2 5 10  0 0 0  0 0 0
0 0 0  0 0 0  0 0 0  0 0 0  0 0 0  0 0 0
0 0 0  0 0 0  0 0 0  0 0 0  0 0 0  0 0 0
0 0 0  0 0 0  0 0 0  0 0 0  0 0 0  0 0 0
0 0 0  0 0 0  0 0 0  0 0 0  0 0 0  0 0 0
0 0 0  0 0 0  0 0 0  0 0 0  0 0 0  0 0 0
0 0 0  0 0 0  0 0 0  0 0 0  0 0 0  0 0 0
0 0 0  0 0 0  0 0 0  0 0 0  0 0 0  0 0 0
0 0 0  0 0 0  0 0 0  0 0 0  0 0 0  0 0 0
0 0 0  0 0 0  0 0 0  0 0 0  0 0 0  0 0 0
0 0 0  0 0 0  0 0 0  0 0 0  0 0 0  0 0 0
0 0 0  0 0 0  0 0 0  0 0 0  0 0 0  0 0 0
0 0 0  0 0 0  0 0 0  0 0 0  0 0 0  0 0 0
0 0 0  0 0 0  0 0 0  0 0 0  0 0 0  0 0 0
0 0 0  0 0 0  0 0 0  0 0 0  0 0 0  0 0 0
0 0 0  0 0 0  0 0 0  0 0 0  14 34 64  31 76 143
31 75 142  31 75 142  31 75 142  31 75 142  31 75 142  31 75 142
31 75 142  31 75 142  31 75 142  31 75 142  31 75 142  11 28 53
0 0 0  0 0 0  0 0 0  0 0 0  0 0 0  0 0 0
0 0 0  0 0 0  0 0 0  0 0 0  0 0 0  0 0 0
0 0 0  0 0 0  0 0 0  0 0 0  0 0 0  0 0 0
0 0 0  0 0 0  0 0 0  0 0 0  0 0 0  0 0 0
0 0 0  0 0 0  0 0 0  0 0 0  0 0 0  0 0 0
0 0 0  0 0 0  0 0 0  0 0 0  0 0 0  0 0 0
0 0 0  0 0 0  0 0 0  0 0 0  0 0 0  4 10 19
29 72 136  33 81 153  33 81 153  33 81 153  33 81 153  33 81 153
33 81 153  33 81 153  33 81 153  33 81 153  33 81 153  33 81 153
33 81 153  33 81 153  33 81 153  33 81 153  33 81 153  33 81 153
33 81 153  33 81 153  33 81 153  33 81 153  33 81 153  33 81 153
33 81 153  33 81 153  33 81 153  33 81 153  33 81 153  33 81 153
33 81 153  33 81 153  33 81 153  33 81 153  33 81 153  33 81 153
33 81 153  33 81 153  33 81 153  33 81 153  33 81 153  33 81 153
33 81 153  33 81 153  33 81 153  33 81 153  33 81 153  33 81 153
33 81 153  33 81 153  33 81 153  33 81 153  33 81 153  33 81 153
33 81 153  33 81 153  33 81 153  33 81 153  33 81 153  33 81 153
33 81 153  33 81 153  33 81 153  33 81 153  33 81 153  33 81 153
33 81 153  33 81 153  33 81 153  33 81 153  33 81 153  33 81 153
20 48 91  0 0 0  0 0 0  0 0 0
0 0 0  0 0 0  0 0 0  0 0 0  0 0 0  0 0 0
0 0 0  0 0 0  13 32 61  33 81 153  33 81 153  33 81 153
33 81 153  33 81 153  33 81 153  33 81 153  33 81 153  33 81 153
33 81 153  33 81 153  33 81 153  33 81 153  33 81 153  33 81 153
33 81 153  33 81 153  33 81 153  33 81 153  33 81 153  33 81 153
33 81 153  22 53 100  0 1 1  0 0 0  0 0 0  0 0 0
0 0 0  0 0 0  0 0 0  0 0 0  0 0 0  0 0 0
0 0 0  0 0 0  0 0 0  0 0 0  0 0 0  0 0 0
0 0 0  0 0 0  0 0 0  0 0 0  0 0 0  0 0 0
0 0 0  0 0 0  0 0 0  0 0 0  0 0 0  0 0 0
0 0 0  0 0 0  0 0 0  0 0 0  0 0 0  0 0 0
0 0 0  0 0 0  0 0 0  0 0 0  0 0 0  0 0 0
0 0 0  0 0 0  0 0 0  0 0 0  0 0 0  0 0 0
0 0 0  0 0 0  0 0 0  0 0 0  0 0 0  0 0 0
5 11 21  30 72 137  33 81 153  33 81 153  33 81 153  33 81 153
33 81 153  33 81 153  33 81 153  33 81 153  33 81 153  33 81 153
33 81 153  33 81 153  33 81 153  33 81 153  33 81 153  33 81 153
33 81 153  33 81 153  33 81 153  33 81 153  33 81 153  33 81 153
14 35 65  0 0 0  0 0 0  0 0 0  0 0 0  0 0 0
0 0 0  0 0 0  0 0 0  0 0 0  3 7 13  28 68 128
33 81 153  33 81 153  33 81 153  33 81 153  33 81 153  33 81 153
33 81 153  33 81 153  33 81 153  33 81 153  33 81 153  33 81 153
33 81 153  33 81 153  33 81 153  32 78 147  27 67 127  20 49 92
11 27 50  3 9 16  0 0 0  0 0 0  0 0 0  0 0 0
0 0 0  0 0 0  0 0 0  0 0 0  0 0 0  0 0 0
0 0 0  0 0 0  0 0 0  0 0 0  0 0 0  0 0 0
0 0 0  0 0 0  0 0 0  0 0 0  0 0 0  0 0 0
0 0 0  0 0 0  0 0 0  0 0 0  0 0 0  0 0 0
0 0 0  0 0 0  0 0 0  0 0 0  0 0 0  0 0 0
0 0 0  0 0 0  0 0 0  0 0 0  0 0 0  0 0 0
0 0 0  0 0 0  0 0 0  0 0 0  0 0 0  0 0 0
0 0 0  0 0 0  0 0 0  0 0 0  0 0 0  0 0 0
0 0 0  0 0 0  0 0 0  0 0 0  0 0 0  0 0 0
0 0 0  0 0 0  0 0 0  0 0 0  0 0 0  0 0 0
0 0 0  0 0 0  0 0 0  1 1 2  5 12 23  13 32 60
22 54 101  29 70 133  32 79 149  33 81 153  33 81 153  33 81 153
33 81 153  33 81 153  33 81 153  33 81 153  33 81 153  33 81 153
33 81 153  33 81 153  33 81 153  33 81 153  33 81 153  33 81 153
22 55 103  0 1 2  0 0 0  0 0 0  0 0 0  0 0 0
0 0 0  0 0 0  0 0 0  0 0 0  0 0 0  0 0 0
0 0 0  0 0 0  7 4 0  100 78 15  227 119 31  228 125 31
229 132 32  230 135 32  230 143 33  231 148 33  232 151 33  232 155 33
233 161 34  234 166 34  235 175 35  235 180 35  235 180 35  238 195 36
238 195 36  238 195 36  234 205 37  240 219 38  240 219 38  240 219 38
240 219 38  184 135 26  18 11 2  0 0 0  0 0 0  0 0 0
0 0 0  0 0 0  0 0 0  0 0 0  0 0 0  0 0 0
0 0 0  0 0 0  0 0 0  0 0 0  0 0 0  0 0 0
2 5 9  26 64 121  33 81 153  33 81 153  33 81 153  33 81 153
33 81 153  33 81 153  33 81 153  33 81 153  33 81 153  33 81 153
33 81 153  33 81 153  33 81 153  33 81 153  33 81 153  33 81 153
33 81 153  33 81 153  33 81 153  33 81 153  33 81 153  33 81 153
33 81 153  33 81 153  33 81 153  33 81 153  33 81 153  33 81 153
33 81 153  33 81 153  33 81 153  33 81 153  33 81 153  33 81 153
33 81 153  33 81 153  33 81 153  33 81 153  33 81 153  33 81 153
33 81 153  33 81 153  33 81 153  33 81 153  33 81 153  33 81 153
33 81 153  33 81 153  33 81 153  33 81 153  33 81 153  33 81 153
33 81 153  33 81 153  33 81 153  33 81 153  33 81 153  33 81 153
33 81 153  33 81 153  33 81 153  33 81 153  33 81 153  33 81 153
33 81 153  33 81 153  33 81 153  33 81 153  33 81 153  33 81 153
33 81 153  33 81 153  33 81 153  33 81 153  33 81 153  33 81 153
33 81 153  33 81 153  33 81 153  33 81 153  33 81 153  33 81 153
33 81 153  31 75 142  22 54 101  9 22 41  1 2 3  0 0 0
0 0 0  0 0 0  0 0 0  0 0 0  0 0 0  0 0 0
0 0 0  0 0 0  0 0 0  0 0 0  0 0 0  0 0 0
0 0 0  0 0 0  0 0 0  0 0 0  0 0 0  0 0 0
0 0 0  0 0 0  0 0 0  0 0 0  0 0 0  0 0 0
0 0 0  0 0 0  0 0 0  0 0 0  0 0 0  0 0 0
0 0 0  0 0 0  0 0 0  0 0 0  0 0 0  0 0 0
0 0 0  0 0 0  0 0 0  0 0 0  0 0 0  0 0 0
0 0 0  0 0 0  8 20 38  26 63 119  26 64 121  26 64 121
26 64 121  26 64 121  26 64 121  26 64 121  26 64 121  26 64 121
26 64 121  26 65 122  19 47 88  1 3 5  0 0 0  0 0 0
0 0 0  0 0 0  0 0 0  0 0 0  0 0 0  0 0 0
0 0 0  0 0 0  0 0 0  0 0 0  0 0 0  0 0 0
0 0 0  1 2 4  23 57 109  33 81 152  32 79 150  32 79 150
32 79 150  32 79 150  32 79 150  32 79 150  32 79 150  32 79 150
32 79 150  33 81 153  20 50 94  0 0 0  0 0 0  0 0 0
0 0 0  0 0 0  0 0 0  0 0 0  0 0 0  0 0 0
0 0 0  0 0 0  0 0 0  0 0 0  0 0 0  0 0 0
0 0 0  0 0 1  15 36 68  26 64 122  26 64 121  26 64 121
26 64 121  26 64 121  26 64 121  26 64 121  26 64 121  26 64 121
26 64 121  26 64 121  26 63 119  9 23 43  0 0 0  0 0 0
0 0 0  0 0 0  0 0 0  0 0 0  0 0 0  0 0 0
0 0 0  0 0 0  0 0 0  0 0 0  0 0 0  0 0 0
0 0 0  0 0 0  0 0 0  0 0 0  0 0 0  0 0 0
0 0 0  12 30 56  32 78 148  32 80 151  32 79 150  32 79 150
32 79 150  32 79 150  32 79 150  32 79 150  32 79 150  32 79 150
32 79 150  33 81 152  25 61 116  2 6 11  0 0 0  0 0 0
0 0 0  0 0 0  0 0 0  0 0 0  0 0 0  0 0 0
0 0 0  0 0 0  0 0 0  0 0 0  0 0 0  0 0 0
0 0 0  0 0 0  0 0 0  0 0 0  0 0 0  0 0 0
0 0 0  0 0 0  0 0 0  0 0 0  0 0 0  0 0 0
0 0 0  0 0 0  0 0 0  0 0 0  0 0 0  0 0 0
0 0 0  0 0 0  0 0 0  0 0 0  0 0 0  0 0 0
0 0 0  0 0 0  0 0 0  0 0 0  0 0 0  0 0 0
0 0 0  0 0 0  0 0 0  0 0 0  0 0 0  0 0 0
0 0 0  0 0 0  0 0 0  0 0 0  0 0 0  0 0 0
0 0 0  0 0 0  0 0 0  2 4 8  13 32 60  15 37 70
15 37 69  15 37 69  15 37 69  15 37 69  15 37 69  15 37 69
15 37 69  15 37 69  15 37 69  15 37 69  15 37 69  15 37 69
15 37 69  15 37 69  15 37 69  15 37 69  15 37 69  15 37 69
15 37 69  15 37 69  15 37 69  15 37 69  15 37 69  15 37 69
15 37 69  15 37 69  15 37 69  14 35 67  23 57 108  33 81 153
33 81 153  33 81 153  33 81 153  33 81 153  33 81 153  33 81 153
33 81 153  33 81 153  33 81 153  33 81 153  33 81 153  22 54 101
14 35 67  15 37 69  15 37 69  15 37 69  15 37 69  15 37 69
15 37 69  15 37 69  15 37 69  15 37 69  15 37 69  15 37 69
15 37 69  15 37 69  15 37 69  15 37 69  15 37 69  15 37 69
15 37 69  15 37 69  15 37 69  15 37 69  15 37 69  15 37 69
15 37 69  15 37 69  15 37 69  15 37 69  15 37 69  15 36 68
5 12 23  0 0 0  0 0 0  0 0 0  0 0 0  0 0 0
0 0 0  0 0 0  0 0 0  0 0 0  0 0 0  4 10 18
29 71 134  33 81 153  33 81 153  33 81 153  33 81 153  33 81 153
33 81 153  33 81 153  33 81 153  33 81 153  33 81 153  33 81 153
33 81 153  33 81 153  33 81 153  33 81 153  33 81 153  33 81 153
33 81 153  33 81 153  33 81 153  33 81 153  33 81 153  33 81 153
33 81 153  33 81 153  33 81 153  33 81 153  33 81 153  33 81 153
33 81 153  33 81 153  33 81 153  33 81 153  33 81 153  33 81 153
33 81 153  33 81 153  33 81 153  33 81 153  33 81 153  33 81 153
33 81 153  33 81 153  33 81 153  33 81 153  33 81 153  33 81 153
33 81 153  33 81 153  33 81 153  33 81 153  33 81 153  33 81 153
33 81 153  33 81 153  33 81 153  33 81 153  33 81 153  33 81 153
33 81 153  33 81 153  33 81 153  33 81 153  33 81 153  33 81 153
33 81 153  33 81 153  33 81 153  33 81 153  33 81 153  33 81 153
19 48 90  0 0 0  0 0 0  0 0 0
0 0 0  0 0 0  0 0 0  0 0 0  0 0 0  0 0 0
0 0 0  0 0 0  16 39 74  33 81 153  33 81 153  33 81 153
33 81 153  33 81 153  33 81 153  33 81 153  33 81 153  33 81 153
33 81 153  33 81 153  33 81 153  33 81 153  33 81 153  33 81 153
33 81 153  33 81 153  33 81 153  33 81 153  33 81 153  33 81 153
33 81 153  24 59 111  1 2 4  0 0 0  0 0 0  0 0 0
0 0 0  0 0 0  0 0 0  0 0 0  0 0 0  0 0 0
0 0 0  0 0 0  0 0 0  0 0 0  0 0 0  0 0 0
0 0 0  0 0 0  0 0 0  0 0 0  0 0 0  0 0 0
0 0 0  0 0 0  0 0 0  0 0 0  0 0 0  0 0 0
0 0 0  0 0 0  0 0 0  0 0 0  0 0 0  0 0 0
0 0 0  0 0 0  0 0 0  0 0 0  0 0 0  0 0 0
0 0 0  0 0 0  0 0 0  0 0 0  0 0 0  0 0 0
0 0 0  0 0 0  0 0 0  0 0 0  0 0 0  0 0 0
6 16 29  31 76 143  33 81 153  33 81 153  33 81 153  33 81 153
33 81 153  33 81 153  33 81 153  33 81 153  33 81 153  33 81 153
33 81 153  33 81 153  33 81 153  33 81 153  33 81 153  33 81 153
33 81 153  33 81 153  33 81 153  33 81 153  33 81 153  33 81 153
17 41 78  0 0 0  0 0 0  0 0 0  0 0 0  0 0 0
0 0 0  0 0 0  0 0 0  0 0 0  3 7 13  28 68 128
33 81 153  33 81 153  33 81 153  33 81 153  33 81 153  33 81 153
33 81 153  33 81 153  33 81 153  33 81 153  33 81 153  33 81 153
33 81 153  33 81 153  33 81 153  33 81 153  33 81 153  33 81 153
32 79 150  28 69 130  19 47 89  9 22 42  2 5 9  0 0 0
0 0 0  0 0 0  0 0 0  0 0 0  0 0 0  0 0 0
0 0 0  0 0 0  0 0 0  0 0 0  0 0 0  0 0 0
0 0 0  0 0 0  0 0 0  0 0 0  0 0 0  0 0 0
0 0 0  0 0 0  0 0 0  0 0 0  0 0 0  0 0 0
0 0 0  0 0 0  0 0 0  0 0 0  0 0 0  0 0 0
0 0 0  0 0 0  0 0 0  0 0 0  0 0 0  0 0 0
0 0 0  0 0 0  0 0 0  0 0 0  0 0 0  0 0 0
0 0 0  0 0 0  0 0 0  0 0 0  0 0 0  0 0 0
0 0 0  0 0 0  0 0 0  0 0 0  0 0 0  0 0 0
0 0 0  0 0 0  0 0 0  0 0 0  0 0 0  0 0 0
0 0 0  3 8 14  11 28 52  22 53 100  29 72 136  33 81 152
33 81 153  33 81 153  33 81 153  33 81 153  33 81 153  33 81 153
33 81 153  33 81 153  33 81 153  33 81 153  33 81 153  33 81 153
33 81 153  33 81 153  33 81 153  33 81 153  33 81 153  33 81 153
22 54 103  0 1 1  0 0 0  0 0 0  0 0 0  0 0 0
0 0 0  0 0 0  0 0 0  0 0 0  0 0 0  0 0 0
0 0 0  7 4 0  100 78 15  226 111 30  227 119 31  228 125 31
229 132 32  230 135 32  230 143 33  231 148 33  232 151 33  233 161 34
234 166 34  234 172 35  235 175 35  235 180 35  235 180 35  238 195 36
238 195 36  234 205 37  234 205 37  240 219 38  240 219 38  240 219 38
240 219 38  240 219 38  184 135 26  7 4 0  0 0 0  0 0 0
0 0 0  0 0 0  0 0 0  0 0 0  0 0 0  0 0 0
0 0 0  0 0 0  0 0 0  0 0 0  0 0 0  0 0 0
2 5 9  26 64 121  33 81 153  33 81 153  33 81 153  33 81 153
33 81 153  33 81 153  33 81 153  33 81 153  33 81 153  33 81 153
33 81 153  33 81 153  33 81 153  33 81 153  33 81 153  33 81 153
33 81 153  33 81 153  33 81 153  33 81 153  33 81 153  33 81 153
33 81 153  33 81 153  33 81 153  33 81 153  33 81 153  33 81 153
33 81 153  33 81 153  33 81 153  33 81 153  33 81 153  33 81 153
33 81 153  33 81 153  33 81 153  33 81 153  33 81 153  33 81 153
33 81 153  33 81 153  33 81 153  33 81 153  33 81 153  33 81 153
33 81 153  33 81 153  33 81 153  33 81 153  33 81 153  33 81 153
33 81 153  33 81 153  33 81 153  33 81 153  33 81 153  33 81 153
33 81 153  33 81 153  33 81 153  33 81 153  33 81 153  33 81 153
33 81 153  33 81 153  33 81 153  33 81 153  33 81 153  33 81 153
33 81 153  33 81 153  33 81 153  33 81 153  33 81 153  33 81 153
33 81 153  33 81 153  33 81 153  33 81 153  33 81 153  33 81 153
33 81 153  33 81 153  33 81 153  31 77 145  20 50 95  6 14 26
0 0 0  0 0 0  0 0 0  0 0 0  0 0 0  0 0 0
0 0 0  0 0 0  0 0 0  0 0 0  0 0 0  0 0 0
0 0 0  0 0 0  0 0 0  0 0 0  0 0 0  0 0 0
0 0 0  0 0 0  0 0 0  0 0 0  0 0 0  0 0 0
0 0 0  0 0 0  0 0 0  0 0 0  0 0 0  0 0 0
0 0 0  0 0 0  0 0 0  0 0 0  0 0 0  0 0 0
0 0 0  0 0 0  0 0 0  0 0 0  0 0 0  0 0 0
0 0 0  0 0 0  4 10 19  29 70 133  33 81 153  33 81 153
33 81 153  33 81 153  33 81 153  33 81 153  33 81 153  33 81 153
33 81 153  33 81 153  31 77 145  8 20 38  0 0 0  0 0 0
0 0 0  0 0 0  0 0 0  0 0 0  0 0 0  0 0 0
0 0 0  0 0 0  0 0 0  0 0 0  0 0 0  0 0 0
0 0 0  1 2 4  24 59 111  33 81 153  33 81 153  33 81 153
33 81 153  33 81 153  33 81 153  33 81 153  33 81 153  33 81 153
33 81 153  33 81 153  21 51 96  0 0 0  0 0 0  0 0 0
0 0 0  0 0 0  0 0 0  0 0 0  0 0 0  0 0 0
0 0 0  0 0 0  0 0 0  0 0 0  0 0 0  0 0 0
0 0 0  8 21 39  30 75 141  33 81 153  33 81 153  33 81 153
33 81 153  33 81 153  33 81 153  33 81 153  33 81 153  33 81 153
33 81 153  33 81 153  26 64 121  3 7 14  0 0 0  0 0 0
0 0 0  0 0 0  0 0 0  0 0 0  0 0 0  0 0 0
0 0 0  0 0 0  0 0 0  0 0 0  0 0 0  0 0 0
0 0 0  0 0 0  0 0 0  0 0 0  0 0 0  0 0 0
2 4 7  24 59 112  33 81 153  33 81 153  33 81 153  33 81 153
33 81 153  33 81 153  33 81 153  33 81 153  33 81 153  33 81 153
33 81 153  33 80 151  14 34 64  1 2 4  1 3 6  1 3 6
1 3 6  1 3 6  1 3 6  1 3 6  1 3 6  1 3 6
1 3 6  1 3 6  1 3 6  1 3 6  1 3 6  1 3 6
1 3 6  1 3 6  1 3 6  1 3 6  1 3 6  1 3 6
1 3 6  1 3 6  1 3 6  1 3 6  1 3 6  1 3 6
1 3 6  1 3 6  1 3 6  1 3 6  1 3 6  1 3 6
1 3 6  1 3 6  1 3 6  1 3 6  1 3 6  1 3 6
1 3 6  1 3 6  1 3 6  1 3 6  1 3 6  1 3 6
1 3 6  1 3 6  1 3 6  1 3 6  1 3 6  1 3 6
1 1 2  0 0 0  0 0 0  0 0 0  0 0 0  0 0 0
0 0 0  0 0 0  0 0 0  4 10 18  29 71 135  33 81 153
33 81 153  33 81 153  33 81 153  33 81 153  33 81 153  33 81 153
33 81 153  33 81 153  33 81 153  33 81 153  33 81 153  33 81 153
33 81 153  33 81 153  33 81 153  33 81 153  33 81 153  33 81 153
33 81 153  33 81 153  33 81 153  33 81 153  33 81 153  33 81 153
33 81 153  33 81 153  33 81 153  33 81 153  33 81 153  33 81 153
33 81 153  33 81 153  33 81 153  33 81 153  33 81 153  33 81 153
33 81 153  33 81 153  33 81 153  33 81 153  33 81 153  33 81 153
33 81 153  33 81 153  33 81 153  33 81 153  33 81 153  33 81 153
33 81 153  33 81 153  33 81 153  33 81 153  33 81 153  33 81 153
33 81 153  33 81 153  33 81 153  33 81 153  33 81 153  33 81 153
33 81 153  33 81 153  33 81 153  33 81 153  33 81 153  33 81 153
33 81 153  33 81 153  33 81 153  33 81 153  33 81 153  33 81 152
11 26 49  0 0 0  0 0 0  0 0 0  0 0 0  0 0 0
0 0 0  0 0 0  0 0 0  0 0 0  0 0 0  4 10 18
29 71 134  33 81 153  33 81 153  33 81 153  33 81 153  33 81 153
33 81 153  33 81 153  33 81 153  33 81 153  33 81 153  33 81 153
33 81 153  33 81 153  33 81 153  33 81 153  33 81 153  33 81 153
33 81 153  33 81 153  33 81 153  33 81 153  33 81 153  33 81 153
33 81 153  33 81 153  33 81 153  33 81 153  33 81 153  33 81 153
33 81 153  33 81 153  33 81 153  33 81 153  33 81 153  33 81 153
33 81 153  33 81 153  33 81 153  33 81 153  33 81 153  33 81 153
33 81 153  33 81 153  33 81 153  33 81 153  33 81 153  33 81 153
33 81 153  33 81 153  33 81 153  33 81 153  33 81 153  33 81 153
33 81 153  33 81 153  33 81 153  33 81 153  33 81 153  33 81 153
33 81 153  33 81 153  33 81 153  33 81 153  33 81 153  33 81 153
33 81 153  33 81 153  33 81 153  33 81 153  33 81 153  33 81 153
19 48 90  0 0 0  0 0 0  0 0 0
0 0 0  0 0 0  0 0 0  0 0 0  0 0 0  0 0 0
0 0 0  0 0 0  19 45 86  33 81 153  33 81 153  33 81 153
33 81 153  33 81 153  33 81 153  33 81 153  33 81 153  33 81 153
33 81 153  33 81 153  33 81 153  33 81 153  33 81 153  33 81 153
33 81 153  33 81 153  33 81 153  33 81 153  33 81 153  33 81 153
33 81 153  26 64 122  2 5 9  0 0 0  0 0 0  0 0 0
0 0 0  0 0 0  0 0 0  0 0 0  0 0 0  0 0 0
0 0 0  0 0 0  0 0 0  0 0 0  0 0 0  0 0 0
0 0 0  0 0 0  0 0 0  0 0 0  0 0 0  0 0 0
0 0 0  0 0 0  0 0 0  0 0 0  0 0 0  0 0 0
0 0 0  0 0 0  0 0 0  0 0 0  0 0 0  0 0 0
0 0 0  0 0 0  0 0 0  0 0 0  0 0 0  0 0 0
0 0 0  0 0 0  0 0 0  0 0 0  0 0 0  0 0 0
0 0 0  0 0 0  0 0 0  0 0 0  0 0 0  0 0 0
9 21 40  32 78 148  33 81 153  33 81 153  33 81 153  33 81 153
33 81 153  33 81 153  33 81 153  33 81 153  33 81 153  33 81 153
33 81 153  33 81 153  33 81 153  33 81 153  33 81 153  33 81 153
33 81 153  33 81 153  33 81 153  33 81 153  33 81 153  33 81 153
19 48 90  0 0 0  0 0 0  0 0 0  0 0 0  0 0 0
0 0 0  0 0 0  0 0 0  0 0 0  3 7 13  28 68 128
33 81 153  33 81 153  33 81 153  33 81 153  33 81 153  33 81 153
33 81 153  33 81 153  33 81 153  33 81 153  33 81 153  33 81 153
33 81 153  33 81 153  33 81 153  33 81 153  33 81 153  33 81 153
33 81 153  33 81 153  33 81 153  32 78 147  25 62 117  14 35 66
4 10 19  0 0 0  0 0 0  0 0 0  0 0 0  0 0 0
0 0 0  0 0 0  0 0 0  0 0 0  0 0 0  0 0 0
0 0 0  0 0 0  0 0 0  0 0 0  0 0 0  0 0 0
0 0 0  0 0 0  0 0 0  0 0 0  0 0 0  0 0 0
0 0 0  0 0 0  0 0 0  0 0 0  0 0 0  0 0 0
0 0 0  0 0 0  0 0 0  0 0 0  0 0 0  0 0 0
0 0 0  0 0 0  0 0 0  0 0 0  0 0 0  0 0 0
0 0 0  0 0 0  0 0 0  0 0 0  0 0 0  0 0 0
0 0 0  0 0 0  0 0 0  0 0 0  0 0 0  0 0 0
0 0 0  0 0 0  0 0 0  0 0 0  0 1 2  6 15 28
17 42 79  27 67 126  32 80 151  33 81 153  33 81 153  33 81 153
33 81 153  33 81 153  33 81 153  33 81 153  33 81 153  33 81 153
33 81 153  33 81 153  33 81 153  33 81 153  33 81 153  33 81 153
33 81 153  33 81 153  33 81 153  33 81 153  33 81 153  33 81 153
21 53 100  0 1 1  0 0 0  0 0 0  0 0 0  0 0 0
0 0 0  0 0 0  0 0 0  0 0 0  0 0 0  0 0 0
0 0 0  95 32 12  225 105 30  226 111 30  227 119 31  228 125 31
229 132 32  230 135 32  230 143 33  231 148 33  232 155 33  233 161 34
234 166 34  234 172 35  235 175 35  235 180 35  235 180 35  238 195 36
238 195 36  234 205 37  234 205 37  240 219 38  240 219 38  240 219 38
240 219 38  240 219 38  240 219 38  100 78 15  0 0 0  0 0 0
0 0 0  0 0 0  0 0 0  0 0 0  0 0 0  0 0 0
0 0 0  0 0 0  0 0 0  0 0 0  0 0 0  0 0 0
2 5 9  26 64 121  33 81 153  33 81 153  33 81 153  33 81 153
33 81 153  33 81 153  33 81 153  33 81 153  33 81 153  33 81 153
33 81 153  33 81 153  33 81 153  33 81 153  33 81 153  33 81 153
33 81 153  33 81 153  33 81 153  33 81 153  33 81 153  33 81 153
33 81 153  33 81 153  33 81 153  33 81 153  33 81 153  33 81 153
33 81 153  33 81 153  33 81 153  33 81 153  33 81 153  33 81 153
33 81 153  33 81 153  33 81 153  33 81 153  33 81 153  33 81 153
33 81 153  33 81 153  33 81 153  33 81 153  33 81 153  33 81 153
33 81 153  33 81 153  33 81 153  33 81 153  33 81 153  33 81 153
33 81 153  33 81 153  33 81 153  33 81 153  33 81 153  33 81 153
33 81 153  33 81 153  33 81 153  33 81 153  33 81 153  33 81 153
33 81 153  33 81 153  33 81 153  33 81 153  33 81 153  33 81 153
33 81 153  33 81 153  33 81 153  33 81 153  33 81 153  33 81 153
33 81 153  33 81 153  33 81 153  33 81 153  33 81 153  33 81 153
33 81 153  33 81 153  33 81 153  33 81 153  33 81 153  28 70 132
13 31 59  1 2 4  0 0 0  0 0 0  0 0 0  0 0 0
0 0 0  0 0 0  0 0 0  0 0 0  0 0 0  0 0 0
0 0 0  0 0 0  0 0 0  0 0 0  0 0 0  0 0 0
0 0 0  0 0 0  0 0 0  0 0 0  0 0 0  0 0 0
0 0 0  0 0 0  0 0 0  0 0 0  0 0 0  0 0 0
0 0 0  0 0 0  0 0 0  0 0 0  0 0 0  0 0 0
0 0 0  0 0 0  0 0 0  0 0 0  0 0 0  0 0 0
0 0 0  0 0 0  0 0 1  20 48 91  33 81 153  33 81 153
33 81 153  33 81 153  33 81 153  33 81 153  33 81 153  33 81 153
33 81 153  33 81 153  33 81 153  21 51 96  1 1 2  0 0 0
0 0 0  0 0 0  0 0 0  0 0 0  0 0 0  0 0 0
0 0 0  0 0 0  0 0 0  0 0 0  0 0 0  0 0 0
0 0 0  1 2 4  24 59 111  33 81 153  33 81 153  33 81 153
33 81 153  33 81 153  33 81 153  33 81 153  33 81 153  33 81 153
33 81 153  33 81 153  21 51 95  0 0 0  0 0 0  0 0 0
0 0 0  0 0 0  0 0 0  0 0 0  0 0 0  0 0 0
0 0 0  0 0 0  0 0 0  0 0 0  0 0 0  0 0 0
3 7 13  25 61 116  33 81 153  33 81 153  33 81 153  33 81 153
33 81 153  33 81 153  33 81 153  33 81 153  33 81 153  33 81 153
33 81 153  32 79 150  12 30 56  0 0 0  0 0 0  0 0 0
0 0 0  0 0 0  0 0 0  0 0 0  0 0 0  0 0 0
0 0 0  0 0 0  0 0 0  0 0 0  0 0 0  0 0 0
0 0 0  0 0 0  0 0 0  0 0 0  0 0 0  0 0 0
10 24 44  32 78 148  33 81 153  33 81 153  33 81 153  33 81 153
33 81 153  33 81 153  33 81 153  33 81 153  33 81 153  33 81 153
33 81 153  32 80 151  27 65 123  25 61 116  25 62 116  25 62 116
25 62 116  25 62 116  25 62 116  25 62 116  25 62 116  25 62 116
25 62 116  25 62 116  25 62 116  25 62 116  25 62 116  25 62 116
25 62 116  25 62 116  25 62 116  25 62 116  25 62 116  25 62 116
25 62 116  25 62 116  25 62 116  25 62 116  25 62 116  25 62 116
25 62 116  25 62 116  25 62 116  25 62 116  25 62 116  25 62 116
25 62 116  25 62 116  25 62 116  25 62 116  25 62 116  25 62 116
25 62 116  25 62 116  25 62 116  25 62 116  25 62 116  25 62 116
25 62 116  25 62 116  25 62 116  25 62 116  25 62 116  25 62 117
10 25 47  0 0 0  0 0 0  0 0 0  0 0 0  0 0 0
0 0 0  0 0 0  0 0 0  4 10 18  29 71 134  33 81 153
33 81 153  33 81 153  33 81 153  33 81 153  33 81 153  33 81 153
33 81 153  33 81 153  33 81 153  33 81 153  33 81 153  33 81 153
33 81 153  33 81 153  33 81 153  33 81 153  33 81 153  33 81 153
33 81 153  33 81 153  33 81 153  33 81 153  33 81 153  33 81 153
33 81 153  33 81 153  33 81 153  33 81 153  33 81 153  33 81 153
33 81 153  33 81 153  33 81 153  33 81 153  33 81 153  33 81 153
33 81 153  33 81 153  33 81 153  33 81 153  33 81 153  33 81 153
33 81 153  33 81 153  33 81 153  33 81 153  33 81 153  33 81 153
33 81 153  33 81 153  33 81 153  33 81 153  33 81 153  33 81 153
33 81 153  33 81 153  33 81 153  33 81 153  33 81 153  33 81 153
33 81 153  33 81 153  33 81 153  33 81 153  33 81 153  33 81 153
33 81 153  33 81 153  33 81 153  33 81 153  33 81 153  32 80 151
10 26 49  0 0 0  0 0 0  0 0 0  0 0 0  0 0 0
0 0 0  0 0 0  0 0 0  0 0 0  0 0 0  4 10 18
29 71 134  33 81 153  33 81 153  33 81 153  33 81 153  33 81 153
33 81 153  33 81 153  33 81 153  33 81 153  33 81 153  33 81 153
33 81 153  33 81 153  33 81 153  33 81 153  33 81 153  33 81 153
33 81 153  33 81 153  33 81 153  33 81 153  33 81 153  33 81 153
33 81 153  33 81 153  33 81 153  33 81 153  33 81 153  33 81 153
33 81 153  33 81 153  33 81 153  33 81 153  33 81 153  33 81 153
33 81 153  33 81 153  33 81 153  33 81 153  33 81 153  33 81 153
33 81 153  33 81 153  33 81 153  33 81 153  33 81 153  33 81 153
33 81 153  33 81 153  33 81 153  33 81 153  33 81 153  33 81 153
33 81 153  33 81 153  33 81 153  33 81 153  33 81 153  33 81 153
33 81 153  33 81 153  33 81 153  33 81 153  33 81 153  33 81 153
33 81 153  33 81 153  33 81 153  33 81 153  33 81 153  33 81 153
19 48 90  0 0 0  0 0 0  0 0 0
0 0 0  0 0 0  0 0 0  0 0 0  0 0 0  0 0 0
0 0 0  0 0 1  21 52 98  33 81 153  33 81 153  33 81 153
33 81 153  33 81 153  33 81 153  33 81 153  33 81 153  33 81 153
33 81 153  33 81 153  33 81 153  33 81 153  33 81 153  33 81 153
33 81 153  33 81 153  33 81 153  33 81 153  33 81 153  33 81 153
33 81 153  28 70 132  3 9 16  0 0 0  0 0 0  0 0 0
0 0 0  0 0 0  0 0 0  0 0 0  0 0 0  0 0 0
0 0 0  0 0 0  0 0 0  0 0 0  0 0 0  0 0 0
0 0 0  0 0 0  0 0 0  0 0 0  0 0 0  0 0 0
0 0 0  0 0 0  0 0 0  0 0 0  0 0 0  0 0 0
0 0 0  0 0 0  0 0 0  0 0 0  0 0 0  0 0 0
0 0 0  0 0 0  0 0 0  0 0 0  0 0 0  0 0 0
0 0 0  0 0 0  0 0 0  0 0 0  0 0 0  0 0 0
0 0 0  0 0 0  0 0 0  0 0 0  0 0 0  0 0 0
11 28 53  33 80 152  33 81 153  33 81 153  33 81 153  33 81 153
33 81 153  33 81 153  33 81 153  33 81 153  33 81 153  33 81 153
33 81 153  33 81 153  33 81 153  33 81 153  33 81 153  33 81 153
33 81 153  33 81 153  33 81 153  33 81 153  33 81 153  33 81 153
22 54 102  0 1 2  0 0 0  0 0 0  0 0 0  0 0 0
0 0 0  0 0 0  0 0 0  0 0 0  2 6 11  27 67 126
33 81 153  33 81 153  33 81 153  33 81 153  33 81 153  33 81 153
33 81 153  33 81 153  33 81 153  33 81 153  33 81 153  33 81 153
33 81 153  33 81 153  33 81 153  33 81 153  33 81 153  33 81 153
33 81 153  33 81 153  33 81 153  33 81 153  33 81 153  33 81 153
28 69 131  17 43 80  6 14 26  0 0 0  0 0 0  0 0 0
0 0 0  0 0 0  0 0 0  0 0 0  0 0 0  0 0 0
0 0 0  0 0 0  0 0 0  0 0 0  0 0 0  0 0 0
0 0 0  0 0 0  0 0 0  0 0 0  0 0 0  0 0 0
0 0 0  0 0 0  0 0 0  0 0 0  0 0 0  0 0 0
0 0 0  0 0 0  0 0 0  0 0 0  0 0 0  0 0 0
0 0 0  0 0 0  0 0 0  0 0 0  0 0 0  0 0 0
0 0 0  0 0 0  0 0 0  0 0 0  0 0 0  0 0 0
0 0 0  0 0 0  0 0 0  0 0 0  0 0 0  0 0 0
0 0 0  0 0 0  1 2 3  8 20 37  20 50 94  30 74 139
33 81 153  33 81 153  33 81 153  33 81 153  33 81 153  33 81 153
33 81 153  33 81 153  33 81 153  33 81 153  33 81 153  33 81 153
33 81 153  33 81 153  33 81 153  33 81 153  33 81 153  33 81 153
33 81 153  33 81 153  33 81 153  33 81 153  33 81 153  33 81 153
21 53 100  0 1 1  0 0 0  0 0 0  0 0 0  0 0 0
0 0 0  0 0 0  0 0 0  0 0 0  0 0 0  0 0 0
48 29 6  221 93 28  226 111 30  226 111 30  227 119 31  228 125 31
229 132 32  230 135 32  230 143 33  231 148 33  232 155 33  233 161 34
234 166 34  234 172 35  235 175 35  235 180 35  235 180 35  238 195 36
238 195 36  234 205 37  234 205 37  240 219 38  240 219 38  240 219 38
240 219 38  240 219 38  240 219 38  227 187 35  48 29 6  0 0 0
0 0 0  0 0 0  0 0 0  0 0 0  0 0 0  0 0 0
0 0 0  0 0 0  0 0 0  0 0 0  0 0 0  0 0 0
2 5 9  26 64 121  33 81 153  33 81 153  33 81 153  33 81 153
33 81 153  33 81 153  33 81 153  33 81 153  33 81 153  33 81 153
33 81 153  33 81 153  33 81 153  33 81 153  33 81 153  33 81 153
33 81 153  33 81 153  33 81 153  33 81 153  33 81 153  33 81 153
33 81 153  33 81 153  33 81 153  33 81 153  33 81 153  33 81 153
33 81 153  33 81 153  33 81 153  33 81 153  33 81 153  33 81 153
33 81 153  33 81 153  33 81 153  33 81 153  33 81 153  33 81 153
33 81 153  33 81 153  33 81 153  33 81 153  33 81 153  33 81 153
33 81 153  33 81 153  33 81 153  33 81 153  33 81 153  33 81 153
33 81 153  33 81 153  33 81 153  33 81 153  33 81 153  33 81 153
33 81 153  33 81 153  33 81 153  33 81 153  33 81 153  33 81 153
33 81 153  33 81 153  33 81 153  33 81 153  33 81 153  33 81 153
33 81 153  33 81 153  33 81 153  33 81 153  33 81 153  33 81 153
33 81 153  33 81 153  33 81 153  33 81 153  33 81 153  33 81 153
33 81 153  33 81 153  33 81 153  33 81 153  33 81 153  33 81 153
32 79 149  19 47 89  3 7 13  0 0 0  0 0 0  0 0 0
0 0 0  0 0 0  0 0 0  0 0 0  0 0 0  0 0 0
0 0 0  0 0 0  0 0 0  0 0 0  0 0 0  0 0 0
0 0 0  0 0 0  0 0 0  0 0 0  0 0 0  0 0 0
0 0 0  0 0 0  0 0 0  0 0 0  0 0 0  0 0 0
0 0 0  0 0 0  0 0 0  0 0 0  0 0 0  0 0 0
0 0 0  0 0 0  0 0 0  0 0 0  0 0 0  0 0 0
0 0 0  0 0 0  0 0 0  10 24 46  32 79 149  33 81 153
33 81 153  33 81 153  33 81 153  33 81 153  33 81 153  33 81 153
33 81 153  33 81 153  33 81 153  30 75 141  7 17 32  0 0 0
0 0 0  0 0 0  0 0 0  0 0 0  0 0 0  0 0 0
0 0 0  0 0 0  0 0 0  0 0 0  0 0 0  0 0 0
0 0 0  1 2 4  24 59 111  33 81 153  33 81 153  33 81 153
33 81 153  33 81 153  33 81 153  33 81 153  33 81 153  33 81 153
33 81 153  33 81 153  21 51 95  0 0 0  0 0 0  0 0 0
0 0 0  0 0 0  0 0 0  0 0 0  0 0 0  0 0 0
0 0 0  0 0 0  0 0 0  0 0 0  0 0 0  0 1 1
17 43 81  33 81 153  33 81 153  33 81 153  33 81 153  33 81 153
33 81 153  33 81 153  33 81 153  33 81 153  33 81 153  33 81 153
33 81 153  24 60 113  2 4 8  0 0 0  0 0 0  0 0 0
0 0 0  0 0 0  0 0 0  0 0 0  0 0 0  0 0 0
0 0 0  0 0 0  0 0 0  0 0 0  0 0 0  0 0 0
0 0 0  0 0 0  0 0 0  0 0 0  0 0 0  1 2 3
22 54 101  33 81 153  33 81 153  33 81 153  33 81 153  33 81 153
33 81 153  33 81 153  33 81 153  33 81 153  33 81 153  33 81 153
33 81 153  33 81 153  33 81 153  33 81 153  33 81 153  33 81 153
33 81 153  33 81 153  33 81 153  33 81 153  33 81 153  33 81 153
33 81 153  33 81 153  33 81 153  33 81 153  33 81 153  33 81 153
33 81 153  33 81 153  33 81 153  33 81 153  33 81 153  33 81 153
33 81 153  33 81 153  33 81 153  33 81 153  33 81 153  33 81 153
33 81 153  33 81 153  33 81 153  33 81 153  33 81 153  33 81 153
33 81 153  33 81 153  33 81 153  33 81 153  33 81 153  33 81 153
33 81 153  33 81 153  33 81 153  33 81 153  33 81 153  33 81 153
33 81 153  33 81 153  33 81 153  33 81 153  33 81 153  33 81 153
14 33 63  0 0 0  0 0 0  0 0 0  0 0 0  0 0 0
0 0 0  0 0 0  0 0 0  4 10 18  29 71 134  33 81 153
33 81 153  33 81 153  33 81 153  33 81 153  33 81 153  33 81 153
33 81 153  33 81 153  33 81 153  33 81 153  33 81 153  33 81 153
33 81 153  33 81 153  33 81 153  33 81 153  33 81 153  33 81 153
33 81 153  33 81 153  33 81 153  33 81 153  33 81 153  33 81 153
33 81 153  33 81 153  33 81 153  33 81 153  33 81 153  33 81 153
33 81 153  33 81 153  33 81 153  33 81 153  33 81 153  33 81 153
33 81 153  33 81 153  33 81 153  33 81 153  33 81 153  33 81 153
33 81 153  33 81 153  33 81 153  33 81 153  33 81 153  33 81 153
33 81 153  33 81 153  33 81 153  33 81 153  33 81 153  33 81 153
33 81 153  33 81 153  33 81 153  33 81 153  33 81 153  33 81 153
33 81 153  33 81 153  33 81 153  33 81 153  33 81 153  33 81 153
33 81 153  33 81 153  33 81 153  33 81 153  33 81 153  32 80 151
10 26 49  0 0 0  0 0 0  0 0 0  0 0 0  0 0 0
0 0 0  0 0 0  0 0 0  0 0 0  0 0 0  4 10 18
29 71 134  33 81 153  33 81 153  33 81 153  33 81 153  33 81 153
33 81 153  33 81 153  33 81 153  33 81 153  33 81 153  33 81 153
33 81 153  33 81 153  33 81 153  33 81 153  33 81 153  33 81 153
33 81 153  33 81 153  33 81 153  33 81 153  33 81 153  33 81 153
33 81 153  33 81 153  33 81 153  33 81 153  33 81 153  33 81 153
33 81 153  33 81 153  33 81 153  33 81 153  33 81 153  33 81 153
33 81 153  33 81 153  33 81 153  33 81 153  33 81 153  33 81 153
33 81 153  33 81 153  33 81 153  33 81 153  33 81 153  33 81 153
33 81 153  33 81 153  33 81 153  33 81 153  33 81 153  33 81 153
33 81 153  33 81 153  33 81 153  33 81 153  33 81 153  33 81 153
33 81 153  33 81 153  33 81 153  33 81 153  33 81 153  33 81 153
33 81 153  33 81 153  33 81 153  33 81 153  33 81 153  33 81 153
19 48 90  0 0 0  0 0 0  0 0 0
0 0 0  0 0 0  0 0 0  0 0 0  0 0 0  0 0 0
0 0 0  1 2 4  24 58 110  33 81 153  33 81 153  33 81 153
33 81 153  33 81 153  33 81 153  33 81 153  33 81 153  33 81 153
33 81 153  33 81 153  33 81 153  33 81 153  33 81 153  33 81 153
33 81 153  33 81 153  33 81 153  33 81 153  33 81 153  33 81 153
33 81 153  30 75 141  6 14 26  0 0 0  0 0 0  0 0 0
0 0 0  0 0 0  0 0 0  0 0 0  0 0 0  0 0 0
0 0 0  0 0 0  0 0 0  0 0 0  0 0 0  0 0 0
0 0 0  0 0 0  0 0 0  0 0 0  0 0 0  0 0 0
0 0 0  0 0 0  0 0 0  0 0 0  0 0 0  0 0 0
0 0 0  0 0 0  0 0 0  0 0 0  0 0 0  0 0 0
0 0 0  0 0 0  0 0 0  0 0 0  0 0 0  0 0 0
0 0 0  0 0 0  0 0 0  0 0 0  0 0 0  0 0 0
0 0 0  0 0 0  0 0 0  0 0 0  0 0 0  0 0 0
15 36 68  33 81 153  33 81 153  33 81 153  33 81 153  33 81 153
33 81 153  33 81 153  33 81 153  33 81 153  33 81 153  33 81 153
33 81 153  33 81 153  33 81 153  33 81 153  33 81 153  33 81 153
33 81 153  33 81 153  33 81 153  33 81 153  33 81 153  33 81 153
24 60 113  1 3 5  0 0 0  0 0 0  0 0 0  0 0 0
0 0 0  0 0 0  0 0 0  0 0 0  2 6 11  27 66 125
33 81 153  33 81 153  33 81 153  33 81 153  33 81 153  33 81 153
33 81 153  33 81 153  33 81 153  33 81 153  33 81 153  33 81 153
33 81 153  33 81 153  33 81 153  33 81 153  33 81 153  33 81 153
33 81 153  33 81 153  33 81 153  33 81 153  33 81 153  33 81 153
33 81 153  33 81 153  29 72 136  18 45 85  5 13 25  0 0 0
0 0 0  0 0 0  0 0 0  0 0 0  0 0 0  0 0 0
0 0 0  0 0 0  0 0 0  0 0 0  0 0 0  0 0 0
0 0 0  0 0 0  0 0 0  0 0 0  0 0 0  0 0 0
0 0 0  0 0 0  0 0 0  0 0 0  0 0 0  0 0 0
0 0 0  0 0 0  0 0 0  0 0 0  0 0 0  0 0 0
0 0 0  0 0 0  0 0 0  0 0 0  0 0 0  0 0 0
0 0 0  0 0 0  0 0 0  0 0 0  0 0 0  0 0 0
0 0 0  0 0 0  0 0 0  0 0 0  0 0 0  0 0 0
1 1 2  8 20 37  21 52 99  31 76 143  33 81 153  33 81 153
33 81 153  33 81 153  33 81 153  33 81 153  33 81 153  33 81 153
33 81 153  33 81 153  33 81 153  33 81 153  33 81 153  33 81 153
33 81 153  33 81 153  33 81 153  33 81 153  33 81 153  33 81 153
33 81 153  33 81 153  33 81 153  33 81 153  33 81 153  33 81 153
21 53 100  0 1 1  0 0 0  0 0 0  0 0 0  0 0 0
0 0 0  0 0 0  0 0 0  0 0 0  0 0 0  2 1 0
100 78 15  225 105 30  225 105 30  226 111 30  227 119 31  228 125 31
229 132 32  230 135 32  230 143 33  231 148 33  232 151 33  233 161 34
233 161 34  234 172 35  235 175 35  235 180 35  235 180 35  238 195 36
238 195 36  238 195 36  234 205 37  240 219 38  240 219 38  240 219 38
240 219 38  240 219 38  240 219 38  240 219 38  184 135 26  7 4 0
0 0 0  0 0 0  0 0 0  0 0 0  0 0 0  0 0 0
0 0 0  0 0 0  0 0 0  0 0 0  0 0 0  0 0 0
2 5 9  26 64 121  33 81 153  33 81 153  33 81 153  33 81 153
33 81 153  33 81 153  33 81 153  33 81 153  33 81 153  33 81 153
33 81 153  33 81 153  33 81 153  33 81 153  33 81 153  33 81 153
33 81 153  33 81 153  33 81 153  33 81 153  33 81 153  33 81 153
33 81 153  33 81 153  33 81 153  33 81 153  33 81 153  33 81 153
33 81 153  33 81 153  33 81 153  33 81 153  33 81 153  33 81 153
33 81 153  33 81 153  33 81 153  33 81 153  33 81 153  33 81 153
33 81 153  33 81 153  33 81 153  33 81 153  33 81 153  33 81 153
33 81 153  33 81 153  33 81 153  33 81 153  33 81 153  33 81 153
33 81 153  33 81 153  33 81 153  33 81 153  33 81 153  33 81 153
33 81 153  33 81 153  33 81 153  33 81 153  33 81 153  33 81 153
33 81 153  33 81 153  33 81 153  33 81 153  33 81 153  33 81 153
33 81 153  33 81 153  33 81 153  33 81 153  33 81 153  33 81 153
33 81 153  33 81 153  33 81 153  33 81 153  33 81 153  33 81 153
33 81 153  33 81 153  33 81 153  33 81 153  33 81 153  33 81 153
33 81 153  33 81 153  23 57 107  4 10 20  0 0 0  0 0 0
0 0 0  0 0 0  0 0 0  0 0 0  0 0 0  0 0 0
0 0 0  0 0 0  0 0 0  0 0 0  0 0 0  0 0 0
0 0 0  0 0 0  0 0 0  0 0 0  0 0 0  0 0 0
0 0 0  0 0 0  0 0 0  0 0 0  0 0 0  0 0 0
0 0 0  0 0 0  0 0 0  0 0 0  0 0 0  0 0 0
0 0 0  0 0 0  0 0 0  0 0 0  0 0 0  0 0 0
0 0 0  0 0 0  0 0 0  3 7 13  27 66 124  33 81 153
33 81 153  33 81 153  33 81 153  33 81 153  33 81 153  33 81 153
33 81 153  33 81 153  33 81 153  33 81 153  19 47 89  0 0 1
0 0 0  0 0 0  0 0 0  0 0 0  0 0 0  0 0 0
0 0 0  0 0 0  0 0 0  0 0 0  0 0 0  0 0 0
0 0 0  1 2 4  24 59 111  33 81 153  33 81 153  33 81 153
33 81 153  33 81 153  33 81 153  33 81 153  33 81 153  33 81 153
33 81 153  33 81 153  21 51 95  0 0 0  0 0 0  0 0 0
0 0 0  0 0 0  0 0 0  0 0 0  0 0 0  0 0 0
0 0 0  0 0 0  0 0 0  0 0 0  0 0 0  10 24 44
31 76 143  33 81 153  33 81 153  33 81 153  33 81 153  33 81 153
33 81 153  33 81 153  33 81 153  33 81 153  33 81 153  33 81 153
32 78 148  10 25 48  0 0 0  0 0 0  0 0 0  0 0 0
0 0 0  0 0 0  0 0 0  0 0 0  0 0 0  0 0 0
0 0 0  0 0 0  0 0 0  0 0 0  0 0 0  0 0 0
0 0 0  0 0 0  0 0 0  0 0 0  0 0 0  7 18 34
31 75 142  33 81 153  33 81 153  33 81 153  33 81 153  33 81 153
33 81 153  33 81 153  33 81 153  33 81 153  33 81 153  33 81 153
33 81 153  33 81 153  33 81 153  33 81 153  33 81 153  33 81 153
33 81 153  33 81 153  33 81 153  33 81 153  33 81 153  33 81 153
33 81 153  33 81 153  33 81 153  33 81 153  33 81 153  33 81 153
33 81 153  33 81 153  33 81 153  33 81 153  33 81 153  33 81 153
33 81 153  33 81 153  33 81 153  33 81 153  33 81 153  33 81 153
33 81 153  33 81 153  33 81 153  33 81 153  33 81 153  33 81 153
33 81 153  33 81 153  33 81 153  33 81 153  33 81 153  33 81 153
33 81 153  33 81 153  33 81 153  33 81 153  33 81 153  33 81 153
33 81 153  33 81 153  33 81 153  33 81 153  33 81 153  33 81 153
13 33 62  0 0 0  0 0 0  0 0 0  0 0 0  0 0 0
0 0 0  0 0 0  0 0 0  4 10 18  29 71 134  33 81 153
33 81 153  33 81 153  33 81 153  33 81 153  33 81 153  33 81 153
33 81 153  33 81 153  33 81 153  33 81 153  33 81 153  33 81 153
33 81 153  33 81 153  33 81 153  33 81 153  33 81 153  33 81 153
33 81 153  33 81 153  33 81 153  33 81 153  33 81 153  33 81 153
33 81 153  33 81 153  33 81 153  33 81 153  33 81 153  33 81 153
33 81 153  33 81 153  33 81 153  33 81 153  33 81 153  33 81 153
33 81 153  33 81 153  33 81 153  33 81 153  33 81 153  33 81 153
33 81 153  33 81 153  33 81 153  33 81 153  33 81 153  33 81 153
33 81 153  33 81 153  33 81 153  33 81 153  33 81 153  33 81 153
33 81 153  33 81 153  33 81 153  33 81 153  33 81 153  33 81 153
33 81 153  33 81 153  33 81 153  33 81 153  33 81 153  33 81 153
33 81 153  33 81 153  33 81 153  33 81 153  33 81 153  32 80 151
10 26 49  0 0 0  0 0 0  0 0 0  0 0 0  0 0 0
0 0 0  0 0 0  0 0 0  0 0 0  0 0 0  4 10 18
29 71 134  33 81 153  33 81 153  33 81 153  33 81 153  33 81 153
33 81 153  33 81 153  33 81 153  33 81 153  33 81 153  33 81 153
33 81 153  33 81 153  33 81 153  33 81 153  33 81 153  33 81 153
33 81 153  33 81 153  33 81 153  33 81 153  33 81 153  33 81 153
33 81 153  33 81 153  33 81 153  33 81 153  33 81 153  33 81 153
33 81 153  33 81 153  33 81 153  33 81 153  33 81 153  33 81 153
33 81 153  33 81 153  33 81 153  33 81 153  33 81 153  33 81 153
33 81 153  33 81 153  33 81 153  33 81 153  33 81 153  33 81 153
33 81 153  33 81 153  33 81 153  33 81 153  33 81 153  33 81 153
33 81 153  33 81 153  33 81 153  33 81 153  33 81 153  33 81 153
33 81 153  33 81 153  33 81 153  33 81 153  33 81 153  33 81 153
33 81 153  33 81 153  33 81 153  33 81 153  33 81 153  33 81 153
20 48 91  0 0 0  0 0 0  0 0 0
0 0 0  0 0 0  0 0 0  0 0 0  0 0 0  0 0 0
0 0 0  2 4 8  26 64 120  33 81 153  33 81 153  33 81 153
33 81 153  33 81 153  33 81 153  33 81 153  33 81 153  33 81 153
33 81 153  33 81 153  33 81 153  33 81 153  33 81 153  33 81 153
33 81 153  33 81 153  33 81 153  33 81 153  33 81 153  33 81 153
33 81 153  32 78 148  9 21 40  0 0 0  0 0 0  0 0 0
0 0 0  0 0 0  0 0 0  0 0 0  0 0 0  0 0 0
0 0 0  0 0 0  0 0 0  0 0 0  0 0 0  0 0 0
0 0 0  0 0 0  0 0 0  0 0 0  0 0 0  0 0 0
0 0 0  0 0 0  0 0 0  0 0 0  0 0 0  0 0 0
0 0 0  0 0 0  0 0 0  0 0 0  0 0 0  0 0 0
0 0 0  0 0 0  0 0 0  0 0 0  0 0 0  0 0 0
0 0 0  0 0 0  0 0 0  0 0 0  0 0 0  0 0 0
0 0 0  0 0 0  0 0 0  0 0 0  0 0 0  0 0 0
19 45 86  33 81 153  33 81 153  33 81 153  33 81 153  33 81 153
33 81 153  33 81 153  33 81 153  33 81 153  33 81 153  33 81 153
33 81 153  33 81 153  33 81 153  33 81 153  33 81 153  33 81 153
33 81 153  33 81 153  33 81 153  33 81 153  33 81 153  33 81 153
27 65 124  2 5 10  0 0 0  0 0 0  0 0 0  0 0 0
0 0 0  0 0 0  0 0 0  0 0 0  2 6 11  27 66 125
33 81 153  33 81 153  33 81 153  33 81 153  33 81 153  33 81 153
33 81 153  33 81 153  33 81 153  33 81 153  33 81 153  33 81 153
33 81 153  33 81 153  33 81 153  33 81 153  33 81 153  33 81 153
33 81 153  33 81 153  33 81 153  33 81 153  33 81 153  33 81 153
33 81 153  33 81 153  33 81 153  33 81 153  29 71 135  17 41 77
4 10 18  0 0 0  0 0 0  0 0 0  0 0 0  0 0 0
0 0 0  0 0 0  0 0 0  0 0 0  0 0 0  0 0 0
0 0 0  0 0 0  0 0 0  0 0 0  0 0 0  0 0 0
0 0 0  0 0 0  0 0 0  0 0 0  0 0 0  0 0 0
0 0 0  0 0 0  0 0 0  0 0 0  0 0 0  0 0 0
0 0 0  0 0 0  0 0 0  0 0 0  0 0 0  0 0 0
0 0 0  0 0 0  0 0 0  0 0 0  0 0 0  0 0 0
0 0 0  0 0 0  0 0 0  0 0 0  0 0 0  6 15 29
20 50 94  31 76 143  33 81 153  33 81 153  33 81 153  33 81 153
33 81 153  33 81 153  33 81 153  33 81 153  33 81 153  33 81 153
33 81 153  33 81 153  33 81 153  33 81 153  33 81 153  33 81 153
33 81 153  33 81 153  33 81 153  33 81 153  33 81 153  33 81 153
33 81 153  33 81 153  33 81 153  33 81 153  33 81 153  33 81 153
21 53 100  0 1 1  0 0 0  0 0 0  0 0 0  0 0 0
0 0 0  0 0 0  0 0 0  0 0 0  0 0 0  48 29 6
221 93 28  224 99 29  225 105 30  226 111 30  227 119 31  228 125 31
229 127 32  230 135 32  230 138 32  231 148 33  232 151 33  232 155 33
233 161 34  234 166 34  234 172 35  235 180 35  235 180 35  238 195 36
238 195 36  238 195 36  234 205 37  234 205 37  240 219 38  240 219 38
240 219 38  240 219 38  240 219 38  234 205 37  227 187 35  48 29 6
0 0 0  0 0 0  0 0 0  0 0 0  0 0 0  0 0 0
0 0 0  0 0 0  0 0 0  0 0 0  0 0 0  0 0 0
2 5 9  26 64 121  33 81 153  33 81 153  33 81 153  33 81 153
33 81 153  33 81 153  33 81 153  33 81 153  33 81 153  33 81 153
33 81 153  33 81 153  33 81 153  33 81 153  33 81 153  33 81 153
33 81 153  33 81 153  33 81 153  33 81 153  33 81 153  33 81 153
33 81 153  33 81 153  33 81 153  33 81 153  33 81 153  33 81 153
33 81 153  33 81 153  33 81 153  33 81 153  33 81 153  33 81 153
33 81 153  33 81 153  33 81 153  33 81 153  33 81 153  33 81 153
33 81 153  33 81 153  33 81 153  33 81 153  33 81 153  33 81 153
33 81 153  33 81 153  33 81 153  33 81 153  33 81 153  33 81 153
33 81 153  33 81 153  33 81 153  33 81 153  33 81 153  33 81 153
33 81 153  33 81 153  33 81 153  33 81 153  33 81 153  33 81 153
33 81 153  33 81 153  33 81 153  33 81 153  33 81 153  33 81 153
33 81 153  33 81 153  33 81 153  33 81 153  33 81 153  33 81 153
33 81 153  33 81 153  33 81 153  33 81 153  33 81 153  33 81 153
33 81 153  33 81 153  33 81 153  33 81 153  33 81 153  33 81 153
33 81 153  33 81 153  33 81 153  25 60 114  5 11 21  0 0 0
0 0 0  0 0 0  0 0 0  0 0 0  0 0 0  0 0 0
0 0 0  0 0 0  0 0 0  0 0 0  0 0 0  0 0 0
0 0 0  0 0 0  0 0 0  0 0 0  0 0 0  0 0 0
0 0 0  0 0 0  0 0 0  0 0 0  0 0 0  0 0 0
0 0 0  0 0 0  0 0 0  0 0 0  0 0 0  0 0 0
0 0 0  0 0 0  0 0 0  0 0 0  0 0 0  0 0 0
0 0 0  0 0 0  0 0 0  0 0 0  18 44 82  33 81 153
33 81 153  33 81 153  33 81 153  33 81 153  33 81 153  33 81 153
33 81 153  33 81 153  33 81 153  33 81 153  30 73 137  6 14 26
0 0 0  0 0 0  0 0 0  0 0 0  0 0 0  0 0 0
0 0 0  0 0 0  0 0 0  0 0 0  0 0 0  0 0 0
0 0 0  1 2 4  24 59 111  33 81 153  33 81 153  33 81 153
33 81 153  33 81 153  33 81 153  33 81 153  33 81 153  33 81 153
33 81 153  33 81 153  21 51 95  0 0 0  0 0 0  0 0 0
0 0 0  0 0 0  0 0 0  0 0 0  0 0 0  0 0 0
0 0 0  0 0 0  0 0 0  0 0 0  4 9 17  26 64 121
33 81 153  33 81 153  33 81 153  33 81 153  33 81 153  33 81 153
33 81 153  33 81 153  33 81 153  33 81 153  33 81 153  33 81 153
23 56 105  1 3 5  0 0 0  0 0 0  0 0 0  0 0 0
0 0 0  0 0 0  0 0 0  0 0 0  0 0 0  0 0 0
0 0 0  0 0 0  0 0 0  0 0 0  0 0 0  0 0 0
0 0 0  0 0 0  0 0 0  0 0 0  0 0 1  19 47 89
33 81 153  33 81 153  33 81 153  33 81 153  33 81 153  33 81 153
33 81 153  33 81 153  33 81 153  33 81 153  33 81 153  33 81 153
33 81 153  33 81 153  33 81 153  33 81 153  33 81 153  33 81 153
33 81 153  33 81 153  33 81 153  33 81 153  33 81 153  33 81 153
33 81 153  33 81 153  33 81 153  33 81 153  33 81 153  33 81 153
33 81 153  33 81 153  33 81 153  33 81 153  33 81 153  33 81 153
33 81 153  33 81 153  33 81 153  33 81 153  33 81 153  33 81 153
33 81 153  33 81 153  33 81 153  33 81 153  33 81 153  33 81 153
33 81 153  33 81 153  33 81 153  33 81 153  33 81 153  33 81 153
33 81 153  33 81 153  33 81 153  33 81 153  33 81 153  33 81 153
33 81 153  33 81 153  33 81 153  33 81 153  33 81 153  33 81 153
13 33 62  0 0 0  0 0 0  0 0 0  0 0 0  0 0 0
0 0 0  0 0 0  0 0 0  4 10 18  29 71 134  33 81 153
33 81 153  33 81 153  33 81 153  33 81 153  33 81 153  33 81 153
33 81 153  33 81 153  33 81 153  33 81 153  33 81 153  33 81 153
33 81 153  33 81 153  33 81 153  33 81 153  33 81 153  33 81 153
33 81 153  33 81 153  33 81 153  33 81 153  33 81 153  33 81 153
33 81 153  33 81 153  33 81 153  33 81 153  33 81 153  33 81 153
33 81 153  33 81 153  33 81 153  33 81 153  33 81 153  33 81 153
33 81 153  33 81 153  33 81 153  33 81 153  33 81 153  33 81 153
33 81 153  33 81 153  33 81 153  33 81 153  33 81 153  33 81 153
33 81 153  33 81 153  33 81 153  33 81 153  33 81 153  33 81 153
33 81 153  33 81 153  33 81 153  33 81 153  33 81 153  33 81 153
33 81 153  33 81 153  33 81 153  33 81 153  33 81 153  33 81 153
33 81 153  33 81 153  33 81 153  33 81 153  33 81 153  32 80 151
10 26 49  0 0 0  0 0 0  0 0 0  0 0 0  0 0 0
0 0 0  0 0 0  0 0 0  0 0 0  0 0 0  4 10 18
29 71 133  33 81 153  33 81 152  33 81 152  33 81 152  33 81 152
33 81 152  33 81 152  33 81 152  33 81 152  33 81 152  33 81 152
33 81 152  33 81 152  33 81 152  33 81 152  33 81 152  33 81 152
33 81 152  33 81 152  33 81 152  33 81 152  33 81 152  33 81 152
33 81 152  33 81 152  33 81 152  33 81 152  33 81 152  33 81 152
33 81 152  33 81 152  33 81 152  33 81 152  33 81 152  33 81 152
33 81 152  33 81 152  33 81 152  33 81 152  33 81 152  33 81 152
33 81 152  33 81 152  33 81 152  33 81 152  33 81 152  33 81 152
33 81 152  33 81 152  33 81 152  33 81 152  33 81 152  33 81 152
33 80 151  33 81 152  33 81 153  33 81 153  33 81 153  33 81 153
33 81 153  33 81 153  33 81 153  33 81 153  33 81 153  33 81 153
33 81 153  33 81 153  33 81 153  33 81 153  33 81 153  33 80 152
15 37 70  0 0 0  0 0 0  0 0 0
0 0 0  0 0 0  0 0 0  0 0 0  0 0 0  0 0 0
0 0 0  3 7 14  28 68 129  33 81 153  33 81 153  33 81 153
33 81 153  33 81 153  33 81 153  33 81 153  33 81 153  33 81 153
33 81 153  33 81 153  33 81 153  33 81 153  33 81 153  33 81 153
33 81 153  33 81 153  33 81 153  33 81 153  33 81 153  33 81 153
33 81 153  33 81 152  12 30 57  0 0 0  0 0 0  0 0 0
0 0 0  0 0 0  0 0 0  0 0 0  0 0 0  0 0 0
0 0 0  0 0 0  0 0 0  0 0 0  0 0 0  0 0 0
0 0 0  0 0 0  0 0 0  0 0 0  0 0 0  0 0 0
0 0 0  0 0 0  0 0 0  0 0 0  0 0 0  0 0 0
0 0 0  0 0 0  0 0 0  0 0 0  0 0 0  0 0 0
0 0 0  0 0 0  0 0 0  0 0 0  0 0 0  0 0 0
0 0 0  0 0 0  0 0 0  0 0 0  0 0 0  0 0 0
0 0 0  0 0 0  0 0 0  0 0 0  0 0 0  0 1 2
22 55 103  33 81 153  33 81 153  33 81 153  33 81 153  33 81 153
33 81 153  33 81 153  33 81 153  33 81 153  33 81 153  33 81 153
33 81 153  33 81 153  33 81 153  33 81 153  33 81 153  33 81 153
33 81 153  33 81 153  33 81 153  33 81 153  33 81 153  33 81 153
28 70 132  3 9 16  0 0 0  0 0 0  0 0 0  0 0 0
0 0 0  0 0 0  0 0 0  0 0 0  2 6 11  27 66 125
33 81 153  33 81 153  33 81 153  33 81 153  33 81 153  33 81 153
33 81 153  33 81 153  33 81 153  33 81 153  33 81 153  33 81 153
33 81 153  33 81 153  33 81 153  33 81 153  33 81 153  33 81 153
33 81 153  33 81 153  33 81 153  33 81 153  33 81 153  33 81 153
33 81 153  33 81 153  33 81 153  33 81 153  33 81 153  33 81 153
27 67 127  13 31 59  2 4 7  0 0 0  0 0 0  0 0 0
0 0 0  0 0 0  0 0 0  0 0 0  0 0 0  0 0 0
0 0 0  0 0 0  0 0 0  0 0 0  0 0 0  0 0 0
0 0 0  0 0 0  0 0 0  0 0 0  0 0 0  0 0 0
0 0 0  0 0 0  0 0 0  0 0 0  0 0 0  0 0 0
0 0 0  0 0 0  0 0 0  0 0 0  0 0 0  0 0 0
0 0 0  0 0 0  0 0 0  0 0 0  0 0 0  0 0 0
0 0 0  0 0 0  0 0 0  3 8 16  17 41 77  30 73 137
33 81 153  33 81 153  33 81 153  33 81 153  33 81 153  33 81 153
33 81 153  33 81 153  33 81 153  33 81 153  33 81 153  33 81 153
33 81 153  33 81 153  33 81 153  33 81 153  33 81 153  33 81 153
33 81 153  33 81 153  33 81 153  33 81 153  33 81 153  33 81 153
33 81 153  33 81 153  33 81 153  33 81 153  33 81 153  33 81 153
21 53 100  0 1 1  0 0 0  0 0 0  0 0 0  0 0 0
0 0 0  0 0 0  0 0 0  0 0 0  0 0 0  95 32 12
224 95 29  224 99 29  225 105 30  226 111 30  227 119 31  228 125 31
229 127 32  229 132 32  230 138 32  230 143 33  232 151 33  232 155 33
233 161 34  234 166 34  234 172 35  235 175 35  235 180 35  235 180 35
238 195 36  238 195 36  238 195 36  234 205 37  234 205 37  234 205 37
234 205 37  234 205 37  234 205 37  234 205 37  238 195 36  100 78 15
0 0 0  0 0 0  0 0 0  0 0 0  0 0 0  0 0 0
0 0 0  0 0 0  0 0 0  0 0 0  0 0 0  0 0 0
2 5 9  26 64 121  33 81 153  33 81 153  33 81 153  33 81 153
33 81 153  33 81 153  33 81 153  33 81 153  33 81 153  33 81 153
33 81 153  33 81 153  33 81 153  33 81 153  33 81 153  33 81 153
33 81 153  33 81 153  33 81 153  33 81 153  33 81 153  33 81 153
33 81 153  33 81 153  33 81 153  33 81 153  33 81 153  33 81 153
33 81 153  33 81 153  33 81 153  33 81 153  33 81 153  33 81 153
33 81 153  33 81 153  33 81 153  33 81 153  33 81 153  33 81 153
33 81 153  33 81 153  33 81 153  33 81 153  33 81 153  33 81 153
33 81 153  33 81 153  33 81 153  33 81 153  33 81 153  33 81 153
33 81 153  33 81 153  33 81 153  33 81 153  33 81 153  33 81 153
33 81 153  33 81 153  33 81 153  33 81 153  33 81 153  33 81 153
33 81 153  33 81 153  33 81 153  33 81 153  33 81 153  33 81 153
33 81 153  33 81 153  33 81 153  33 81 153  33 81 153  33 81 153
33 81 153  33 81 153  33 81 153  33 81 153  33 81 153  33 81 153
33 81 153  33 81 153  33 81 153  33 81 153  33 81 153  33 81 153
33 81 153  33 81 153  33 81 153  33 81 153  24 58 110  3 8 15
0 0 0  0 0 0  0 0 0  0 0 0  0 0 0  0 0 0
0 0 0  0 0 0  0 0 0  0 0 0  0 0 0  0 0 0
0 0 0  0 0 0  0 0 0  0 0 0  0 0 0  0 0 0
0 0 0  0 0 0  0 0 0  0 0 0  0 0 0  0 0 0
0 0 0  0 0 0  0 0 0  0 0 0  0 0 0  0 0 0
0 0 0  0 0 0  0 0 0  0 0 0  0 0 0  0 0 0
0 0 0  0 0 0  0 0 0  0 0 0  8 20 37  31 77 145
33 81 153  33 81 153  33 81 153  33 81 153  33 81 153  33 81 153
33 81 153  33 81 153  33 81 153  33 81 153  33 81 153  18 43 82
0 0 0  0 0 0  0 0 0  0 0 0  0 0 0  0 0 0
0 0 0  0 0 0  0 0 0  0 0 0  0 0 0  0 0 0
0 0 0  1 2 4  24 59 111  33 81 153  33 81 153  33 81 153
33 81 153  33 81 153  33 81 153  33 81 153  33 81 153  33 81 153
33 81 153  33 81 153  21 51 95  0 0 0  0 0 0  0 0 0
0 0 0  0 0 0  0 0 0  0 0 0  0 0 0  0 0 0
0 0 0  0 0 0  0 0 0  1 1 2  19 46 86  33 81 153
33 81 153  33 81 153  33 81 153  33 81 153  33 81 153  33 81 153
33 81 153  33 81 153  33 81 153  33 81 153  33 81 153  31 77 145
9 22 41  0 0 0  0 0 0  0 0 0  0 0 0  0 0 0
0 0 0  0 0 0  0 0 0  0 0 0  0 0 0  0 0 0
0 0 0  0 0 0  0 0 0  0 0 0  0 0 0  0 0 0
0 0 0  0 0 0  0 0 0  0 0 0  5 13 25  29 72 136
33 81 153  33 81 153  33 81 153  33 81 153  33 81 153  33 81 153
33 81 153  33 81 153  33 81 153  33 81 153  33 81 153  33 81 153
33 81 153  33 81 153  33 81 153  33 81 153  33 81 153  33 81 153
33 81 153  33 81 153  33 81 153  33 81 153  33 81 153  33 81 153
33 81 153  33 81 153  33 81 153  33 81 153  33 81 153  33 81 153
33 81 153  33 81 153  33 81 153  33 81 153  33 81 153  33 81 153
33 81 153  33 81 153  33 81 153  33 81 153  33 81 153  33 81 153
33 81 153  33 81 153  33 81 153  33 81 153  33 81 153  33 81 153
33 81 153  33 81 153  33 81 153  33 81 153  33 81 153  33 81 153
33 81 153  33 81 153  33 81 153  33 81 153  33 81 153  33 81 153
33 81 153  33 81 153  33 81 153  33 81 153  33 81 153  33 81 153
13 33 62  0 0 0  0 0 0  0 0 0  0 0 0  0 0 0
0 0 0  0 0 0  0 0 0  4 10 18  29 71 134  33 81 153
33 81 153  33 81 153  33 81 153  33 81 153  33 81 153  33 81 153
33 81 153  33 81 153  33 81 153  33 81 153  33 81 153  33 81 153
33 81 153  33 81 153  33 81 153  33 81 153  33 81 153  33 81 153
33 81 153  33 81 153  33 81 153  33 81 153  33 81 153  33 81 153
33 81 153  33 81 153  33 81 153  33 81 153  33 81 153  33 81 153
33 81 153  33 81 153  33 81 153  33 81 153  33 81 153  33 81 153
33 81 153  33 81 153  33 81 153  33 81 153  33 81 153  33 81 153
33 81 153  33 81 153  33 81 153  33 81 153  33 81 153  33 81 153
33 81 153  33 81 153  33 81 153  33 81 153  33 81 153  33 81 153
33 81 153  33 81 153  33 81 153  33 81 153  33 81 153  33 81 153
33 81 153  33 81 153  33 81 153  33 81 153  33 81 153  33 81 153
33 81 153  33 81 153  33 81 153  33 81 153  33 81 153  32 80 151
10 26 49  0 0 0  0 0 0  0 0 0  0 0 0  0 0 0
0 0 0  0 0 0  0 0 0  0 0 0  0 0 0  1 3 7
10 25 47  12 29 55  12 29 54  12 29 54  12 29 54  12 29 54
12 29 54  12 29 54  12 29 54  12 29 54  12 29 54  12 29 54
12 29 54  12 29 54  12 29 54  12 29 54  12 29 54  12 29 54
12 29 54  12 29 54  12 29 54  12 29 54  12 29 54  12 29 54
12 29 54  12 29 54  12 29 54  12 29 54  12 29 54  12 29 54
12 29 54  12 29 54  12 29 54  12 29 54  12 29 54  12 29 54
12 29 54  12 29 54  12 29 54  12 29 54  12 29 54  12 29 54
12 29 54  12 29 54  12 29 54  12 29 54  12 29 54  12 29 54
12 29 54  12 29 54  12 29 54  12 29 54  12 29 54  11 28 52
18 44 82  31 77 146  33 81 153  33 81 153  33 81 153  33 81 153
33 81 153  33 81 153  33 81 153  33 81 153  33 81 153  33 81 153
33 81 153  33 81 153  33 81 153  33 81 153  32 79 149  17 42 79
1 3 7  0 0 0  0 0 0  0 0 0
0 0 0  0 0 0  0 0 0  0 0 0  0 0 0  0 0 0
0 0 0  5 11 21  30 72 137  33 81 153  33 81 153  33 81 153
33 81 153  33 81 153  33 81 153  33 81 153  33 81 153  33 81 153
33 81 153  33 81 153  33 81 153  33 81 153  33 81 153  33 81 153
33 81 153  33 81 153  33 81 153  33 81 153  33 81 153  33 81 153
33 81 153  33 81 153  17 41 77  0 0 0  0 0 0  0 0 0
0 0 0  0 0 0  0 0 0  0 0 0  0 0 0  0 0 0
0 0 0  0 0 0  0 0 0  0 0 0  0 0 0  0 0 0
0 0 0  0 0 0  0 0 0  0 0 0  0 0 0  0 0 0
0 0 0  0 0 0  0 0 0  0 0 0  0 0 0  0 0 0
0 0 0  0 0 0  0 0 0  0 0 0  0 0 0  0 0 0
0 0 0  0 0 0  0 0 0  0 0 0  0 0 0  0 0 0
0 0 0  0 0 0  0 0 0  0 0 0  0 0 0  0 0 0
0 0 0  0 0 0  0 0 0  0 0 0  0 0 0  2 4 8
26 64 121  33 81 153  33 81 153  33 81 153  33 81 153  33 81 153
33 81 153  33 81 153  33 81 153  33 81 153  33 81 153  33 81 153
33 81 153  33 81 153  33 81 153  33 81 153  33 81 153  33 81 153
33 81 153  33 81 153  33 81 153  33 81 153  33 81 153  33 81 153
30 74 139  5 13 24  0 0 0  0 0 0  0 0 0  0 0 0
0 0 0  0 0 0  0 0 0  0 0 0  2 6 11  27 66 125
33 81 153  33 81 153  33 81 153  33 81 153  33 81 153  33 81 153
33 81 153  33 81 153  33 81 153  33 81 153  33 81 153  33 81 153
33 81 153  33 81 153  33 81 153  33 81 153  33 81 153  33 81 153
33 81 153  33 81 153  33 81 153  33 81 153  33 81 153  33 81 153
33 81 153  33 81 153  33 81 153  33 81 153  33 81 153  33 81 153
33 81 153  32 79 150  23 56 106  7 18 34  0 0 0  0 0 0
0 0 0  0 0 0  0 0 0  0 0 0  0 0 0  0 0 0
0 0 0  0 0 0  0 0 0  0 0 0  0 0 0  0 0 0
0 0 0  0 0 0  0 0 0  0 0 0  0 0 0  0 0 0
0 0 0  0 0 0  0 0 0  0 0 0  0 0 0  0 0 0
0 0 0  0 0 0  0 0 0  0 0 0  0 0 0  0 0 0
0 0 0  0 0 0  0 0 0  0 0 0  0 0 0  0 0 0
0 0 0  1 2 3  11 27 50  26 64 122  33 81 153  33 81 153
33 81 153  33 81 153  33 81 153  33 81 153  33 81 153  33 81 153
33 81 153  33 81 153  33 81 153  33 81 153  33 81 153  33 81 153
33 81 153  33 81 153  33 81 153  33 81 153  33 81 153  33 81 153
33 81 153  33 81 153  33 81 153  33 81 153  33 81 153  33 81 153
33 81 153  33 81 153  33 81 153  33 81 153  33 81 153  33 81 153
21 53 100  0 1 1  0 0 0  0 0 0  0 0 0  0 0 0
0 0 0  0 0 0  0 0 0  0 0 0  7 4 0  172 75 22
224 95 29  224 99 29  225 105 30  226 111 30  227 119 31  227 119 31
229 127 32  229 132 32  230 138 32  230 143 33  231 148 33  232 155 33
233 161 34  234 166 34  234 172 35  235 175 35  235 180 35  235 180 35
238 195 36  238 195 36  238 195 36  238 195 36  234 205 37  234 205 37
234 205 37  234 205 37  238 195 36  238 195 36  238 195 36  211 168 32
18 11 2  0 0 0  0 0 0  0 0 0  0 0 0  0 0 0
0 0 0  0 0 0  0 0 0  0 0 0  0 0 0  0 0 0
2 5 9  26 64 121  33 81 153  33 81 153  33 81 153  33 81 153
33 81 153  33 81 153  33 81 153  33 81 153  33 81 153  33 81 153
33 81 153  33 81 153  33 81 153  33 81 153  33 81 153  33 81 153
33 81 153  33 81 153  33 81 153  33 81 153  33 81 153  33 81 153
33 81 153  33 81 153  33 81 153  33 81 153  33 81 153  33 81 153
33 81 153  33 81 153  33 81 153  33 81 153  33 81 153  33 81 153
33 81 153  33 81 153  33 81 153  33 81 153  33 81 153  33 81 153
33 81 153  33 81 153  33 81 153  33 81 153  33 81 153  33 81 153
33 81 153  33 81 153  33 81 153  33 81 153  33 81 153  33 81 153
33 81 153  33 81 153  33 81 153  33 81 153  33 81 153  33 81 153
33 81 153  33 81 153  33 81 153  33 81 153  33 81 153  33 81 153
33 81 153  33 81 153  33 81 153  33 81 153  33 81 153  33 81 153
33 81 153  33 81 153  33 81 153  33 81 153  33 81 153  33 81 153
33 81 153  33 81 153  33 81 153  33 81 153  33 81 153  33 81 153
33 81 153  33 81 153  33 81 153  33 81 153  33 81 153  33 81 153
33 81 153  33 81 153  33 81 153  33 81 153  33 81 153  21 51 95
1 3 6  0 0 0  0 0 0  0 0 0  0 0 0  0 0 0
0 0 0  0 0 0  0 0 0  0 0 0  0 0 0  0 0 0
0 0 0  0 0 0  0 0 0  0 0 0  0 0 0  0 0 0
0 0 0  0 0 0  0 0 0  0 0 0  0 0 0  0 0 0
0 0 0  0 0 0  0 0 0  0 0 0  0 0 0  0 0 0
0 0 0  0 0 0  0 0 0  0 0 0  0 0 0  0 0 0
0 0 0  0 0 0  0 0 0  0 0 0  2 4 8  25 62 117
33 81 153  33 81 153  33 81 153  33 81 153  33 81 153  33 81 153
33 81 153  33 81 153  33 81 153  33 81 153  33 81 153  29 71 133
5 12 23  0 0 0  0 0 0  0 0 0  0 0 0  0 0 0
0 0 0  0 0 0  0 0 0  0 0 0  0 0 0  0 0 0
0 0 0  1 2 4  24 59 111  33 81 153  33 81 153  33 81 153
33 81 153  33 81 153  33 81 153  33 81 153  33 81 153  33 81 153
33 81 153  33 81 153  21 51 95  0 0 0  0 0 0  0 0 0
0 0 0  0 0 0  0 0 0  0 0 0  0 0 0  0 0 0
0 0 0  0 0 0  0 0 0  11 27 50  31 77 146  33 81 153
33 81 153  33 81 153  33 81 153  33 81 153  33 81 153  33 81 153
33 81 153  33 81 153  33 81 153  33 81 153  33 81 153  21 51 97
1 2 3  0 0 0  0 0 0  0 0 0  0 0 0  0 0 0
0 0 0  0 0 0  0 0 0  0 0 0  0 0 0  0 0 0
0 0 0  0 0 0  0 0 0  0 0 0  0 0 0  0 0 0
0 0 0  0 0 0  0 0 0  0 0 0  16 40 75  33 81 153
33 81 153  33 81 153  33 81 153  33 81 153  33 81 153  33 81 153
33 81 153  33 81 153  33 81 153  33 81 153  33 81 153  33 81 153
33 81 153  33 81 153  33 81 153  33 81 153  33 81 153  33 81 153
33 81 153  33 81 153  33 81 153  33 81 153  33 81 153  33 81 153
33 81 153  33 81 153  33 81 153  33 81 153  33 81 153  33 81 153
33 81 153  33 81 153  33 81 153  33 81 153  33 81 153  33 81 153
33 81 153  33 81 153  33 81 153  33 81 153  33 81 153  33 81 153
33 81 153  33 81 153  33 81 153  33 81 153  33 81 153  33 81 153
33 81 153  33 81 153  33 81 153  33 81 153  33 81 153  33 81 153
33 81 153  33 81 153  33 81 153  33 81 153  33 81 153  33 81 153
33 81 153  33 81 153  33 81 153  33 81 153  33 81 153  33 81 153
13 33 62  0 0 0  0 0 0  0 0 0  0 0 0  0 0 0
0 0 0  0 0 0  0 0 0  4 10 18  29 71 134  33 81 153
33 81 153  33 81 153  33 81 153  33 81 153  33 81 153  33 81 153
33 81 153  33 81 153  33 81 153  33 81 153  33 81 153  33 81 153
33 81 153  33 81 153  33 81 153  33 81 153  33 81 153  33 81 153
33 81 153  33 81 153  33 81 153  33 81 153  33 81 153  33 81 153
33 81 153  33 81 153  33 81 153  33 81 153  33 81 153  33 81 153
33 81 153  33 81 153  33 81 153  33 81 153  33 81 153  33 81 153
33 81 153  33 81 153  33 81 153  33 81 153  33 81 153  33 81 153
33 81 153  33 81 153  33 81 153  33 81 153  33 81 153  33 81 153
33 81 153  33 81 153  33 81 153  33 81 153  33 81 153  33 81 153
33 81 153  33 81 153  33 81 153  33 81 153  33 81 153  33 81 153
33 81 153  33 81 153  33 81 153  33 81 153  33 81 153  33 81 153
33 81 153  33 81 153  33 81 153  33 81 153  33 81 153  32 80 151
10 26 49  0 0 0  0 0 0  0 0 0  0 0 0  0 0 0
0 0 0  0 0 0  0 0 0  0 0 0  0 0 0  0 0 0
0 0 0  0 0 0  0 0 0  0 0 0  0 0 0  0 0 0
0 0 0  0 0 0  0 0 0  0 0 0  0 0 0  0 0 0
0 0 0  0 0 0  0 0 0  0 0 0  0 0 0  0 0 0
0 0 0  0 0 0  0 0 0  0 0 0  0 0 0  0 0 0
0 0 0  0 0 0  0 0 0  0 0 0  0 0 0  0 0 0
0 0 0  0 0 0  0 0 0  0 0 0  0 0 0  0 0 0
0 0 0  0 0 0  0 0 0  0 0 0  0 0 0  0 0 0
0 0 0  0 0 0  0 0 0  0 0 0  0 0 0  0 0 0
0 0 0  0 0 0  0 0 0  0 0 0  0 0 0  8 19 37
27 66 124  33 81 153  33 81 153  33 81 153  33 81 153  33 81 153
33 81 153  33 81 153  33 81 153  33 81 153  33 81 153  33 81 153
33 81 153  33 81 153  33 81 153  31 77 145  15 37 69  1 2 3
0 0 0  0 0 0  0 0 0  0 0 0
0 0 0  0 0 0  0 0 0  0 0 0  0 0 0  0 0 0
0 0 0  6 16 30  31 76 143  33 81 153  33 81 153  33 81 153
33 81 153  33 81 153  33 81 153  33 81 153  33 81 153  33 81 153
33 81 153  33 81 153  33 81 153  33 81 153  33 81 153  33 81 153
33 81 153  33 81 153  33 81 153  33 81 153  33 81 153  33 81 153
33 81 153  33 81 153  21 52 98  0 0 1  0 0 0  0 0 0
0 0 0  0 0 0  0 0 0  0 0 0  0 0 0  0 0 0
0 0 0  0 0 0  0 0 0  0 0 0  0 0 0  0 0 0
0 0 0  0 0 0  0 0 0  0 0 0  0 0 0  0 0 0
0 0 0  0 0 0  0 0 0  0 0 0  0 0 0  0 0 0
0 0 0  0 0 0  0 0 0  0 0 0  0 0 0  0 0 0
0 0 0  0 0 0  0 0 0  0 0 0  0 0 0  0 0 0
0 0 0  0 0 0  0 0 0  0 0 0  0 0 0  0 0 0
0 0 0  0 0 0  0 0 0  0 0 0  0 0 0  4 10 20
29 71 135  33 81 153  33 81 153  33 81 153  33 81 153  33 81 153
33 81 153  33 81 153  33 81 153  33 81 153  33 81 153  33 81 153
33 81 153  33 81 153  33 81 153  33 81 153  33 81 153  33 81 153
33 81 153  33 81 153  33 81 153  33 81 153  33 81 153  33 81 153
31 77 145  7 18 34  0 0 0  0 0 0  0 0 0  0 0 0
0 0 0  0 0 0  0 0 0  0 0 0  2 5 10  27 65 124
33 81 153  33 81 153  33 81 153  33 81 153  33 81 153  33 81 153
33 81 153  33 81 153  33 81 153  33 81 153  33 81 153  33 81 153
33 81 153  33 81 153  33 81 153  33 81 153  33 81 153  33 81 153
33 81 153  33 81 153  33 81 153  33 81 153  33 81 153  33 81 153
33 81 153  33 81 153  33 81 153  33 81 153  33 81 153  33 81 153
33 81 153  33 81 153  33 81 153  30 73 139  15 38 71  2 5 9
0 0 0  0 0 0  0 0 0  0 0 0  0 0 0  0 0 0
0 0 0  0 0 0  0 0 0  0 0 0  0 0 0  0 0 0
0 0 0  0 0 0  0 0 0  0 0 0  0 0 0  0 0 0
0 0 0  0 0 0  0 0 0  0 0 0  0 0 0  0 0 0
0 0 0  0 0 0  0 0 0  0 0 0  0 0 0  0 0 0
0 0 0  0 0 0  0 0 0  0 0 0  0 0 0  0 0 0
4 10 19  20 48 91  32 78 146  33 81 153  33 81 153  33 81 153
33 81 153  33 81 153  33 81 153  33 81 153  33 81 153  33 81 153
33 81 153  33 81 153  33 81 153  33 81 153  33 81 153  33 81 153
33 81 153  33 81 153  33 81 153  33 81 153  33 81 153  33 81 153
33 81 153  33 81 153  33 81 153  33 81 153  33 81 153  33 81 153
33 81 153  33 81 153  33 81 153  33 81 153  33 81 153  33 81 153
21 53 100  0 1 1  0 0 0  0 0 0  0 0 0  0 0 0
0 0 0  0 0 0  0 0 0  0 0 0  48 29 6  222 79 28
224 95 29  224 99 29  225 105 30  226 111 30  226 111 30  227 119 31
228 125 31  229 132 32  230 135 32  230 143 33  231 148 33  232 151 33
232 155 33  233 161 34  234 166 34  234 172 35  235 175 35  235 180 35
235 180 35  238 195 36  238 195 36  238 195 36  238 195 36  238 195 36
238 195 36  238 195 36  238 195 36  238 195 36  238 195 36  227 187 35
48 29 6  0 0 0  0 0 0  0 0 0  0 0 0  0 0 0
0 0 0  0 0 0  0 0 0  0 0 0  0 0 0  0 0 0
2 5 9  26 64 121  33 81 153  33 81 153  33 81 153  33 81 153
33 81 153  33 81 153  33 81 153  33 81 153  33 81 153  33 81 153
33 81 153  33 81 153  33 81 153  33 81 153  33 81 153  33 81 153
33 81 153  33 81 153  33 81 153  33 81 153  33 81 153  33 81 153
33 81 153  33 81 153  33 81 153  33 81 153  33 81 153  33 81 153
33 81 153  33 81 153  33 81 153  33 81 153  33 81 153  33 81 153
33 81 153  33 81 153  33 81 153  33 81 153  33 81 153  33 81 153
33 81 153  33 81 153  33 81 153  33 81 153  33 81 153  33 81 153
33 81 153  33 81 153  33 81 153  33 81 153  33 81 153  33 81 153
33 81 153  33 81 153  33 81 153  33 81 153  33 81 153  33 81 153
33 81 153  33 81 153  33 81 153  33 81 153  33 81 153  33 81 153
33 81 153  33 81 153  33 81 153  33 81 153  33 81 153  33 81 153
33 81 153  33 81 153  33 81 153  33 81 153  33 81 153  33 81 153
33 81 153  33 81 153  33 81 153  33 81 153  33 81 153  33 81 153
33 81 153  33 81 153  33 81 153  33 81 153  33 81 153  33 81 153
33 81 153  33 81 153  33 81 153  33 81 153  33 81 153  32 80 151
14 35 67  0 0 0  0 0 0  0 0 0  0 0 0  0 0 0
0 0 0  0 0 0  0 0 0  0 0 0  0 0 0  0 0 0
0 0 0  0 0 0  0 0 0  0 0 0  0 0 0  0 0 0
0 0 0  0 0 0  0 0 0  0 0 0  0 0 0  0 0 0
0 0 0  0 0 0  0 0 0  0 0 0  0 0 0  0 0 0
0 0 0  0 0 0  0 0 0  0 0 0  0 0 0  0 0 0
0 0 0  0 0 0  0 0 0  0 0 0  0 0 0  16 39 73
33 81 153  33 81 153  33 81 153  33 81 153  33 81 153  33 81 153
33 81 153  33 81 153  33 81 153  33 81 153  33 81 153  33 81 153
21 52 98  2 6 11  0 0 0  0 0 0  0 0 0  0 0 0
0 0 0  0 0 0  0 0 0  0 0 0  0 0 0  0 0 0
0 0 0  1 2 4  24 59 111  33 81 153  33 81 153  33 81 153
33 81 153  33 81 153  33 81 153  33 81 153  33 81 153  33 81 153
33 81 153  33 81 153  21 51 95  0 0 0  0 0 0  0 0 0
0 0 0  0 0 0  0 0 0  0 0 0  0 0 0  0 0 0
0 0 0  0 0 0  7 17 31  27 67 127  33 81 153  33 81 153
33 81 153  33 81 153  33 81 153  33 81 153  33 81 153  33 81 153
33 81 153  33 81 153  33 81 153  33 81 153  30 75 141  7 18 34
0 0 0  0 0 0  0 0 0  0 0 0  0 0 0  0 0 0
0 0 0  0 0 0  0 0 0  0 0 0  0 0 0  0 0 0
0 0 0  0 0 0  0 0 0  0 0 0  0 0 0  0 0 0
0 0 0  0 0 0  0 0 0  5 12 23  28 69 130  33 81 153
33 81 153  33 81 153  33 81 153  33 81 153  33 81 153  33 81 153
33 81 153  33 81 153  33 81 153  33 81 153  33 81 153  33 81 153
33 81 153  33 81 153  33 81 153  33 81 153  33 81 153  33 81 153
33 81 153  33 81 153  33 81 153  33 81 153  33 81 153  33 81 153
33 81 153  33 81 153  33 81 153  33 81 153  33 81 153  33 81 153
33 81 153  33 81 153  33 81 153  33 81 153  33 81 153  33 81 153
33 81 153  33 81 153  33 81 153  33 81 153  33 81 153  33 81 153
33 81 153  33 81 153  33 81 153  33 81 153  33 81 153  33 81 153
33 81 153  33 81 153  33 81 153  33 81 153  33 81 153  33 81 153
33 81 153  33 81 153  33 81 153  33 81 153  33 81 153  33 81 153
33 81 153  33 81 153  33 81 153  33 81 153  33 81 153  33 81 153
13 33 62  0 0 0  0 0 0  0 0 0  0 0 0  0 0 0
0 0 0  0 0 0  0 0 0  4 10 18  29 71 134  33 81 153
33 81 153  33 81 153  33 81 153  33 81 153  33 81 153  33 81 153
33 81 153  33 81 153  33 81 153  33 81 153  22 54 101  13 33 62
14 33 63  14 33 63  14 33 63  14 33 63  14 33 63  14 33 63
14 33 63  14 33 63  14 33 63  14 33 63  14 33 63  14 33 63
14 33 63  14 33 63  14 33 63  13 33 62  23 55 104  33 81 153
33 81 153  33 81 153  33 81 153  33 81 153  33 81 153  33 81 153
33 81 153  33 81 153  33 81 153  33 81 153  33 81 153  21 52 98
13 33 62  14 33 63  14 33 63  14 33 63  14 33 63  14 33 63
14 33 63  14 33 63  14 33 63  14 33 63  14 33 63  14 33 63
14 33 63  14 33 63  14 33 63  14 33 63  13 33 62  17 43 80
32 78 147  33 81 153  33 81 153  33 81 153  33 81 153  33 81 153
33 81 153  33 81 153  33 81 153  33 81 153  33 81 153  32 80 151
10 26 49  0 0 0  0 0 0  0 0 0  0 0 0  0 0 0
0 0 0  0 0 0  0 0 0  0 0 0  0 0 0  0 0 0
0 0 0  0 0 0  0 0 0  0 0 0  0 0 0  0 0 0
0 0 0  0 0 0  0 0 0  0 0 0  0 0 0  0 0 0
0 0 0  0 0 0  0 0 0  0 0 0  0 0 0  0 0 0
0 0 0  0 0 0  0 0 0  0 0 0  0 0 0  0 0 0
0 0 0  0 0 0  0 0 0  0 0 0  0 0 0  0 0 0
0 0 0  0 0 0  0 0 0  0 0 0  0 0 0  0 0 0
0 0 0  0 0 0  0 0 0  0 0 0  0 0 0  0 0 0
0 0 0  0 0 0  0 0 0  0 0 0  0 0 0  0 0 0
0 0 0  0 0 0  0 0 0  0 0 0  11 27 50  29 72 136
33 81 153  33 81 153  33 81 153  33 81 153  33 81 153  33 81 153
33 81 153  33 81 153  33 81 153  33 81 153  33 81 153  33 81 153
33 81 153  33 81 153  30 75 141  13 31 59  0 1 1  0 0 0
0 0 0  0 0 0  0 0 0  0 0 0
0 0 0  0 0 0  0 0 0  0 0 0  0 0 0  0 0 0
0 0 0  9 21 40  32 78 148  33 81 153  33 81 153  33 81 153
33 81 153  33 81 153  33 81 153  33 81 153  33 81 153  33 81 153
33 81 153  33 81 153  33 81 153  33 81 153  33 81 153  33 81 153
33 81 153  33 81 153  33 81 153  33 81 153  33 81 153  33 81 153
33 81 153  33 81 153  25 63 118  2 4 8  0 0 0  0 0 0
0 0 0  0 0 0  0 0 0  0 0 0  0 0 0  0 0 0
0 0 0  0 0 0  0 0 0  0 0 0  0 0 0  0 0 0
0 0 0  0 0 0  0 0 0  0 0 0  0 0 0  0 0 0
0 0 0  0 0 0  0 0 0  0 0 0  0 0 0  0 0 0
0 0 0  0 0 0  0 0 0  0 0 0  0 0 0  0 0 0
0 0 0  0 0 0  0 0 0  0 0 0  0 0 0  0 0 0
0 0 0  0 0 0  0 0 0  0 0 0  0 0 0  0 0 0
0 0 0  0 0 0  0 0 0  0 0 0  0 0 0  8 19 37
32 78 146  33 81 153  33 81 153  33 81 153  33 81 153  33 81 153
33 81 153  33 81 153  33 81 153  33 81 153  33 81 153  33 81 153
33 81 153  33 81 153  33 81 153  33 81 153  33 81 153  33 81 153
33 81 153  33 81 153  33 81 153  33 81 153  33 81 153  33 81 153
32 79 149  9 23 44  0 0 0  0 0 0  0 0 0  0 0 0
0 0 0  0 0 0  0 0 0  0 0 0  2 5 10  26 65 122
33 81 153  33 81 153  33 81 153  33 81 153  33 81 153  33 81 153
33 81 153  33 81 153  33 81 153  33 81 153  33 81 153  33 81 153
33 81 153  33 81 153  33 81 153  33 81 153  33 81 153  33 81 153
33 81 153  33 81 153  33 81 153  33 81 153  33 81 153  33 81 153
33 81 153  33 81 153  33 81 153  33 81 153  33 81 153  33 81 153
33 81 153  33 81 153  33 81 153  33 81 153  33 80 152  23 57 107
6 15 29  0 0 0  0 0 0  0 0 0  0 0 0  0 0 0
0 0 0  0 0 0  0 0 0  0 0 0  0 0 0  0 0 0
0 0 0  0 0 0  0 0 0  0 0 0  0 0 0  0 0 0
0 0 0  0 0 0  0 0 0  0 0 0  0 0 0  0 0 0
0 0 0  0 0 0  0 0 0  0 0 0  0 0 0  0 0 0
0 0 0  0 0 0  0 0 0  0 0 0  0 0 1  10 24 46
27 66 124  33 81 153  33 81 153  33 81 153  33 81 153  33 81 153
33 81 153  33 81 153  33 81 153  33 81 153  33 81 153  33 81 153
33 81 153  33 81 153  33 81 153  33 81 153  33 81 153  33 81 153
33 81 153  33 81 153  33 81 153  33 81 153  33 81 153  33 81 153
33 81 153  33 81 153  33 81 153  33 81 153  33 81 153  33 81 153
33 81 153  33 81 153  33 81 153  33 81 153  33 81 153  33 81 153
21 53 100  0 1 1  0 0 0  0 0 0  0 0 0  0 0 0
0 0 0  0 0 0  0 0 0  0 0 0  48 29 6  222 79 28
223 91 29  224 99 29  225 105 30  225 105 30  226 111 30  227 119 31
228 125 31  229 127 32  230 135 32  230 138 32  230 143 33  231 148 33
232 155 33  233 161 34  233 161 34  234 166 34  234 172 35  235 175 35
235 180 35  235 180 35  235 180 35  238 195 36  238 195 36  238 195 36
238 195 36  238 195 36  238 195 36  238 195 36  235 180 35  235 180 35
100 78 15  0 0 0  0 0 0  0 0 0  0 0 0  0 0 0
0 0 0  0 0 0  0 0 0  0 0 0  0 0 0  0 0 0
2 5 9  26 64 121  33 81 153  33 81 153  33 81 153  33 81 153
33 81 153  33 81 153  33 81 153  33 81 153  33 81 153  33 81 153
33 81 153  33 81 153  33 81 153  33 81 153  33 81 153  33 81 153
33 81 153  33 81 153  33 81 153  33 81 153  33 81 153  33 81 153
33 81 153  33 81 153  33 81 153  33 81 153  33 81 153  33 81 153
33 81 153  33 81 153  33 81 153  33 81 153  33 81 153  33 81 153
33 81 153  33 81 153  33 81 153  33 81 153  33 81 153  33 81 153
33 81 153  33 81 153  33 81 153  33 81 153  33 81 153  33 81 153
33 81 153  33 81 153  33 81 153  33 81 153  33 81 153  33 81 153
33 81 153  33 81 153  33 81 153  33 81 153  33 81 153  33 81 153
33 81 153  33 81 153  33 81 153  33 81 153  33 81 153  33 81 153
33 81 153  33 81 153  33 81 153  33 81 153  33 81 153  33 81 153
33 81 153  33 81 153  33 81 153  33 81 153  33 81 153  33 81 153
33 81 153  33 81 153  33 81 153  33 81 153  33 81 153  33 81 153
33 81 153  33 81 153  33 81 153  33 81 153  33 81 153  33 81 153
33 81 153  33 81 153  33 81 153  33 81 153  33 81 153  33 81 153
30 73 137  7 17 32  0 0 0  0 0 0  0 0 0  0 0 0
0 0 0  0 0 0  0 0 0  0 0 0  0 0 0  0 0 0
0 0 0  0 0 0  0 0 0  0 0 0  0 0 0  0 0 0
0 0 0  0 0 0  0 0 0  0 0 0  0 0 0  0 0 0
0 0 0  0 0 0  0 0 0  0 0 0  0 0 0  0 0 0
0 0 0  0 0 0  0 0 0  0 0 0  0 0 0  0 0 0
0 0 0  0 0 0  0 0 0  0 0 0  0 0 0  6 16 30
30 75 141  33 81 153  33 81 153  33 81 153  33 81 153  33 81 153
33 81 153  33 81 153  33 81 153  33 81 153  33 81 153  33 81 153
33 80 152  25 60 114  14 35 67  12 30 56  13 32 61  13 32 61
13 32 61  13 32 61  13 32 61  13 32 61  11 28 53  1 3 7
0 0 0  1 2 4  24 59 111  33 81 153  33 81 153  33 81 153
33 81 153  33 81 153  33 81 153  33 81 153  33 81 153  33 81 153
33 81 153  33 81 153  21 51 95  0 0 0  0 0 0  0 0 0
8 20 38  13 33 62  13 32 61  13 32 61  13 32 61  13 32 61
14 35 67  20 49 92  29 71 135  33 81 153  33 81 153  33 81 153
33 81 153  33 81 153  33 81 153  33 81 153  33 81 153  33 81 153
33 81 153  33 81 153  33 81 153  33 81 153  19 47 89  0 1 1
0 0 0  0 0 0  0 0 0  0 0 0  0 0 0  0 0 0
0 0 0  0 0 0  0 0 0  0 0 0  0 0 0  0 0 0
0 0 0  0 0 0  0 0 0  0 0 0  1 1 2  3 8 14
3 8 16  4 10 19  10 24 44  25 61 115  33 81 153  33 81 153
33 81 153  33 81 153  33 81 153  33 81 153  33 81 153  33 81 153
33 81 153  33 81 153  33 81 153  33 81 153  28 69 130  21 51 95
21 51 96  21 51 96  21 51 96  21 51 96  21 51 96  21 51 96
21 51 96  21 51 96  21 51 96  21 51 96  21 51 96  21 51 96
21 51 96  21 51 96  21 51 96  21 51 96  21 51 96  21 51 96
21 51 96  21 51 96  21 51 96  21 51 96  21 51 96  21 51 96
21 51 96  21 51 96  21 51 96  21 51 96  21 51 96  21 51 96
21 51 96  21 51 96  21 51 96  21 51 96  21 51 96  21 51 96
21 51 96  21 51 96  21 51 96  21 51 96  21 51 96  21 51 95
28 69 130  33 81 153  33 81 153  33 81 153  33 81 153  33 81 153
33 81 153  33 81 153  33 81 153  33 81 153  33 81 153  33 81 153
13 33 62  0 0 0  0 0 0  0 0 0  0 0 0  0 0 0
0 0 0  0 0 0  0 0 0  4 10 18  29 71 134  33 81 153
33 81 153  33 81 153  33 81 153  33 81 153  33 81 153  33 81 153
33 81 153  33 81 153  33 81 153  33 81 153  14 34 64  0 0 0
0 0 0  0 0 0  0 0 0  0 0 0  0 0 0  0 0 0
0 0 0  0 0 0  0 0 0  0 0 0  0 0 0  0 0 0
0 0 0  0 0 0  0 0 0  0 0 0  15 37 69  33 81 153
33 81 153  33 81 153  33 81 153  33 81 153  33 81 153  33 81 153
33 81 153  33 81 153  33 81 153  33 81 153  33 81 153  12 30 57
0 0 0  0 0 0  0 0 0  0 0 0  0 0 0  0 0 0
0 0 0  0 0 0  0 0 0  0 0 0  0 0 0  0 0 0
0 0 0  0 0 0  0 0 0  0 0 0  0 0 0  6 15 28
31 76 143  33 81 153  33 81 153  33 81 153  33 81 153  33 81 153
33 81 153  33 81 153  33 81 153  33 81 153  33 81 153  32 80 151
10 26 49  0 0 0  0 0 0  0 0 0  0 0 0  0 0 0
0 0 0  0 0 0  0 0 0  0 0 0  0 0 0  0 0 0
0 0 0  0 0 0  0 0 0  0 0 0  0 0 0  0 0 0
0 0 0  0 0 0  0 0 0  0 0 0  0 0 0  0 0 0
0 0 0  0 0 0  0 0 0  0 0 0  0 0 0  0 0 0
0 0 0  0 0 0  0 0 0  0 0 0  0 0 0  0 0 0
0 0 0  0 0 0  0 0 0  0 0 0  0 0 0  0 0 0
0 0 0  0 0 0  0 0 0  0 0 0  0 0 0  0 0 0
0 0 0  0 0 0  0 0 0  0 0 0  0 0 0  0 0 0
0 0 0  0 0 0  0 0 0  0 0 0  0 0 0  0 0 0
0 0 0  0 0 0  0 1 2  14 33 63  31 75 142  33 81 153
33 81 153  33 81 153  33 81 153  33 81 153  33 81 153  33 81 153
33 81 153  33 81 153  33 81 153  33 81 153  33 81 153  33 81 153
33 81 153  29 72 136  10 26 49  0 0 0  0 0 0  0 0 0
0 0 0  0 0 0  0 0 0  0 0 0
0 0 0  0 0 0  0 0 0  0 0 0  0 0 0  0 0 0
0 0 0  11 27 51  33 80 151  33 81 153  33 81 153  33 81 153
33 81 153  33 81 153  33 81 153  33 81 153  33 81 153  33 81 153
33 81 153  33 81 153  33 81 153  33 81 153  33 81 153  33 81 153
33 81 153  33 81 153  33 81 153  33 81 153  33 81 153  33 81 153
33 81 153  33 81 153  29 71 135  4 10 20  0 0 0  0 0 0
0 0 0  0 0 0  0 0 0  0 0 0  0 0 0  0 0 0
0 0 0  0 0 0  0 0 0  0 0 0  0 0 0  0 0 0
0 0 0  0 0 0  0 0 0  0 0 0  0 0 0  0 0 0
0 0 0  0 0 0  0 0 0  0 0 0  0 0 0  0 0 0
0 0 0  0 0 0  0 0 0  0 0 0  0 0 0  0 0 0
0 0 0  0 0 0  0 0 0  0 0 0  0 0 0  0 0 0
0 0 0  0 0 0  0 0 0  0 0 0  0 0 0  0 0 0
0 0 0  0 0 0  0 0 0  0 0 0  0 0 0  13 31 58
33 81 153  33 81 153  33 81 153  33 81 153  33 81 153  33 81 153
33 81 153  33 81 153  33 81 153  33 81 153  33 81 153  33 81 153
33 81 153  33 81 153  33 81 153  33 81 153  33 81 153  33 81 153
33 81 153  33 81 153  33 81 153  33 81 153  33 81 153  33 81 153
33 81 152  12 29 55  0 0 0  0 0 0  0 0 0  0 0 0
0 0 0  0 0 0  0 0 0  0 0 0  2 5 10  26 65 122
33 81 153  33 81 153  33 81 153  33 81 153  33 81 153  33 81 153
33 81 153  33 81 153  33 81 153  33 81 153  33 81 153  33 81 153
33 81 153  33 81 153  33 81 153  33 81 153  33 81 153  33 81 153
33 81 153  33 81 153  33 81 153  33 81 153  33 81 153  33 81 153
33 81 153  33 81 153  33 81 153  33 81 153  33 81 153  33 81 153
33 81 153  33 81 153  33 81 153  33 81 153  33 81 153  33 81 153
29 70 133  12 29 55  0 1 2  0 0 0  0 0 0  0 0 0
0 0 0  0 0 0  0 0 0  0 0 0  0 0 0  0 0 0
0 0 0  0 0 0  0 0 0  0 0 0  0 0 0  0 0 0
0 0 0  0 0 0  0 0 0  0 0 0  0 0 0  0 0 0
0 0 0  0 0 0  0 0 0  0 0 0  0 0 0  0 0 0
0 0 0  0 0 0  0 0 0  2 4 8  16 40 75  31 76 143
33 81 153  33 81 153  33 81 153  33 81 153  33 81 153  33 81 153
33 81 153  33 81 153  33 81 153  33 81 153  33 81 153  33 81 153
33 81 153  33 81 153  33 81 153  33 81 153  33 81 153  33 81 153
33 81 153  33 81 153  33 81 153  33 81 153  33 81 153  33 81 153
33 81 153  33 81 153  33 81 153  33 81 153  33 81 153  33 81 153
33 81 153  33 81 153  33 81 153  33 81 153  33 81 153  33 81 153
21 53 100  0 1 1  0 0 0  0 0 0  0 0 0  0 0 0
0 0 0  0 0 0  0 0 0  0 0 0  95 32 12  222 79 28
223 91 29  224 95 29  224 99 29  225 105 30  226 111 30  227 119 31
227 119 31  229 127 32  229 132 32  230 135 32  230 143 33  231 148 33
232 151 33  232 155 33  233 161 34  234 166 34  234 166 34  234 172 35
235 175 35  235 180 35  235 180 35  235 180 35  235 180 35  235 180 35
235 180 35  235 180 35  235 180 35  235 180 35  235 180 35  235 180 35
100 78 15  0 0 0  0 0 0  0 0 0  0 0 0  0 0 0
0 0 0  0 0 0  0 0 0  0 0 0  0 0 0  0 0 0
2 5 9  26 64 121  33 81 153  33 81 153  33 81 153  33 81 153
33 81 153  33 81 153  33 81 153  33 81 153  33 81 153  33 81 153
33 81 153  33 81 153  33 81 153  33 81 153  33 81 153  33 81 153
33 81 153  33 81 153  33 81 153  33 81 153  33 81 153  33 81 153
33 81 153  33 81 153  33 81 153  33 81 153  33 81 153  33 81 153
33 81 153  33 81 153  33 81 153  33 81 153  33 81 153  33 81 153
33 81 153  33 81 153  33 81 153  33 81 153  33 81 153  33 81 153
33 81 153  33 81 153  33 81 153  33 81 153  33 81 153  33 81 153
33 81 153  33 81 153  33 81 153  33 81 153  33 81 153  33 81 153
33 81 153  33 81 153  33 81 153  33 81 153  33 81 153  33 81 153
33 81 153  33 81 153  33 81 153  33 81 153  33 81 153  33 81 153
33 81 153  33 81 153  33 81 153  33 81 153  33 81 153  33 81 153
33 81 153  33 81 153  33 81 153  33 81 153  33 81 153  33 81 153
33 81 153  33 81 153  33 81 153  33 81 153  33 81 153  33 81 153
33 81 153  33 81 153  33 81 153  33 81 153  33 81 153  33 81 153
33 81 153  33 81 153  33 81 153  33 81 153  33 81 153  33 81 153
33 81 153  22 54 102  1 3 5  0 0 0  0 0 0  0 0 0
0 0 0  0 0 0  0 0 0  0 0 0  0 0 0  0 0 0
0 0 0  0 0 0  0 0 0  0 0 0  0 0 0  0 0 0
0 0 0  0 0 0  0 0 0  0 0 0  0 0 0  0 0 0
0 0 0  0 0 0  0 0 0  0 0 0  0 0 0  0 0 0
0 0 0  0 0 0  0 0 0  0 0 0  0 0 0  0 0 0
0 0 0  0 0 0  0 0 0  0 0 0  0 0 0  1 3 5
23 57 109  33 81 153  33 81 153  33 81 153  33 81 153  33 81 153
33 81 153  33 81 153  33 81 153  33 81 153  33 81 153  33 81 153
33 81 153  33 81 153  33 81 153  33 81 152  33 81 153  33 81 153
33 81 153  33 81 153  33 81 153  33 81 153  29 70 133  4 9 17
0 0 0  1 2 4  24 59 111  33 81 153  33 81 153  33 81 153
33 81 153  33 81 153  33 81 153  33 81 153  33 81 153  33 81 153
33 81 153  33 81 153  21 51 95  0 0 0  0 0 0  0 0 1
21 51 97  33 81 153  33 81 153  33 81 153  33 81 153  33 81 153
33 81 153  33 81 153  33 81 153  33 81 153  33 81 153  33 81 153
33 81 153  33 81 153  33 81 153  33 81 153  33 81 153  33 81 153
33 81 153  33 81 153  33 81 153  29 72 136  6 14 27  0 0 0
0 0 0  0 0 0  0 0 0  0 0 0  0 0 0  0 0 0
0 0 0  0 0 0  0 0 0  0 0 0  0 0 0  0 0 0
0 0 0  0 0 0  0 0 0  0 0 0  4 11 20  26 64 120
29 70 133  29 71 135  32 78 148  33 81 153  33 81 153  33 81 153
33 81 153  33 81 153  33 81 153  33 81 153  33 81 153  33 81 153
33 81 153  33 81 153  33 81 153  33 80 152  13 31 58  0 0 0
0 0 0  0 0 0  0 0 0  0 0 0  0 0 0  0 0 0
0 0 0  0 0 0  0 0 0  0 0 0  0 0 0  0 0 0
0 0 0  0 0 0  0 0 0  0 0 0  0 0 0  0 0 0
0 0 0  0 0 0  0 0 0  0 0 0  0 0 0  0 0 0
0 0 0  0 0 0  0 0 0  0 0 0  0 0 0  0 0 0
0 0 0  0 0 0  0 0 0  0 0 0  0 0 0  0 0 0
0 0 0  0 0 0  0 0 0  0 0 0  0 0 0  0 0 0
19 48 90  33 81 153  33 81 153  33 81 153  33 81 153  33 81 153
33 81 153  33 81 153  33 81 153  33 81 153  33 81 153  33 81 153
13 33 62  0 0 0  0 0 0  0 0 0  0 0 0  0 0 0
0 0 0  0 0 0  0 0 0  4 10 18  29 71 134  33 81 153
33 81 153  33 81 153  33 81 153  33 81 153  33 81 153  33 81 153
33 81 153  33 81 153  33 81 153  33 81 153  14 35 65  0 0 0
0 0 0  0 0 0  0 0 0  0 0 0  0 0 0  0 0 0
0 0 0  0 0 0  0 0 0  0 0 0  0 0 0  0 0 0
0 0 0  0 0 0  0 0 0  0 0 0  15 37 70  33 81 153
33 81 153  33 81 153  33 81 153  33 81 153  33 81 153  33 81 153
33 81 153  33 81 153  33 81 153  33 81 153  33 81 153  13 31 59
0 0 0  0 0 0  0 0 0  0 0 0  0 0 0  0 0 0
0 0 0  0 0 0  0 0 0  0 0 0  0 0 0  0 0 0
0 0 0  0 0 0  0 0 0  0 0 0  0 0 0  6 16 29
31 76 143  33 81 153  33 81 153  33 81 153  33 81 153  33 81 153
33 81 153  33 81 153  33 81 153  33 81 153  33 81 153  32 80 151
10 26 49  0 0 0  0 0 0  0 0 0  0 0 0  0 0 0
0 0 0  0 0 0  0 0 0  0 0 0  0 0 0  0 0 0
0 0 0  0 0 0  0 0 0  0 0 0  0 0 0  0 0 0
0 0 0  0 0 0  0 0 0  0 0 0  0 0 0  0 0 0
0 0 0  0 0 0  0 0 0  0 0 0  0 0 0  0 0 0
0 0 0  0 0 0  0 0 0  0 0 0  0 0 0  0 0 0
0 0 0  0 0 0  0 0 0  0 0 0  0 0 0  0 0 0
0 0 0  0 0 0  0 0 0  0 0 0  0 0 0  0 0 0
0 0 0  0 0 0  0 0 0  0 0 0  0 0 0  0 0 0
0 0 0  0 0 0  0 0 0  0 0 0  0 0 0  0 0 0
0 0 0  1 3 5  16 40 75  32 78 147  33 81 153  33 81 153
33 81 153  33 81 153  33 81 153  33 81 153  33 81 153  33 81 153
33 81 153  33 81 153  33 81 153  33 81 153  33 81 153  33 81 153
28 68 129  9 21 40  0 0 0  0 0 0  0 0 0  0 0 0
0 0 0  0 0 0  0 0 0  0 0 0
0 0 0  0 0 0  0 0 0  0 0 0  0 0 0  0 0 0
0 0 0  14 33 63  33 81 153  33 81 153  33 81 153  33 81 153
33 81 153  33 81 153  33 81 153  33 81 153  33 81 153  33 81 153
33 81 153  33 81 153  33 81 153  33 81 153  33 81 153  33 81 153
33 81 153  33 81 153  33 81 153  33 81 153  33 81 153  33 81 153
33 81 153  33 81 153  32 78 147  8 21 39  0 0 0  0 0 0
0 0 0  0 0 0  0 0 0  0 0 0  0 0 0  0 0 0
0 0 0  0 0 0  0 0 0  0 0 0  0 0 0  0 0 0
0 0 0  0 0 0  0 0 0  0 0 0  0 0 0  0 0 0
0 0 0  0 0 0  0 0 0  0 0 0  0 0 0  0 0 0
0 0 0  0 0 0  0 0 0  0 0 0  0 0 0  0 0 0
0 0 0  0 0 0  0 0 0  0 0 0  0 0 0  0 0 0
0 0 0  0 0 0  0 0 0  0 0 0  0 0 0  0 0 0
0 0 0  0 0 0  0 0 0  0 0 0  0 0 0  18 44 84
33 81 153  33 81 153  33 81 153  33 81 153  33 81 153  33 81 153
33 81 153  33 81 153  33 81 153  33 81 153  33 81 153  33 81 153
33 81 153  33 81 153  33 81 153  33 81 153  33 81 153  33 81 153
33 81 153  33 81 153  33 81 153  33 81 153  33 81 153  33 81 153
33 81 153  14 35 67  0 0 0  0 0 0  0 0 0  0 0 0
0 0 0  0 0 0  0 0 0  0 0 0  2 5 10  26 65 122
33 81 153  33 81 153  33 81 153  33 81 153  33 81 153  33 81 153
33 81 153  33 81 153  33 81 153  33 81 153  33 81 153  33 81 153
33 81 153  33 81 153  33 81 153  33 81 153  33 81 153  33 81 153
33 81 153  33 81 153  33 81 153  33 81 153  33 81 153  33 81 153
33 81 153  33 81 153  33 81 153  33 81 153  33 81 153  33 81 153
33 81 153  33 81 153  33 81 153  33 81 153  33 81 153  33 81 153
33 81 153  32 78 146  17 43 80  2 5 9  0 0 0  0 0 0
0 0 0  0 0 0  0 0 0  0 0 0  0 0 0  0 0 0
0 0 0  0 0 0  0 0 0  0 0 0  0 0 0  0 0 0
0 0 0  0 0 0  0 0 0  0 0 0  0 0 0  0 0 0
0 0 0  0 0 0  0 0 0  0 0 0  0 0 0  0 0 0
0 0 0  0 0 0  4 11 20  22 54 102  33 80 152  33 81 153
33 81 153  33 81 153  33 81 153  33 81 153  33 81 153  33 81 153
33 81 153  33 81 153  33 81 153  33 81 153  33 81 153  33 81 153
33 81 153  33 81 153  33 81 153  33 81 153  33 81 153  33 81 153
33 81 153  33 81 153  33 81 153  33 81 153  33 81 153  33 81 153
33 81 153  33 81 153  33 81 153  33 81 153  33 81 153  33 81 153
33 81 153  33 81 153  33 81 153  33 81 153  33 81 153  33 81 153
21 53 100  0 1 1  0 0 0  0 0 0  0 0 0  0 0 0
0 0 0  0 0 0  0 0 0  0 0 0  95 32 12  222 79 28
223 91 29  224 95 29  224 99 29  225 105 30  226 111 30  226 111 30
227 119 31  228 125 31  229 127 32  230 135 32  230 138 32  230 143 33
231 148 33  232 151 33  232 155 33  233 161 34  234 166 34  234 166 34
234 172 35  235 175 35  235 175 35  235 180 35  235 180 35  235 180 35
235 180 35  235 180 35  235 180 35  235 180 35  235 175 35  235 175 35
100 78 15  0 0 0  0 0 0  0 0 0  0 0 0  0 0 0
0 0 0  0 0 0  0 0 0  0 0 0  0 0 0  0 0 0
2 5 9  26 64 121  33 81 153  33 81 153  33 81 153  33 81 153
33 81 153  33 81 153  33 81 153  33 81 153  33 81 153  33 81 153
33 81 153  33 81 153  33 81 153  33 81 153  33 81 153  33 81 153
33 81 153  33 81 153  33 81 153  33 81 153  33 81 153  33 81 153
33 81 153  33 81 153  33 81 153  33 81 153  33 81 153  33 81 153
33 81 153  33 81 153  33 81 153  33 81 153  33 81 153  33 81 153
33 81 153  33 81 153  33 81 153  33 81 153  33 81 153  33 81 153
33 81 153  33 81 153  33 81 153  33 81 153  33 81 153  33 81 153
33 81 153  33 81 153  33 81 153  33 81 153  33 81 153  33 81 153
33 81 153  33 81 153  33 81 153  33 81 153  33 81 153  33 81 153
33 81 153  33 81 153  33 81 153  33 81 153  33 81 153  33 81 153
33 81 153  33 81 153  33 81 153  33 81 153  33 81 153  33 81 153
33 81 153  33 81 153  33 81 153  33 81 153  33 81 153  33 81 153
33 81 153  33 81 153  33 81 153  33 81 153  33 81 153  33 81 153
33 81 153  33 81 153  33 81 153  33 81 153  33 81 153  33 81 153
33 81 153  33 81 153  33 81 153  33 81 153  33 81 153  33 81 153
33 81 153  32 78 148  10 25 47  0 0 0  0 0 0  0 0 0
0 0 0  0 0 0  0 0 0  0 0 0  0 0 0  0 0 0
0 0 0  0 0 0  0 0 0  0 0 0  0 0 0  0 0 0
0 0 0  0 0 0  0 0 0  0 0 0  0 0 0  0 0 0
0 0 0  0 0 0  0 0 0  0 0 0  0 0 0  0 0 0
0 0 0  0 0 0  0 0 0  0 0 0  0 0 0  0 0 0
0 0 0  0 0 0  0 0 0  0 0 0  0 0 0  0 0 0
13 33 62  33 81 153  33 81 153  33 81 153  33 81 153  33 81 153
33 81 153  33 81 153  33 81 153  33 81 153  33 81 153  33 81 153
33 81 153  33 81 153  33 81 153  33 81 153  33 81 153  33 81 153
33 81 153  33 81 153  33 81 153  33 81 153  28 70 132  4 9 17
0 0 0  1 2 4  24 59 111  33 81 153  33 81 153  33 81 153
33 81 153  33 81 153  33 81 153  33 81 153  33 81 153  33 81 153
33 81 153  33 81 153  21 51 95  0 0 0  0 0 0  0 0 1
21 51 97  33 81 153  33 81 153  33 81 153  33 81 153  33 81 153
33 81 153  33 81 153  33 81 153  33 81 153  33 81 153  33 81 153
33 81 153  33 81 153  33 81 153  33 81 153  33 81 153  33 81 153
33 81 153  33 81 153  33 81 153  17 43 80  0 0 0  0 0 0
0 0 0  0 0 0  0 0 0  0 0 0  0 0 0  0 0 0
0 0 0  0 0 0  0 0 0  0 0 0  0 0 0  0 0 0
0 0 0  0 0 0  0 0 0  0 0 0  5 13 24  30 74 140
33 81 153  33 81 153  33 81 153  33 81 153  33 81 153  33 81 153
33 81 153  33 81 153  33 81 153  33 81 153  33 81 153  33 81 153
33 81 153  33 81 153  33 81 153  28 68 129  4 9 17  0 0 0
0 0 0  0 0 0  0 0 0  0 0 0  0 0 0  0 0 0
0 0 0  0 0 0  0 0 0  0 0 0  0 0 0  0 0 0
0 0 0  0 0 0  0 0 0  0 0 0  0 0 0  0 0 0
0 0 0  0 0 0  0 0 0  0 0 0  0 0 0  0 0 0
0 0 0  0 0 0  0 0 0  0 0 0  0 0 0  0 0 0
0 0 0  0 0 0  0 0 0  0 0 0  0 0 0  0 0 0
0 0 0  0 0 0  0 0 0  0 0 0  0 0 0  0 0 0
19 48 90  33 81 153  33 81 153  33 81 153  33 81 153  33 81 153
33 81 153  33 81 153  33 81 153  33 81 153  33 81 153  33 81 153
13 33 62  0 0 0  0 0 0  0 0 0  0 0 0  0 0 0
0 0 0  0 0 0  0 0 0  4 10 18  29 71 134  33 81 153
33 81 153  33 81 153  33 81 153  33 81 153  33 81 153  33 81 153
33 81 153  33 81 153  33 81 153  33 81 153  14 35 65  0 0 0
0 0 0  0 0 0  0 0 0  0 0 0  0 0 0  0 0 0
0 0 0  0 0 0  0 0 0  0 0 0  0 0 0  0 0 0
0 0 0  0 0 0  0 0 0  0 0 0  15 37 70  33 81 153
33 81 153  33 81 153  33 81 153  33 81 153  33 81 153  33 81 153
33 81 153  33 81 153  33 81 153  33 81 153  33 81 153  13 31 59
0 0 0  0 0 0  0 0 0  0 0 0  0 0 0  0 0 0
0 0 0  0 0 0  0 0 0  0 0 0  0 0 0  0 0 0
0 0 0  0 0 0  0 0 0  0 0 0  0 0 0  6 16 29
31 76 143  33 81 153  33 81 153  33 81 153  33 81 153  33 81 153
33 81 153  33 81 153  33 81 153  33 81 153  33 81 153  32 80 151
10 26 49  0 0 0  0 0 0  0 0 0  0 0 0  0 0 0
0 0 0  0 0 0  0 0 0  0 0 0  0 0 0  0 0 0
0 0 0  0 0 0  0 0 0  0 0 0  0 0 0  0 0 0
0 0 0  0 0 0  0 0 0  0 0 0  0 0 0  0 0 0
0 0 0  0 0 0  0 0 0  0 0 0  0 0 0  0 0 0
0 0 0  0 0 0  0 0 0  0 0 0  0 0 0  0 0 0
0 0 0  0 0 0  0 0 0  0 0 0  0 0 0  0 0 0
0 0 0  0 0 0  0 0 0  0 0 0  0 0 0  0 0 0
0 0 0  0 0 0  0 0 0  0 0 0  0 0 0  0 0 0
0 0 0  0 0 0  0 0 0  0 0 0  0 0 0  0 0 0
2 5 10  19 47 89  32 80 151  33 81 153  33 81 153  33 81 153
33 81 153  33 81 153  33 81 153  33 81 153  33 81 153  33 81 153
33 81 153  33 81 153  33 81 153  33 81 153  33 81 153  26 64 122
7 17 31  0 0 0  0 0 0  0 0 0  0 0 0  0 0 0
0 0 0  0 0 0  0 0 0  0 0 0
0 0 0  0 0 0  0 0 0  0 0 0  0 0 0  0 0 0
0 0 0  16 40 75  33 81 153  33 81 153  33 81 153  33 81 153
33 81 153  33 81 153  33 81 153  33 81 153  33 81 153  33 81 153
33 81 153  33 81 153  33 81 153  33 81 153  33 81 153  33 81 153
33 81 153  33 81 153  33 81 153  33 81 153  33 81 153  33 81 153
33 81 153  33 81 153  33 81 153  14 34 65  0 0 0  0 0 0
0 0 0  0 0 0  0 0 0  0 0 0  0 0 0  0 0 0
0 0 0  0 0 0  0 0 0  0 0 0  0 0 0  0 0 0
0 0 0  0 0 0  0 0 0  0 0 0  0 0 0  0 0 0
0 0 0  0 0 0  0 0 0  0 0 0  0 0 0  0 0 0
0 0 0  0 0 0  0 0 0  0 0 0  0 0 0  0 0 0
0 0 0  0 0 0  0 0 0  0 0 0  0 0 0  0 0 0
0 0 0  0 0 0  0 0 0  0 0 0  0 0 0  0 0 0
0 0 0  0 0 0  0 0 0  0 0 0  1 2 4  24 58 110
33 81 153  33 81 153  33 81 153  33 81 153  33 81 153  33 81 153
33 81 153  33 81 153  33 81 153  33 81 153  33 81 153  33 81 153
33 81 153  33 81 153  33 81 153  33 81 153  33 81 153  33 81 153
33 81 153  33 81 153  33 81 153  33 81 153  33 81 153  33 81 153
33 81 153  17 42 80  0 0 0  0 0 0  0 0 0  0 0 0
0 0 0  0 0 0  0 0 0  0 0 0  2 5 10  26 65 122
33 81 153  33 81 153  33 81 153  33 81 153  33 81 153  33 81 153
33 81 153  33 81 153  33 81 153  33 81 153  33 81 153  33 81 153
33 81 153  33 81 153  33 81 153  33 81 153  33 81 153  33 81 153
33 81 153  33 81 153  33 81 153  33 81 153  33 81 153  33 81 153
33 81 153  33 81 153  33 81 153  33 81 153  33 81 153  33 81 153
33 81 153  33 81 153  33 81 153  33 81 153  33 81 153  33 81 153
33 81 153  33 81 153  33 81 152  22 54 101  4 10 18  0 0 0
0 0 0  0 0 0  0 0 0  0 0 0  0 0 0  0 0 0
0 0 0  0 0 0  0 0 0  0 0 0  0 0 0  0 0 0
0 0 0  0 0 0  0 0 0  0 0 0  0 0 0  0 0 0
0 0 0  0 0 0  0 0 0  0 0 0  0 0 0  0 0 0
0 0 0  7 18 34  26 64 121  33 81 153  33 81 153  33 81 153
33 81 153  33 81 153  33 81 153  33 81 153  33 81 153  33 81 153
33 81 153  33 81 153  33 81 153  33 81 153  33 81 153  33 81 153
33 81 153  33 81 153  33 81 153  33 81 153  33 81 153  33 81 153
33 81 153  33 81 153  33 81 153  33 81 153  33 81 153  33 81 153
33 81 153  33 81 153  33 81 153  33 81 153  33 81 153  33 81 153
33 81 153  33 81 153  33 81 153  33 81 153  33 81 153  33 81 153
21 53 100  0 1 1  0 0 0  0 0 0  0 0 0  0 0 0
0 0 0  0 0 0  0 0 0  0 0 0  95 32 12  222 79 28
223 91 29  223 91 29  224 95 29  224 99 29  225 105 30  226 111 30
227 119 31  227 119 31  227 126 31  229 132 32  230 135 32  230 138 32
230 143 33  231 148 33  232 151 33  232 155 33  233 161 34  233 161 34
234 166 34  234 172 35  234 172 35  234 172 35  235 175 35  235 175 35
235 175 35  235 175 35  235 175 35  234 172 35  234 172 35  234 172 35
100 78 15  0 0 0  0 0 0  0 0 0  0 0 0  0 0 0
0 0 0  0 0 0  0 0 0  0 0 0  0 0 0  0 0 0
2 5 9  26 64 121  33 81 153  33 81 153  33 81 153  33 81 153
33 81 153  33 81 153  33 81 153  33 81 153  33 81 153  33 81 153
33 81 153  33 81 153  33 81 153  33 81 153  33 81 153  33 81 153
33 81 153  33 81 153  33 81 153  33 81 153  33 81 153  33 81 153
33 81 153  33 81 153  33 81 153  33 81 153  33 81 153  33 81 153
33 81 153  33 81 153  33 81 153  33 81 153  33 81 153  33 81 153
33 81 153  33 81 153  33 81 153  33 81 153  33 81 153  33 81 153
33 81 153  33 81 153  33 81 153  33 81 153  33 81 153  33 81 153
33 81 153  33 81 153  33 81 153  33 81 153  33 81 153  33 81 153
33 81 153  33 81 153  33 81 153  33 81 153  33 81 153  33 81 153
33 81 153  33 81 153  33 81 153  33 81 153  33 81 153  33 81 153
33 81 153  33 81 153  33 81 153  33 81 153  33 81 153  33 81 153
33 81 153  33 81 153  33 81 153  33 81 153  33 81 153  33 81 153
33 81 153  33 81 153  33 81 153  33 81 153  33 81 153  33 81 153
33 81 153  33 81 153  33 81 153  33 81 153  33 81 153  33 81 153
33 81 153  33 81 153  33 81 153  33 81 153  33 81 153  33 81 153
33 81 153  33 81 153  23 57 108  1 3 6  0 0 0  0 0 0
0 0 0  0 0 0  0 0 0  0 0 0  0 0 0  0 0 0
0 0 0  0 0 0  0 0 0  0 0 0  0 0 0  0 0 0
0 0 0  0 0 0  0 0 0  0 0 0  0 0 0  0 0 0
0 0 0  0 0 0  0 0 0  0 0 0  0 0 0  0 0 0
0 0 0  0 0 0  0 0 0  0 0 0  0 0 0  0 0 0
0 0 0  0 0 0  0 0 0  0 0 0  0 0 0  0 0 0
3 9 16  27 66 125  33 81 153  33 81 153  33 81 153  33 81 153
33 81 153  33 81 153  33 81 153  33 81 153  33 81 153  33 81 153
33 81 153  33 81 153  33 81 153  33 81 153  33 81 153  33 81 153
33 81 153  33 81 153  33 81 153  33 81 153  28 70 132  4 9 17
0 0 0  1 2 4  24 59 111  33 81 153  33 81 153  33 81 153
33 81 153  33 81 153  33 81 153  33 81 153  33 81 153  33 81 153
33 81 153  33 81 153  21 51 95  0 0 0  0 0 0  0 0 1
21 51 97  33 81 153  33 81 153  33 81 153  33 81 153  33 81 153
33 81 153  33 81 153  33 81 153  33 81 153  33 81 153  33 81 153
33 81 153  33 81 153  33 81 153  33 81 153  33 81 153  33 81 153
33 81 153  33 81 153  28 68 128  4 11 20  0 0 0  0 0 0
0 0 0  0 0 0  0 0 0  0 0 0  0 0 0  0 0 0
0 0 0  0 0 0  0 0 0  0 0 0  0 0 0  0 0 0
0 0 0  0 0 0  0 0 0  0 0 0  5 12 23  30 74 139
33 81 153  33 81 153  33 81 153  33 81 153  33 81 153  33 81 153
33 81 153  33 81 153  33 81 153  33 81 153  33 81 153  33 81 153
33 81 153  33 81 153  33 81 153  18 44 84  0 0 0  0 0 0
0 0 0  0 0 0  0 0 0  0 0 0  0 0 0  0 0 0
0 0 0  0 0 0  0 0 0  0 0 0  0 0 0  0 0 0
0 0 0  0 0 0  0 0 0  0 0 0  0 0 0  0 0 0
0 0 0  0 0 0  0 0 0  0 0 0  0 0 0  0 0 0
0 0 0  0 0 0  0 0 0  0 0 0  0 0 0  0 0 0
0 0 0  0 0 0  0 0 0  0 0 0  0 0 0  0 0 0
0 0 0  0 0 0  0 0 0  0 0 0  0 0 0  0 0 0
19 48 90  33 81 153  33 81 153  33 81 153  33 81 153  33 81 153
33 81 153  33 81 153  33 81 153  33 81 153  33 81 153  33 81 153
13 33 62  0 0 0  0 0 0  0 0 0  0 0 0  0 0 0
0 0 0  0 0 0  0 0 0  4 10 18  29 71 134  33 81 153
33 81 153  33 81 153  33 81 153  33 81 153  33 81 153  33 81 153
33 81 153  33 81 153  33 81 153  33 81 153  14 35 65  0 0 0
0 0 0  0 0 0  0 0 0  0 0 0  0 0 0  0 0 0
0 0 0  0 0 0  0 0 0  0 0 0  0 0 0  0 0 0
0 0 0  0 0 0  0 0 0  0 0 0  15 37 70  33 81 153
33 81 153  33 81 153  33 81 153  33 81 153  33 81 153  33 81 153
33 81 153  33 81 153  33 81 153  33 81 153  33 81 153  13 31 59
0 0 0  0 0 0  0 0 0  0 0 0  0 0 0  0 0 0
0 0 0  0 0 0  0 0 0  0 0 0  0 0 0  0 0 0
0 0 0  0 0 0  0 0 0  0 0 0  0 0 0  6 16 29
31 76 143  33 81 153  33 81 153  33 81 153  33 81 153  33 81 153
33 81 153  33 81 153  33 81 153  33 81 153  33 81 153  32 80 151
10 26 49  0 0 0  0 0 0  0 0 0  0 0 0  0 0 0
0 0 0  0 0 0  0 0 0  0 0 0  0 0 0  0 0 0
0 0 0  0 0 0  0 0 0  0 0 0  0 0 0  0 0 0
0 0 0  0 0 0  0 0 0  0 0 0  0 0 0  0 0 0
0 0 0  0 0 0  0 0 0  0 0 0  0 0 0  0 0 0
0 0 0  0 0 0  0 0 0  0 0 0  0 0 0  0 0 0
0 0 0  0 0 0  0 0 0  0 0 0  0 0 0  0 0 0
0 0 0  0 0 0  0 0 0  0 0 0  0 0 0  0 0 0
0 0 0  0 0 0  0 0 0  0 0 0  0 0 0  0 0 0
0 0 0  0 0 0  0 0 0  0 0 0  0 0 0  4 9 17
22 54 102  33 81 153  33 81 153  33 81 153  33 81 153  33 81 153
33 81 153  33 81 153  33 81 153  33 81 153  33 81 153  33 81 153
33 81 153  33 81 153  33 81 153  33 81 153  24 60 113  5 13 24
0 0 0  0 0 0  0 0 0  0 0 0  0 0 0  0 0 0
0 0 0  0 0 0  0 0 0  0 0 0
0 0 0  0 0 0  0 0 0  0 0 0  0 0 0  0 0 0
0 0 0  19 47 88  33 81 153  33 81 153  33 81 153  33 81 153
33 81 153  33 81 153  33 81 153  33 81 153  33 81 153  33 81 153
33 81 153  33 81 153  33 81 153  33 81 153  33 81 153  33 81 153
33 81 153  33 81 153  33 81 153  33 81 153  33 81 153  33 81 153
33 81 153  33 81 153  33 81 153  20 50 94  0 0 0  0 0 0
0 0 0  0 0 0  0 0 0  0 0 0  0 0 0  0 0 0
0 0 0  0 0 0  0 0 0  0 0 0  0 0 0  0 0 0
0 0 0  0 0 0  0 0 0  0 0 0  0 0 0  0 0 0
0 0 0  0 0 0  0 0 0  0 0 0  0 0 0  0 0 0
0 0 0  0 0 0  0 0 0  0 0 0  0 0 0  0 0 0
0 0 0  0 0 0  0 0 0  0 0 0  0 0 0  0 0 0
0 0 0  0 0 0  0 0 0  0 0 0  0 0 0  0 0 0
0 0 0  0 0 0  0 0 0  0 0 0  4 9 17  28 70 132
33 81 153  33 81 153  33 81 153  33 81 153  33 81 153  33 81 153
33 81 153  33 81 153  33 81 153  33 81 153  33 81 153  33 81 153
33 81 153  33 81 153  33 81 153  33 81 153  33 81 153  33 81 153
33 81 153  33 81 153  33 81 153  33 81 153  33 81 153  33 81 153
33 81 153  20 49 92  0 0 0  0 0 0  0 0 0  0 0 0
0 0 0  0 0 0  0 0 0  0 0 0  2 4 8  26 64 121
33 81 153  33 81 153  33 81 153  33 81 153  33 81 153  33 81 153
33 81 153  33 81 153  33 81 153  33 81 153  33 81 153  33 81 153
33 81 153  33 81 153  33 81 153  33 81 153  33 81 153  33 81 153
33 81 153  33 81 153  33 81 153  33 81 153  33 81 153  33 81 153
33 81 153  33 81 153  33 81 153  33 81 153  33 81 153  33 81 153
33 81 153  33 81 153  33 81 153  33 81 153  33 81 153  33 81 153
33 81 153  33 81 153  33 81 153  33 81 153  25 62 116  6 15 28
0 0 0  0 0 0  0 0 0  0 0 0  0 0 0  0 0 0
0 0 0  0 0 0  0 0 0  0 0 0  0 0 0  0 0 0
0 0 0  0 0 0  0 0 0  0 0 0  0 0 0  0 0 0
0 0 0  0 0 0  0 0 0  0 0 0  0 0 0  0 0 0
10 25 47  29 71 133  33 81 153  33 81 153  33 81 153  33 81 153
33 81 153  33 81 153  33 81 153  33 81 153  33 81 153  33 81 153
33 81 153  33 81 153  33 81 153  33 81 153  33 81 153  33 81 153
33 81 153  33 81 153  33 81 153  33 81 153  33 81 153  33 81 153
33 81 153  33 81 153  33 81 153  33 81 153  33 81 153  33 81 153
33 81 153  33 81 153  33 81 153  33 81 153  33 81 153  33 81 153
33 81 153  33 81 153  33 81 153  33 81 153  33 81 153  33 81 153
21 53 100  0 1 1  0 0 0  0 0 0  0 0 0  0 0 0
0 0 0  0 0 0  0 0 0  0 0 0  95 32 12  222 79 28
222 79 28  223 91 29  224 95 29  224 99 29  225 105 30  226 111 30
226 111 30  227 119 31  228 125 31  229 127 32  229 132 32  230 135 32
230 138 32  230 143 33  231 148 33  232 151 33  232 155 33  233 161 34
233 161 34  234 166 34  234 166 34  234 166 34  234 172 35  234 172 35
234 172 35  234 172 35  234 172 35  234 166 34  234 166 34  234 166 34
100 78 15  0 0 0  0 0 0  0 0 0  0 0 0  0 0 0
0 0 0  0 0 0  0 0 0  0 0 0  0 0 0  0 0 0
2 5 9  26 64 121  33 81 153  33 81 153  33 81 153  33 81 153
33 81 153  33 81 153  33 81 153  33 81 153  33 81 153  33 81 153
33 81 153  33 81 153  33 81 153  33 81 153  33 81 153  33 81 153
33 81 153  33 81 153  33 81 153  33 81 153  33 81 153  31 76 144
18 43 82  15 37 70  15 37 71  15 37 71  15 37 71  15 37 71
15 37 71  15 37 71  15 37 71  15 37 71  15 37 71  15 37 71
15 37 71  15 37 71  15 37 71  15 37 71  15 37 71  15 37 71
15 37 71  15 37 71  15 37 71  15 37 71  15 37 71  15 37 71
15 37 71  15 37 71  15 37 71  15 37 71  15 37 71  15 37 71
15 37 71  15 37 71  15 37 71  15 37 71  15 37 71  15 37 71
16 39 73  16 40 75  17 43 81  19 47 88  21 52 99  24 60 113
28 68 128  31 77 145  33 81 153  33 81 153  33 81 153  33 81 153
33 81 153  33 81 153  33 81 153  33 81 153  33 81 153  33 81 153
33 81 153  33 81 153  33 81 153  33 81 153  33 81 153  33 81 153
33 81 153  33 81 153  33 81 153  33 81 153  33 81 153  33 81 153
33 81 153  33 81 153  33 81 153  33 81 153  33 81 153  33 81 153
33 81 153  33 81 153  31 77 145  8 21 39  0 0 0  0 0 0
0 0 0  0 0 0  0 0 0  0 0 0  0 0 0  0 0 0
0 0 0  0 0 0  0 0 0  0 0 0  0 0 0  0 0 0
0 0 0  0 0 0  0 0 0  0 0 0  0 0 0  0 0 0
0 0 0  0 0 0  0 0 0  0 0 0  0 0 0  0 0 0
0 0 0  0 0 0  0 0 0  0 0 0  0 0 0  0 0 0
0 0 0  0 0 0  0 0 0  0 0 0  0 0 0  0 0 0
0 0 0  11 27 52  31 77 145  33 81 153  33 81 153  33 81 153
33 81 153  33 81 153  33 81 153  33 81 153  33 81 153  33 81 153
33 81 153  33 81 153  33 81 153  33 81 153  33 81 153  33 81 153
33 81 153  33 81 153  33 81 153  33 81 153  28 70 132  4 9 17
0 0 0  1 2 4  24 59 111  33 81 153  33 81 153  33 81 153
33 81 153  33 81 153  33 81 153  33 81 153  33 81 153  33 81 153
33 81 153  33 81 153  21 51 95  0 0 0  0 0 0  0 0 1
21 51 97  33 81 153  33 81 153  33 81 153  33 81 153  33 81 153
33 81 153  33 81 153  33 81 153  33 81 153  33 81 153  33 81 153
33 81 153  33 81 153  33 81 153  33 81 153  33 81 153  33 81 153
33 81 153  31 76 143  11 26 49  0 0 0  0 0 0  0 0 0
0 0 0  0 0 0  0 0 0  0 0 0  0 0 0  0 0 0
0 0 0  0 0 0  0 0 0  0 0 0  0 0 0  0 0 0
0 0 0  0 0 0  0 0 0  0 0 0  5 12 23  30 74 139
33 81 153  33 81 153  33 81 153  33 81 153  33 81 153  33 81 153
33 81 153  33 81 153  33 81 153  33 81 153  33 81 153  33 81 153
33 81 153  33 81 153  31 76 143  7 18 34  0 0 0  0 0 0
0 0 0  0 0 0  0 0 0  0 0 0  0 0 0  0 0 0
0 0 0  0 0 0  0 0 0  0 0 0  0 0 1  2 4 7
2 4 8  2 4 8  2 4 8  2 4 8  2 4 8  2 4 8
2 4 8  2 4 8  2 4 8  2 4 8  2 4 8  2 4 8
1 1 2  0 0 0  0 0 0  0 0 0  0 0 0  0 0 0
0 0 0  0 0 0  0 0 0  0 0 0  0 0 0  0 0 0
0 0 0  0 0 0  0 0 0  0 0 0  0 0 0  0 0 0
19 48 90  33 81 153  33 81 153  33 81 153  33 81 153  33 81 153
33 81 153  33 81 153  33 81 153  33 81 153  33 81 153  33 81 153
13 33 62  0 0 0  0 0 0  0 0 0  0 0 0  0 0 0
0 0 0  0 0 0  0 0 0  4 10 18  29 71 134  33 81 153
33 81 153  33 81 153  33 81 153  33 81 153  33 81 153  33 81 153
33 81 153  33 81 153  33 81 153  33 81 153  14 35 65  0 0 0
0 0 0  0 0 0  0 0 0  0 0 0  0 0 0  0 0 0
0 0 0  0 0 0  0 0 0  0 0 0  0 0 0  0 0 0
0 0 0  0 0 0  0 0 0  0 0 0  15 37 70  33 81 153
33 81 153  33 81 153  33 81 153  33 81 153  33 81 153  33 81 153
33 81 153  33 81 153  33 81 153  33 81 153  33 81 153  13 31 59
0 0 0  0 0 0  0 0 0  0 0 0  0 0 0  0 0 0
0 0 0  0 0 0  0 0 0  0 0 0  0 0 0  0 0 0
0 0 0  0 0 0  0 0 0  0 0 0  0 0 0  6 16 29
31 76 143  33 81 153  33 81 153  33 81 153  33 81 153  33 81 153
33 81 153  33 81 153  33 81 153  33 81 153  33 81 153  32 80 151
10 26 49  0 0 0  0 0 0  0 0 0  0 0 0  0 0 0
0 0 0  0 0 0  0 0 0  0 0 0  0 0 0  0 0 0
0 0 0  0 0 0  0 0 0  0 0 0  0 0 0  0 0 0
0 0 0  0 0 0  0 0 0  0 0 0  0 0 0  0 0 0
0 0 0  0 0 0  0 0 0  0 0 0  0 0 0  0 0 0
0 0 0  0 0 0  0 0 0  0 0 0  0 0 0  0 0 0
0 0 0  0 0 0  0 0 0  0 0 0  0 0 0  0 0 0
0 0 0  0 0 0  0 0 0  0 0 0  0 0 0  0 0 0
0 0 0  0 0 0  0 0 0  0 0 0  0 0 0  0 0 0
0 0 0  0 0 0  0 0 0  0 0 0  5 13 25  24 60 113
33 81 153  33 81 153  33 81 153  33 81 153  33 81 153  33 81 153
33 81 153  33 81 153  33 81 153  33 81 153  33 81 153  33 81 153
33 81 153  33 81 153  33 81 153  22 55 104  4 9 17  0 0 0
0 0 0  0 0 0  0 0 0  0 0 0  0 0 0  0 0 0
0 0 0  0 0 0  0 0 0  0 0 0
0 0 0  0 0 0  0 0 0  0 0 0  0 0 0  0 0 0
0 1 1  22 53 100  33 81 153  33 81 153  33 81 153  33 81 153
33 81 153  33 81 153  33 81 153  33 81 153  33 81 153  33 81 153
33 81 153  33 81 153  33 81 153  33 81 153  33 81 153  33 81 153
33 81 153  33 81 153  33 81 153  33 81 153  33 81 153  33 81 153
33 81 153  33 81 153  33 81 153  26 64 121  2 5 9  0 0 0
0 0 0  0 0 0  0 0 0  0 0 0  0 0 0  0 0 0
0 0 0  0 0 0  0 0 0  0 0 0  0 0 0  0 0 0
0 0 0  0 0 0  0 0 0  0 0 0  0 0 0  0 0 0
0 0 0  0 0 0  0 0 0  0 0 0  0 0 0  0 0 0
0 0 0  0 0 0  0 0 0  0 0 0  0 0 0  0 0 0
0 0 0  0 0 0  0 0 0  0 0 0  0 0 0  0 0 0
0 0 0  0 0 0  0 0 0  0 0 0  0 0 0  0 0 0
0 0 0  0 0 0  0 0 0  0 0 0  9 21 40  32 78 147
33 81 153  33 81 153  33 81 153  33 81 153  33 81 153  33 81 153
33 81 153  33 81 153  33 81 153  33 81 153  33 81 153  33 81 153
33 81 153  33 81 153  33 81 153  33 81 153  33 81 153  33 81 153
33 81 153  33 81 153  33 81 153  33 81 153  33 81 153  33 81 153
33 81 153  23 55 104  1 1 2  0 0 0  0 0 0  0 0 0
0 0 0  0 0 0  0 0 0  0 0 0  2 4 8  26 63 119
33 81 153  33 81 153  33 81 153  33 81 153  33 81 153  33 81 153
33 81 153  33 81 153  33 81 153  33 81 153  33 81 153  33 81 153
33 81 153  33 81 153  33 81 153  33 81 153  33 81 153  33 81 153
33 81 153  33 81 153  33 81 153  33 81 153  33 81 153  33 81 153
33 81 153  33 81 153  33 81 153  33 81 153  33 81 153  33 81 153
33 81 153  33 81 153  33 81 153  33 81 153  33 81 153  33 81 153
33 81 153  33 81 153  33 81 153  33 81 153  33 81 153  27 67 126
8 19 35  0 0 0  0 0 0  0 0 0  0 0 0  0 0 0
0 0 0  0 0 0  0 0 0  0 0 0  0 0 0  0 0 0
0 0 0  0 0 0  0 0 0  0 0 0  0 0 0  0 0 0
0 0 0  0 0 0  0 0 0  0 0 0  0 0 1  12 30 58
30 74 140  33 81 153  33 81 153  33 81 153  33 81 153  33 81 153
33 81 153  33 81 153  33 81 153  33 81 153  33 81 153  33 81 153
33 81 153  33 81 153  33 81 153  33 81 153  33 81 153  33 81 153
33 81 153  33 81 153  33 81 153  33 81 153  33 81 153  33 81 153
33 81 153  33 81 153  33 81 153  33 81 153  33 81 153  33 81 153
33 81 153  33 81 153  33 81 153  33 81 153  33 81 153  33 81 153
33 81 153  33 81 153  33 81 153  33 81 153  33 81 153  33 81 153
21 53 100  0 1 1  0 0 0  0 0 0  0 0 0  0 0 0
0 0 0  0 0 0  0 0 0  0 0 0  48 29 6  220 72 27
222 79 28  223 91 29  223 91 29  224 95 29  224 99 29  225 105 30
226 111 30  227 119 31  227 119 31  228 125 31  229 127 32  229 132 32
230 135 32  230 138 32  230 143 33  231 148 33  232 151 33  232 155 33
232 155 33  233 161 34  233 161 34  233 161 34  233 161 34  234 166 34
234 166 34  234 166 34  233 161 34  233 161 34  233 161 34  233 161 34
100 78 15  0 0 0  0 0 0  0 0 0  0 0 0  0 0 0
0 0 0  0 0 0  0 0 0  0 0 0  0 0 0  0 0 0
2 5 9  26 64 121  33 81 153  33 81 153  33 81 153  33 81 153
33 81 153  33 81 153  33 81 153  33 81 153  33 81 153  33 81 153
33 81 153  33 81 153  33 81 153  33 81 153  33 81 153  33 81 153
33 81 153  33 81 153  33 81 153  33 81 153  33 81 153  29 72 136
4 10 18  0 0 0  0 0 0  0 0 0  0 0 0  0 0 0
0 0 0  0 0 0  0 0 0  0 0 0  0 0 0  0 0 0
0 0 0  0 0 0  0 0 0  0 0 0  0 0 0  0 0 0
0 0 0  0 0 0  0 0 0  0 0 0  0 0 0  0 0 0
0 0 0  0 0 0  0 0 0  0 0 0  0 0 0  0 0 0
0 0 0  0 0 0  0 0 0  0 0 0  0 0 0  0 0 0
0 0 0  0 0 0  0 0 0  0 0 0  0 1 1  1 3 5
3 7 14  7 18 34  16 39 73  26 64 121  33 80 151  33 81 153
33 81 153  33 81 153  33 81 153  33 81 153  33 81 153  33 81 153
33 81 153  33 81 153  33 81 153  33 81 153  33 81 153  33 81 153
33 81 153  33 81 153  33 81 153  33 81 153  33 81 153  33 81 153
33 81 153  33 81 153  33 81 153  33 81 153  33 81 153  33 81 153
33 81 153  33 81 153  33 81 153  19 46 86  0 0 0  0 0 0
0 0 0  0 0 0  0 0 0  0 0 0  0 0 0  0 0 0
0 0 0  0 0 0  0 0 0  0 0 0  0 0 0  0 0 0
0 0 0  0 0 0  0 0 0  0 0 0  0 0 0  0 0 0
0 0 0  0 0 0  0 0 0  0 0 0  0 0 0  0 0 0
0 0 0  0 0 0  0 0 0  0 0 0  0 0 0  0 0 0
0 0 0  0 0 0  0 0 0  0 0 0  0 0 0  0 0 0
0 0 0  0 1 1  14 34 65  31 76 143  33 81 153  33 81 153
33 81 153  33 81 153  33 81 153  33 81 153  33 81 153  33 81 153
33 81 153  33 81 153  33 81 153  33 81 153  33 81 153  33 81 153
33 81 153  33 81 153  33 81 153  33 81 153  28 70 132  4 9 17
0 0 0  1 2 4  24 59 111  33 81 153  33 81 153  33 81 153
33 81 153  33 81 153  33 81 153  33 81 153  33 81 153  33 81 153
33 81 153  33 81 153  21 51 95  0 0 0  0 0 0  0 0 1
21 51 97  33 81 153  33 81 153  33 81 153  33 81 153  33 81 153
33 81 153  33 81 153  33 81 153  33 81 153  33 81 153  33 81 153
33 81 153  33 81 153  33 81 153  33 81 153  33 81 153  33 81 153
30 74 140  13 31 58  0 0 0  0 0 0  0 0 0  0 0 0
0 0 0  0 0 0  0 0 0  0 0 0  0 0 0  0 0 0
0 0 0  0 0 0  0 0 0  0 0 0  0 0 0  0 0 0
0 0 0  0 0 0  0 0 0  0 0 0  5 12 23  30 74 139
33 81 153  33 81 153  33 81 153  33 81 153  33 81 153  33 81 153
33 81 153  33 81 153  33 81 153  33 81 153  33 81 153  33 81 153
33 81 153  33 81 153  21 51 96  1 2 4  0 0 0  0 0 0
0 0 0  0 0 0  0 0 0  0 0 0  0 0 0  0 0 0
0 0 0  0 0 0  0 0 0  0 0 0  3 7 13  22 55 104
26 64 122  26 64 121  26 64 121  26 64 121  26 64 121  26 64 121
26 64 121  26 64 121  26 64 121  26 64 121  26 64 121  26 63 119
8 19 37  0 0 0  0 0 0  0 0 0  0 0 0  0 0 0
0 0 0  0 0 0  0 0 0  0 0 0  0 0 0  0 0 0
0 0 0  0 0 0  0 0 0  0 0 0  0 0 0  0 0 0
19 48 90  33 81 153  33 81 153  33 81 153  33 81 153  33 81 153
33 81 153  33 81 153  33 81 153  33 81 153  33 81 153  33 81 153
13 33 62  0 0 0  0 0 0  0 0 0  0 0 0  0 0 0
0 0 0  0 0 0  0 0 0  4 10 18  29 71 134  33 81 153
33 81 153  33 81 153  33 81 153  33 81 153  33 81 153  33 81 153
33 81 153  33 81 153  33 81 153  33 81 153  14 35 65  0 0 0
0 0 0  0 0 0  0 0 0  0 0 0  0 0 0  0 0 0
0 0 0  0 0 0  0 0 0  0 0 0  0 0 0  0 0 0
0 0 0  0 0 0  0 0 0  0 0 0  15 37 70  33 81 153
33 81 153  33 81 153  33 81 153  33 81 153  33 81 153  33 81 153
33 81 153  33 81 153  33 81 153  33 81 153  33 81 153  13 31 59
0 0 0  0 0 0  0 0 0  0 0 0  0 0 0  0 0 0
0 0 0  0 0 0  0 0 0  0 0 0  0 0 0  0 0 0
0 0 0  0 0 0  0 0 0  0 0 0  0 0 0  6 16 29
31 76 143  33 81 153  33 81 153  33 81 153  33 81 153  33 81 153
33 81 153  33 81 153  33 81 153  33 81 153  33 81 153  32 80 151
10 26 49  0 0 0  0 0 0  0 0 0  0 0 0  0 0 0
0 0 0  0 0 0  0 0 0  0 0 0  0 0 0  0 0 0
0 0 0  0 0 0  0 0 0  0 0 0  0 0 0  0 0 0
0 0 0  0 0 0  0 0 0  0 0 0  0 0 0  0 0 0
0 0 0  0 0 0  0 0 0  0 0 0  0 0 0  0 0 0
0 0 0  0 0 0  0 0 0  0 0 0  0 0 0  0 0 0
0 0 0  0 0 0  0 0 0  0 0 0  0 0 0  0 0 0
0 0 0  0 0 0  0 0 0  0 0 0  0 0 0  0 0 0
0 0 0  0 0 0  0 0 0  0 0 0  0 0 0  0 0 0
0 0 0  0 0 0  0 0 0  8 19 35  27 66 124  33 81 153
33 81 153  33 81 153  33 81 153  33 81 153  33 81 153  33 81 153
33 81 153  33 81 153  33 81 153  33 81 153  33 81 153  33 81 153
33 81 153  33 80 152  20 50 94  3 6 12  0 0 0  0 0 0
0 0 0  0 0 0  0 0 0  0 0 0  0 0 0  0 0 0
0 0 0  0 0 0  0 0 0  0 0 0
0 0 0  0 0 0  0 0 0  0 0 0  0 0 0  0 0 0
1 2 4  24 59 112  33 81 153  33 81 153  33 81 153  33 81 153
33 81 153  33 81 153  33 81 153  33 81 153  33 81 153  33 81 153
33 81 153  33 81 153  33 81 153  33 81 153  33 81 153  33 81 153
33 81 153  33 81 153  33 81 153  33 81 153  33 81 153  33 81 153
33 81 153  33 81 153  33 81 153  30 75 141  6 15 28  0 0 0
0 0 0  0 0 0  0 0 0  0 0 0  0 0 0  0 0 0
0 0 0  0 0 0  0 0 0  0 0 0  0 0 0  0 0 0
0 0 0  0 0 0  0 0 0  0 0 0  0 0 0  0 0 0
0 0 0  0 0 0  0 0 0  0 0 0  0 0 0  0 0 0
0 0 0  0 0 0  0 0 0  0 0 0  0 0 0  0 0 0
0 0 0  0 0 0  0 0 0  0 0 0  0 0 0  0 0 0
0 0 0  0 0 0  0 0 0  0 0 0  0 0 0  0 0 0
0 0 0  0 0 0  0 0 0  0 0 0  15 37 70  33 81 153
33 81 153  33 81 153  33 81 153  33 81 153  33 81 153  33 81 153
33 81 153  33 81 153  33 81 153  33 81 153  33 81 153  33 81 153
33 81 153  33 81 153  33 81 153  33 81 153  33 81 153  33 81 153
33 81 153  33 81 153  33 81 153  33 81 153  33 81 153  33 81 153
33 81 153  25 61 115  1 3 6  0 0 0  0 0 0  0 0 0
0 0 0  0 0 0  0 0 0  0 0 0  2 4 8  26 63 119
33 81 153  33 81 153  33 81 153  33 81 153  33 81 153  33 81 153
33 81 153  33 81 153  33 81 153  33 81 153  33 81 153  33 81 153
33 81 153  33 81 153  33 81 153  33 81 153  33 81 153  33 81 153
33 81 153  33 81 153  33 81 153  33 81 153  33 81 153  33 81 153
33 81 153  33 81 153  33 81 153  33 81 153  33 81 153  33 81 153
33 81 153  33 81 153  33 81 153  33 81 153  33 81 153  33 81 153
33 81 153  33 81 153  33 81 153  33 81 153  33 81 153  33 81 153
28 70 131  9 21 40  0 0 0  0 0 0  0 0 0  0 0 0
0 0 0  0 0 0  0 0 0  0 0 0  0 0 0  0 0 0
0 0 0  0 0 0  0 0 0  0 0 0  0 0 0  0 0 0
0 0 0  0 0 0  0 0 0  0 1 1  14 34 64  31 77 145
33 81 153  33 81 153  33 81 153  33 81 153  33 81 153  33 81 153
33 81 153  33 81 153  33 81 153  33 81 153  33 81 153  33 81 153
33 81 153  33 81 153  33 81 153  33 81 153  33 81 153  33 81 153
33 81 153  33 81 153  33 81 153  33 81 153  33 81 153  33 81 153
33 81 153  33 81 153  33 81 153  33 81 153  33 81 153  33 81 153
33 81 153  33 81 153  33 81 153  33 81 153  33 81 153  33 81 153
33 81 153  33 81 153  33 81 153  33 81 153  33 81 153  33 81 153
21 53 100  0 1 1  0 0 0  0 0 0  0 0 0  0 0 0
0 0 0  0 0 0  0 0 0  0 0 0  48 29 6  220 72 27
222 79 28  222 79 28  223 91 29  224 95 29  224 99 29  225 105 30
225 105 30  226 111 30  227 119 31  227 119 31  228 125 31  229 127 32
229 132 32  230 135 32  230 138 32  230 143 33  231 148 33  231 148 33
232 151 33  232 155 33  232 155 33  232 155 33  233 161 34  233 161 34
233 161 34  233 161 34  233 161 34  232 155 33  232 155 33  230 143 33
48 29 6  0 0 0  0 0 0  0 0 0  0 0 0  0 0 0
0 0 0  0 0 0  0 0 0  0 0 0  0 0 0  0 0 0
2 5 9  26 64 121  33 81 153  33 81 153  33 81 153  33 81 153
33 81 153  33 81 153  33 81 153  33 81 153  33 81 153  33 81 153
33 81 153  33 81 153  33 81 153  33 81 153  33 81 153  33 81 153
33 81 153  33 81 153  33 81 153  33 81 153  33 81 153  29 72 136
4 11 20  0 0 0  0 0 0  0 0 0  0 0 0  0 0 0
0 0 0  0 0 0  0 0 0  0 0 0  0 0 0  0 0 0
0 0 0  0 0 0  0 0 0  0 0 0  0 0 0  0 0 0
0 0 0  0 0 0  0 0 0  0 0 0  0 0 0  0 0 0
0 0 0  0 0 0  0 0 0  0 0 0  0 0 0  0 0 0
0 0 0  0 0 0  0 0 0  0 0 0  0 0 0  0 0 0
0 0 0  0 0 0  0 0 0  0 0 0  0 0 0  0 0 0
0 0 0  0 0 0  0 0 0  3 6 12  13 33 62  28 70 131
33 81 153  33 81 153  33 81 153  33 81 153  33 81 153  33 81 153
33 81 153  33 81 153  33 81 153  33 81 153  33 81 153  33 81 153
33 81 153  33 81 153  33 81 153  33 81 153  33 81 153  33 81 153
33 81 153  33 81 153  33 81 153  33 81 153  33 81 153  33 81 153
33 81 153  33 81 153  33 81 153  27 67 127  3 7 14  0 0 0
0 0 0  0 0 0  0 0 0  0 0 0  0 0 0  0 0 0
0 0 0  0 0 0  0 0 0  0 0 0  0 0 0  0 0 0
0 0 0  0 0 0  0 0 0  0 0 0  0 0 0  0 0 0
0 0 0  0 0 0  0 0 0  0 0 0  0 0 0  0 0 0
0 0 0  0 0 0  0 0 0  0 0 0  0 0 0  0 0 0
0 0 0  0 0 0  0 0 0  0 0 0  0 0 0  0 0 0
0 0 0  0 0 0  0 0 1  10 24 44  25 61 115  32 79 149
33 81 153  33 81 153  33 81 153  33 81 153  33 81 153  33 81 153
33 81 153  33 81 153  33 81 153  33 81 153  33 81 153  33 81 153
33 81 153  33 81 153  33 81 153  33 81 153  29 71 133  4 9 17
0 0 0  1 2 4  24 59 111  33 81 153  33 81 153  33 81 153
33 81 153  33 81 153  33 81 153  33 81 153  33 81 153  33 81 153
33 81 153  33 81 153  21 51 95  0 0 0  0 0 0  0 0 1
21 52 98  33 81 153  33 81 153  33 81 153  33 81 153  33 81 153
33 81 153  33 81 153  33 81 153  33 81 153  33 81 153  33 81 153
33 81 153  33 81 153  33 81 153  33 81 153  33 80 151  25 62 116
9 22 41  0 0 0  0 0 0  0 0 0  0 0 0  0 0 0
0 0 0  0 0 0  0 0 0  0 0 0  0 0 0  0 0 0
0 0 0  0 0 0  0 0 0  0 0 0  0 0 0  0 0 0
0 0 0  0 0 0  0 0 0  0 0 0  5 12 23  30 74 139
33 81 153  33 81 153  33 81 153  33 81 153  33 81 153  33 81 153
33 81 153  33 81 153  33 81 153  33 81 153  33 81 153  33 81 153
33 81 153  26 64 121  5 12 23  0 0 0  0 0 0  0 0 0
0 0 0  0 0 0  0 0 0  0 0 0  0 0 0  0 0 0
0 0 0  0 0 0  0 0 0  0 0 0  3 9 16  29 71 133
33 81 153  33 81 153  33 81 153  33 81 153  33 81 153  33 81 153
33 81 153  33 81 153  33 81 153  33 81 153  33 81 153  33 81 152
10 25 47  0 0 0  0 0 0  0 0 0  0 0 0  0 0 0
0 0 0  0 0 0  0 0 0  0 0 0  0 0 0  0 0 0
0 0 0  0 0 0  0 0 0  0 0 0  0 0 0  0 0 0
20 48 91  33 81 153  33 81 153  33 81 153  33 81 153  33 81 153
33 81 153  33 81 153  33 81 153  33 81 153  33 81 153  33 81 153
13 33 62  0 0 0  0 0 0  0 0 0  0 0 0  0 0 0
0 0 0  0 0 0  0 0 0  4 10 18  29 71 134  33 81 153
33 81 153  33 81 153  33 81 153  33 81 153  33 81 153  33 81 153
33 81 153  33 81 153  33 81 153  33 81 153  14 35 65  0 0 0
0 0 0  0 0 0  0 0 0  0 0 0  0 0 0  0 0 0
0 0 0  0 0 0  0 0 0  0 0 0  0 0 0  0 0 0
0 0 0  0 0 0  0 0 0  0 0 0  15 37 70  33 81 153
33 81 153  33 81 153  33 81 153  33 81 153  33 81 153  33 81 153
33 81 153  33 81 153  33 81 153  33 81 153  33 81 153  13 31 59
0 0 0  0 0 0  0 0 0  0 0 0  0 0 0  0 0 0
0 0 0  0 0 0  0 0 0  0 0 0  0 0 0  0 0 0
0 0 0  0 0 0  0 0 0  0 0 0  0 0 0  6 16 29
31 76 143  33 81 153  33 81 153  33 81 153  33 81 153  33 81 153
33 81 153  33 81 153  33 81 153  33 81 153  33 81 153  32 80 151
10 26 49  0 0 0  0 0 0  0 0 0  0 0 0  0 0 0
0 0 0  0 0 0  0 0 0  0 0 0  0 0 0  0 0 0
0 0 0  0 0 0  0 0 0  0 0 0  0 0 0  0 0 0
0 0 0  0 0 0  0 0 0  0 0 0  0 0 0  0 0 0
0 0 0  2 5 10  17 42 79  20 49 92  20 48 91  20 48 91
20 48 91  20 48 91  20 48 91  20 48 91  20 48 91  20 48 91
20 48 91  20 48 91  20 48 91  20 48 91  20 48 91  20 48 91
20 48 91  20 48 91  20 48 91  20 48 91  20 48 91  20 48 91
20 48 91  20 48 91  20 48 91  20 48 91  20 48 91  20 48 91
20 48 91  20 48 91  20 50 94  29 71 134  33 81 153  33 81 153
33 81 153  33 81 153  33 81 153  33 81 153  33 81 153  33 81 153
33 81 153  33 81 153  33 81 153  33 81 153  33 81 153  33 81 153
32 79 150  18 44 84  2 4 8  0 0 0  0 0 0  0 0 0
0 0 0  0 0 0  0 0 0  0 0 0  0 0 0  0 0 0
0 0 0  0 0 0  0 0 0  0 0 0
0 0 0  0 0 0  0 0 0  0 0 0  0 0 0  0 0 0
2 5 9  26 64 122  33 81 153  33 81 153  33 81 153  33 81 153
33 81 153  33 81 153  33 81 153  33 81 153  33 81 153  33 81 153
33 81 153  33 81 153  33 81 153  33 81 153  33 81 153  33 81 153
33 81 153  33 81 153  33 81 153  33 81 153  33 81 153  33 81 153
33 81 153  33 81 153  33 81 153  33 81 152  12 30 58  0 0 0
0 0 0  0 0 0  0 0 0  0 0 0  0 0 0  0 0 0
0 0 0  0 0 0  0 0 0  0 0 0  0 0 0  0 0 0
0 0 0  0 0 0  0 0 0  0 0 0  0 0 0  0 0 0
0 0 0  0 0 0  0 0 0  0 0 0  0 0 0  0 0 0
0 0 0  0 0 0  0 0 0  0 0 0  0 0 0  0 0 0
0 0 0  0 0 0  0 0 0  0 0 0  0 0 0  0 0 0
0 0 0  0 0 0  0 0 0  0 0 0  0 0 0  0 0 0
0 0 0  0 0 0  0 0 0  1 1 2  22 55 103  33 81 153
33 81 153  33 81 153  33 81 153  33 81 153  33 81 153  33 81 153
33 81 153  33 81 153  33 81 153  33 81 153  33 81 153  33 81 153
33 81 153  33 81 153  33 81 153  33 81 153  33 81 153  33 81 153
33 81 153  33 81 153  33 81 153  33 81 153  33 81 153  33 81 153
33 81 153  27 66 125  2 6 11  0 0 0  0 0 0  0 0 0
0 0 0  0 0 0  0 0 0  0 0 0  2 4 8  26 63 119
33 81 153  33 81 153  33 81 153  33 81 153  33 81 153  33 81 153
33 81 153  33 81 153  33 81 153  33 81 153  33 81 153  33 81 153
33 81 153  33 81 153  33 81 153  33 81 153  33 81 153  33 81 153
33 81 153  33 81 153  33 81 153  33 81 153  33 81 153  33 81 153
33 81 153  33 81 153  33 81 153  33 81 153  33 81 153  33 81 153
33 81 153  33 81 153  33 81 153  33 81 153  33 81 153  33 81 153
33 81 153  33 81 153  33 81 153  33 81 153  33 81 153  33 81 153
33 81 153  29 71 133  9 22 41  0 0 0  0 0 0  0 0 0
0 0 0  0 0 0  0 0 0  0 0 0  0 0 0  0 0 0
0 0 0  0 0 0  0 0 0  0 0 0  0 0 0  0 0 0
0 0 0  0 0 0  0 1 1  14 34 65  31 77 146  33 81 153
33 81 153  33 81 153  33 81 153  33 81 153  33 81 153  33 81 153
33 81 153  33 81 153  33 81 153  33 81 153  33 81 153  33 81 153
33 81 153  33 81 153  33 81 153  33 81 153  33 81 153  33 81 153
33 81 153  33 81 153  33 81 153  33 81 153  33 81 153  33 81 153
33 81 153  33 81 153  33 81 153  33 81 153  33 81 153  33 81 153
33 81 153  33 81 153  33 81 153  33 81 153  33 81 153  33 81 153
33 81 153  33 81 153  33 81 153  33 81 153  33 81 153  33 81 153
21 52 98  0 0 1  0 0 0  0 0 0  0 0 0  0 0 0
0 0 0  0 0 0  0 0 0  0 0 0  7 4 0  172 75 22
222 79 28  222 79 28  223 91 29  223 91 29  224 95 29  224 99 29
225 105 30  226 111 30  226 111 30  227 119 31  227 119 31  228 125 31
229 127 32  229 132 32  230 135 32  230 138 32  230 143 33  230 143 33
231 148 33  231 148 33  232 151 33  232 151 33  232 151 33  232 155 33
232 155 33  232 155 33  232 151 33  232 151 33  232 151 33  184 135 26
18 11 2  0 0 0  0 0 0  0 0 0  0 0 0  0 0 0
0 0 0  0 0 0  0 0 0  0 0 0  0 0 0  0 0 0
2 5 9  26 64 121  33 81 153  33 81 153  33 81 153  33 81 153
33 81 153  33 81 153  33 81 153  33 81 153  33 81 153  33 81 153
33 81 153  33 81 153  33 81 153  33 81 153  33 81 153  33 81 153
33 81 153  33 81 153  33 81 153  33 81 153  33 81 153  29 72 136
4 11 20  0 0 0  0 0 0  0 0 0  0 0 0  0 0 0
0 0 0  0 0 0  0 0 0  0 0 0  0 0 0  0 0 0
0 0 0  0 0 0  0 0 0  0 0 0  0 0 0  0 0 0
0 0 0  0 0 0  0 0 0  0 0 0  0 0 0  0 0 0
0 0 0  0 0 0  0 0 0  0 0 0  0 0 0  0 0 0
0 0 0  0 0 0  0 0 0  0 0 0  0 0 0  0 0 0
0 0 0  0 0 0  0 0 0  0 0 0  0 0 0  0 0 0
0 0 0  0 0 0  0 0 0  0 0 0  0 0 0  6 14 27
24 60 113  33 81 153  33 81 153  33 81 153  33 81 153  33 81 153
33 81 153  33 81 153  33 81 153  33 81 153  33 81 153  33 81 153
33 81 153  33 81 153  33 81 153  33 81 153  33 81 153  33 81 153
33 81 153  33 81 153  33 81 153  33 81 153  33 81 153  33 81 153
33 81 153  33 81 153  33 81 153  32 78 148  9 22 41  0 0 0
0 0 0  0 0 0  0 0 0  0 0 0  0 0 0  0 0 0
0 0 0  0 0 0  0 0 0  0 0 0  0 0 0  0 0 0
0 0 0  0 0 0  0 0 0  0 0 0  0 0 0  0 0 0
0 0 0  0 0 0  0 0 0  0 0 0  0 0 0  0 0 0
0 0 0  0 0 0  0 0 0  0 0 0  0 0 0  0 0 0
0 0 0  0 0 0  0 0 0  0 0 0  0 0 0  0 0 0
0 0 0  0 0 0  0 0 0  0 0 0  2 5 10  10 25 47
19 47 88  25 62 116  28 70 131  30 73 139  30 75 141  30 74 140
30 74 140  30 74 140  30 74 140  30 74 140  30 74 140  30 74 140
30 74 140  30 74 140  30 74 140  31 75 142  26 64 121  3 8 15
0 0 0  1 2 4  24 59 111  33 81 153  33 81 153  33 81 153
33 81 153  33 81 153  33 81 153  33 81 153  33 81 153  33 81 153
33 81 153  33 81 153  21 51 95  0 0 0  0 0 0  0 0 1
19 47 89  31 76 143  30 74 140  30 74 140  30 74 140  30 74 140
30 74 140  30 74 140  30 74 140  30 74 140  30 74 140  30 74 140
31 75 142  30 73 138  27 67 127  22 53 100  12 29 55  2 6 11
0 0 0  0 0 0  0 0 0  0 0 0  0 0 0  0 0 0
0 0 0  0 0 0  0 0 0  0 0 0  0 0 0  0 0 0
0 0 0  0 0 0  0 0 0  0 0 0  0 0 0  0 0 0
0 0 0  0 0 0  0 0 0  0 0 0  5 13 24  30 75 141
33 81 153  33 81 153  33 81 153  33 81 153  33 81 153  33 81 153
33 81 153  33 81 153  33 81 153  33 81 153  33 81 153  31 76 143
22 53 100  5 13 25  0 0 0  0 0 0  0 0 0  0 0 0
0 0 0  0 0 0  0 0 0  0 0 0  0 0 0  0 0 0
0 0 0  0 0 0  0 0 0  0 0 0  3 8 16  28 70 131
33 81 153  33 81 153  33 81 153  33 81 153  33 81 153  33 81 153
33 81 153  33 81 153  33 81 153  33 81 153  33 81 153  32 80 151
10 24 46  0 0 0  0 0 0  0 0 0  0 0 0  0 0 0
0 0 0  0 0 0  0 0 0  0 0 0  0 0 0  0 0 0
0 0 0  0 0 0  0 0 0  0 0 0  0 0 0  0 0 0
18 44 83  31 76 143  30 74 140  30 74 140  30 74 140  30 74 140
30 74 140  30 74 140  30 74 140  30 74 140  30 74 140  30 74 140
12 30 57  0 0 0  0 0 0  0 0 0  0 0 0  0 0 0
0 0 0  0 0 0  0 0 0  4 10 18  29 71 134  33 81 153
33 81 153  33 81 153  33 81 153  33 81 153  33 81 153  33 81 153
33 81 153  33 81 153  33 81 153  33 81 153  14 35 65  0 0 0
0 0 0  0 0 0  0 0 0  0 0 0  0 0 0  0 0 0
0 0 0  0 0 0  0 0 0  0 0 0  0 0 0  0 0 0
0 0 0  0 0 0  0 0 0  0 0 0  15 37 70  33 81 153
33 81 153  33 81 153  33 81 153  33 81 153  33 81 153  33 81 153
33 81 153  33 81 153  33 81 153  33 81 153  33 81 153  13 31 59
0 0 0  0 0 0  0 0 0  0 0 0  0 0 0  0 0 0
0 0 0  0 0 0  0 0 0  0 0 0  0 0 0  0 0 0
0 0 0  0 0 0  0 0 0  0 0 0  0 0 0  6 16 29
31 76 143  33 81 153  33 81 153  33 81 153  33 81 153  33 81 153
33 81 153  33 81 153  33 81 153  33 81 153  33 81 153  32 80 151
10 26 49  0 0 0  0 0 0  0 0 0  0 0 0  0 0 0
0 0 0  0 0 0  0 0 0  0 0 0  0 0 0  0 0 0
0 0 0  0 0 0  0 0 0  0 0 0  0 0 0  0 0 0
0 0 0  0 0 0  0 0 0  0 0 0  0 0 0  0 0 0
0 0 0  4 9 17  29 72 136  33 81 153  33 81 153  33 81 153
33 81 153  33 81 153  33 81 153  33 81 153  33 81 153  33 81 153
33 81 153  33 81 153  33 81 153  33 81 153  33 81 153  33 81 153
33 81 153  33 81 153  33 81 153  33 81 153  33 81 153  33 81 153
33 81 153  33 81 153  33 81 153  33 81 153  33 81 153  33 81 153
33 81 153  33 81 153  33 81 153  33 81 153  33 81 153  33 81 153
33 81 153  33 81 153  33 81 153  33 81 153  33 81 153  33 81 153
33 81 153  33 81 153  33 81 153  33 81 153  33 81 153  32 78 147
16 39 74  1 2 4  0 0 0  0 0 0  0 0 0  0 0 0
0 0 0  0 0 0  0 0 0  0 0 0  0 0 0  0 0 0
0 0 0  0 0 0  0 0 0  0 0 0
0 0 0  0 0 0  0 0 0  0 0 0  0 0 0  0 0 0
3 8 15  28 69 131  33 81 153  33 81 153  33 81 153  33 81 153
33 81 153  33 81 153  33 81 153  33 81 153  33 81 153  33 81 153
33 81 153  33 81 153  33 81 153  33 81 153  33 81 153  33 81 153
33 81 153  33 81 153  33 81 153  33 81 153  33 81 153  33 81 153
33 81 153  33 81 153  33 81 153  33 81 153  20 49 93  0 0 0
0 0 0  0 0 0  0 0 0  0 0 0  0 0 0  0 0 0
0 0 0  0 0 0  0 0 0  0 0 0  0 0 0  0 0 0
0 0 0  0 0 0  0 0 0  0 0 0  0 0 0  0 0 0
0 0 0  0 0 0  0 0 0  0 0 0  0 0 0  0 0 0
0 0 0  0 0 0  0 0 0  0 0 0  0 0 0  0 0 0
0 0 0  0 0 0  0 0 0  0 0 0  0 0 0  0 0 0
0 0 0  0 0 0  0 0 0  0 0 0  0 0 0  0 0 0
0 0 0  0 0 0  0 0 0  4 9 17  28 70 131  33 81 153
33 81 153  33 81 153  33 81 153  33 81 153  33 81 153  33 81 153
33 81 153  33 81 153  33 81 153  33 81 153  33 81 153  33 81 153
33 81 153  33 81 153  33 81 153  33 81 153  33 81 153  33 81 153
33 81 153  33 81 153  33 81 153  33 81 153  33 81 153  33 81 153
33 81 153  29 71 133  4 9 17  0 0 0  0 0 0  0 0 0
0 0 0  0 0 0  0 0 0  0 0 0  2 4 8  26 63 119
33 81 153  33 81 153  33 81 153  33 81 153  33 81 153  33 81 153
33 81 153  33 81 153  33 81 153  33 81 153  33 81 153  33 81 153
33 81 153  33 81 153  33 81 153  33 81 153  33 81 153  33 81 153
33 81 153  33 81 153  33 81 153  33 81 153  33 81 153  33 81 153
33 81 153  33 81 153  33 81 153  33 81 153  33 81 153  33 81 153
33 81 153  33 81 153  33 81 153  33 81 153  33 81 153  33 81 153
33 81 153  33 81 153  33 81 153  33 81 153  33 81 153  33 81 153
33 81 153  33 81 153  29 70 133  8 20 37  0 0 0  0 0 0
0 0 0  0 0 0  0 0 0  0 0 0  0 0 0  0 0 0
0 0 0  0 0 0  0 0 0  0 0 0  0 0 0  0 0 0
0 0 0  0 0 0  13 33 62  31 77 146  33 81 153  33 81 153
33 81 153  33 81 153  33 81 153  33 81 153  33 81 153  33 81 153
33 81 153  33 81 153  33 81 153  33 81 153  33 81 153  33 81 153
33 81 153  33 81 153  33 81 153  33 81 153  33 81 153  33 81 153
33 81 153  33 81 153  33 81 153  33 81 153  33 81 153  33 81 153
33 81 153  33 81 153  33 81 153  33 81 153  33 81 153  33 81 153
33 81 153  33 81 153  33 81 153  33 81 153  33 81 153  33 81 153
33 81 153  33 81 153  33 81 153  33 81 153  33 81 153  33 81 153
21 51 96  0 0 0  0 0 0  0 0 0  0 0 0  0 0 0
0 0 0  0 0 0  0 0 0  0 0 0  0 0 0  95 32 12
220 72 27  222 79 28  222 79 28  223 91 29  223 91 29  224 95 29
224 99 29  225 105 30  226 111 30  226 111 30  227 119 31  227 119 31
228 125 31  229 127 32  229 132 32  230 135 32  230 135 32  230 138 32
230 143 33  230 143 33  230 143 33  231 148 33  231 148 33  231 148 33
231 148 33  231 148 33  231 148 33  231 148 33  230 143 33  100 78 15
0 0 0  0 0 0  0 0 0  0 0 0  0 0 0  0 0 0
0 0 0  0 0 0  0 0 0  0 0 0  0 0 0  0 0 0
2 5 9  26 64 121  33 81 153  33 81 153  33 81 153  33 81 153
33 81 153  33 81 153  33 81 153  33 81 153  33 81 153  33 81 153
33 81 153  33 81 153  33 81 153  33 81 153  33 81 153  33 81 153
33 81 153  33 81 153  33 81 153  33 81 153  33 81 153  29 72 136
4 11 20  0 0 0  0 0 0  0 0 0  0 0 0  0 0 0
0 0 0  0 0 0  0 0 0  0 0 0  0 0 0  0 0 0
0 0 0  0 0 0  0 0 0  0 0 0  0 0 0  0 0 0
0 0 0  0 0 0  0 0 0  0 0 0  0 0 0  0 0 0
0 0 0  0 0 0  0 0 0  0 0 0  0 0 0  0 0 0
0 0 0  0 0 0  0 0 0  0 0 0  0 0 0  0 0 0
0 0 0  0 0 0  0 0 0  0 0 0  0 0 0  0 0 0
0 0 0  0 0 0  0 0 0  0 0 0  0 0 0  0 0 0
4 10 20  25 62 117  33 81 153  33 81 153  33 81 153  33 81 153
33 81 153  33 81 153  33 81 153  33 81 153  33 81 153  33 81 153
33 81 153  33 81 153  33 81 153  33 81 153  33 81 153  33 81 153
33 81 153  33 81 153  33 81 153  33 81 153  33 81 153  33 81 153
33 81 153  33 81 153  33 81 153  33 81 153  15 38 71  0 0 0
0 0 0  0 0 0  0 0 0  0 0 0  0 0 0  0 0 0
0 0 0  0 0 0  0 0 0  0 0 0  0 0 0  0 0 0
0 0 0  0 0 0  0 0 0  0 0 0  0 0 0  0 0 0
0 0 0  0 0 0  0 0 0  0 0 0  0 0 0  0 0 0
0 0 0  0 0 0  0 0 0  0 0 0  0 0 0  0 0 0
0 0 0  0 0 0  0 0 0  0 0 0  0 0 0  0 0 0
0 0 0  0 0 0  0 0 0  0 0 0  0 0 0  0 0 0
0 0 0  1 3 7  3 9 16  5 12 23  6 14 26  5 13 25
5 13 25  5 13 25  5 13 25  5 13 25  5 13 25  5 13 25
5 13 25  5 13 25  5 13 25  5 13 25  5 11 22  1 2 3
0 0 0  1 2 4  24 59 111  33 81 153  33 81 153  33 81 153
33 81 153  33 81 153  33 81 153  33 81 153  33 81 153  33 81 153
33 81 153  33 81 153  21 51 95  0 0 0  0 0 0  0 0 0
3 9 16  6 14 26  5 13 25  5 13 25  5 13 25  5 13 25
5 13 25  5 13 25  5 13 25  5 13 25  5 13 25  5 13 25
6 14 27  5 12 23  3 7 13  0 1 2  0 0 0  0 0 0
0 0 0  0 0 0  0 0 0  0 0 0  0 0 0  0 0 0
0 0 0  0 0 0  0 0 0  0 0 0  0 0 0  0 0 0
0 0 0  0 0 0  0 0 0  0 0 0  0 0 0  0 0 0
0 0 0  0 0 0  0 0 0  0 0 0  2 6 11  14 34 65
16 38 72  15 38 71  15 38 71  15 38 71  15 38 71  15 38 71
15 38 71  15 38 71  15 38 71  15 37 71  13 32 60  7 17 32
1 2 4  0 0 0  0 0 0  0 0 0  0 0 0  0 0 0
0 0 0  0 0 0  0 0 0  0 0 0  0 0 0  0 0 0
0 0 0  0 0 0  0 0 0  0 0 0  3 8 16  28 70 131
33 81 153  33 81 153  33 81 153  33 81 153  33 81 153  33 81 153
33 81 153  33 81 153  33 81 153  33 81 153  33 81 153  32 80 151
10 24 46  0 0 0  0 0 0  0 0 0  0 0 0  0 0 0
0 0 0  0 0 0  0 0 0  0 0 0  0 0 0  0 0 0
0 0 0  0 0 0  0 0 0  0 0 0  0 0 0  0 0 0
3 8 15  6 14 26  5 13 25  5 13 25  5 13 25  5 13 25
5 13 25  5 13 25  5 13 25  5 13 25  5 13 25  5 13 25
2 5 10  0 0 0  0 0 0  0 0 0  0 0 0  0 0 0
0 0 0  0 0 0  0 0 0  4 10 18  29 71 134  33 81 153
33 81 153  33 81 153  33 81 153  33 81 153  33 81 153  33 81 153
33 81 153  33 81 153  33 81 153  33 81 153  14 34 64  0 0 0
0 0 0  0 0 0  0 0 0  0 0 0  0 0 0  0 0 0
0 0 0  0 0 0  0 0 0  0 0 0  0 0 0  0 0 0
0 0 0  0 0 0  0 0 0  0 0 0  15 37 69  33 81 153
33 81 153  33 81 153  33 81 153  33 81 153  33 81 153  33 81 153
33 81 153  33 81 153  33 81 153  33 81 153  33 81 153  12 30 57
0 0 0  0 0 0  0 0 0  0 0 0  0 0 0  0 0 0
0 0 0  0 0 0  0 0 0  0 0 0  0 0 0  0 0 0
0 0 0  0 0 0  0 0 0  0 0 0  0 0 0  6 15 28
31 76 143  33 81 153  33 81 153  33 81 153  33 81 153  33 81 153
33 81 153  33 81 153  33 81 153  33 81 153  33 81 153  32 80 151
10 26 49  0 0 0  0 0 0  0 0 0  0 0 0  0 0 0
0 0 0  0 0 0  0 0 0  0 0 0  0 0 0  0 0 0
0 0 0  0 0 0  0 0 0  0 0 0  0 0 0  0 0 0
0 0 0  0 0 0  0 0 0  0 0 0  0 0 0  0 0 0
0 0 0  4 9 17  29 71 133  33 81 153  33 81 153  33 81 153
33 81 153  33 81 153  33 81 153  33 81 153  33 81 153  33 81 153
33 81 153  33 81 153  33 81 153  33 81 153  33 81 153  33 81 153
33 81 153  33 81 153  33 81 153  33 81 153  33 81 153  33 81 153
33 81 153  33 81 153  33 81 153  33 81 153  33 81 153  33 81 153
33 81 153  33 81 153  33 81 153  33 81 153  33 81 153  33 81 153
33 81 153  33 81 153  33 81 153  33 81 153  33 81 153  33 81 153
33 81 153  33 81 153  33 81 153  33 81 153  31 76 143  14 33 63
0 1 2  0 0 0  0 0 0  0 0 0  0 0 0  0 0 0
0 0 0  0 0 0  0 0 0  0 0 0  0 0 0  0 0 0
0 0 0  0 0 0  0 0 0  0 0 0
0 0 0  0 0 0  0 0 0  0 0 0  0 0 0  0 0 0
5 12 23  30 73 138  33 81 153  33 81 153  33 81 153  33 81 153
33 81 153  33 81 153  33 81 153  33 81 153  33 81 153  33 81 153
33 81 153  33 81 153  33 81 153  33 81 153  33 81 153  33 81 153
33 81 153  33 81 153  33 81 153  33 81 153  33 81 153  33 81 153
33 81 153  33 81 153  33 81 153  33 81 153  27 66 125  3 7 13
0 0 0  0 0 0  0 0 0  0 0 0  0 0 0  0 0 0
0 0 0  0 0 0  0 0 0  0 0 0  0 0 0  0 0 0
0 0 0  0 0 0  0 0 0  0 0 0  0 0 0  0 0 0
0 0 0  0 0 0  0 0 0  0 0 0  0 0 0  0 0 0
0 0 0  0 0 0  0 0 0  0 0 0  0 0 0  0 0 0
0 0 0  0 0 0  0 0 0  0 0 0  0 0 0  0 0 0
0 0 0  0 0 0  0 0 0  0 0 0  0 0 0  0 0 0
0 0 0  0 0 0  0 0 0  10 24 46  32 79 149  33 81 153
33 81 153  33 81 153  33 81 153  33 81 153  33 81 153  33 81 153
33 81 153  33 81 153  33 81 153  33 81 153  33 81 153  33 81 153
33 81 153  33 81 153  33 81 153  33 81 153  33 81 153  33 81 153
33 81 153  33 81 153  33 81 153  33 81 153  33 81 153  33 81 153
33 81 153  30 74 140  6 14 26  0 0 0  0 0 0  0 0 0
0 0 0  0 0 0  0 0 0  0 0 0  2 4 7  25 63 118
33 81 153  33 81 153  33 81 153  33 81 153  33 81 153  33 81 153
33 81 153  33 81 153  33 81 153  33 81 153  33 81 153  33 81 153
33 81 153  33 81 153  33 81 153  33 81 153  33 81 153  33 81 153
33 81 153  33 81 153  33 81 153  33 81 153  33 81 153  33 81 153
33 81 153  33 81 153  33 81 153  33 81 153  33 81 153  33 81 153
33 81 153  33 81 153  33 81 153  33 81 153  33 81 153  33 81 153
33 81 153  33 81 153  33 81 153  33 81 153  33 81 153  33 81 153
33 81 153  33 81 153  33 81 153  28 68 128  7 17 31  0 0 0
0 0 0  0 0 0  0 0 0  0 0 0  0 0 0  0 0 0
0 0 0  0 0 0  0 0 0  0 0 0  0 0 0  0 0 0
0 0 0  12 29 55  31 76 143  33 81 153  33 81 153  33 81 153
33 81 153  33 81 153  33 81 153  33 81 153  33 81 153  33 81 153
33 81 153  33 81 153  33 81 153  33 81 153  33 81 153  33 81 153
33 81 153  33 81 153  33 81 153  33 81 153  33 81 153  33 81 153
33 81 153  33 81 153  33 81 153  33 81 153  33 81 153  33 81 153
33 81 153  33 81 153  33 81 153  33 81 153  33 81 153  33 81 153
33 81 153  33 81 153  33 81 153  33 81 153  33 81 153  33 81 153
33 81 153  33 81 153  33 81 153  33 81 153  33 81 153  33 81 153
21 51 96  0 0 0  0 0 0  0 0 0  0 0 0  0 0 0
0 0 0  0 0 0  0 0 0  0 0 0  0 0 0  48 29 6
220 72 27  220 72 27  222 79 28  222 79 28  223 91 29  223 91 29
224 99 29  224 99 29  225 105 30  226 111 30  226 111 30  227 119 31
227 119 31  228 125 31  227 126 31  229 127 32  229 132 32  230 135 32
230 135 32  230 138 32  230 138 32  230 138 32  230 143 33  230 143 33
230 143 33  230 143 33  230 143 33  230 138 32  227 126 31  48 29 6
0 0 0  0 0 0  0 0 0  0 0 0  0 0 0  0 0 0
0 0 0  0 0 0  0 0 0  0 0 0  0 0 0  0 0 0
2 5 9  26 64 121  33 81 153  33 81 153  33 81 153  33 81 153
33 81 153  33 81 153  33 81 153  33 81 153  33 81 153  33 81 153
33 81 153  33 81 153  33 81 153  33 81 153  33 81 153  33 81 153
33 81 153  33 81 153  33 81 153  33 81 153  33 81 153  29 72 136
4 11 20  0 0 0  0 0 0  0 0 0  0 0 0  0 0 0
0 0 0  0 0 0  0 0 0  0 0 0  0 0 0  0 0 0
0 0 0  0 0 0  0 0 0  0 0 0  0 0 0  0 0 0
0 0 0  0 0 0  0 0 0  0 0 0  0 0 0  0 0 0
0 0 0  0 0 0  0 0 0  0 0 0  0 0 0  0 0 0
0 0 0  0 0 0  0 0 0  0 0 0  0 0 0  0 0 0
0 0 0  0 0 0  0 0 0  0 0 0  0 0 0  0 0 0
0 0 0  0 0 0  0 0 0  0 0 0  0 0 0  0 0 0
0 0 0  8 18 35  30 73 139  33 81 153  33 81 153  33 81 153
33 81 153  33 81 153  33 81 153  33 81 153  33 81 153  33 81 153
33 81 153  33 81 153  33 81 153  33 81 153  33 81 153  33 81 153
33 81 153  33 81 153  33 81 153  33 81 153  33 81 153  33 81 153
33 81 153  33 81 153  33 81 153  33 81 153  21 52 98  0 1 1
0 0 0  0 0 0  0 0 0  0 0 0  0 0 0  0 0 0
0 0 0  0 0 0  0 0 0  0 0 0  0 0 0  0 0 0
0 0 0  0 0 0  0 0 0  0 0 0  0 0 0  0 0 0
0 0 0  0 0 0  0 0 0  0 0 0  0 0 0  0 0 0
0 0 0  0 0 0  0 0 0  0 0 0  0 0 0  0 0 0
0 0 0  0 0 0  0 0 0  0 0 0  0 0 0  0 0 0
0 0 0  0 0 0  0 0 0  0 0 0  0 0 0  0 0 0
0 0 0  0 0 0  0 0 0  0 0 0  0 0 0  0 0 0
0 0 0  0 0 0  0 0 0  0 0 0  0 0 0  0 0 0
0 0 0  0 0 0  0 0 0  0 0 0  0 0 0  0 0 0
0 0 0  1 2 4  24 59 111  33 81 153  33 81 153  33 81 153
33 81 153  33 81 153  33 81 153  33 81 153  33 81 153  33 81 153
33 81 153  33 81 153  21 51 95  0 0 0  0 0 0  0 0 0
0 0 0  0 0 0  0 0 0  0 0 0  0 0 0  0 0 0
0 0 0  0 0 0  0 0 0  0 0 0  0 0 0  0 0 0
0 0 0  0 0 0  0 0 0  0 0 0  0 0 0  0 0 0
0 0 0  0 0 0  0 0 0  0 0 0  0 0 0  0 0 0
0 0 0  0 0 0  0 0 0  0 0 0  0 0 0  0 0 0
0 0 0  0 0 0  0 0 0  0 0 0  0 0 0  0 0 0
0 0 0  0 0 0  0 0 0  0 0 0  0 0 0  0 0 0
0 0 0  0 0 0  0 0 0  0 0 0  0 0 0  0 0 0
0 0 0  0 0 0  0 0 0  0 0 0  0 0 0  0 0 0
0 0 0  0 0 0  0 0 0  0 0 0  0 0 0  0 0 0
0 0 0  0 0 0  0 0 0  0 0 0  0 0 0  0 0 0
0 0 0  0 0 0  0 0 0  0 0 0  3 8 16  28 70 131
33 81 153  33 81 153  33 81 153  33 81 153  33 81 153  33 81 153
33 81 153  33 81 153  33 81 153  33 81 153  33 81 153  32 80 151
10 24 46  0 0 0  0 0 0  0 0 0  0 0 0  0 0 0
0 0 0  0 0 0  0 0 0  0 0 0  0 0 0  0 0 0
0 0 0  0 0 0  0 0 0  0 0 0  0 0 0  0 0 0
0 0 0  0 0 0  0 0 0  0 0 0  0 0 0  0 0 0
0 0 0  0 0 0  0 0 0  0 0 0  0 0 0  0 0 0
0 0 0  0 0 0  0 0 0  0 0 0  0 0 0  0 0 0
0 0 0  0 0 0  0 0 0  4 10 18  29 71 134  33 81 153
33 81 153  33 81 153  33 81 153  33 81 153  33 81 153  33 81 153
33 81 153  33 81 153  33 81 153  33 81 153  21 51 96  11 27 52
11 28 53  11 28 53  11 28 53  11 28 53  11 28 53  11 28 53
11 28 53  11 28 53  11 28 53  11 28 53  11 28 53  11 28 53
11 28 53  11 28 53  11 28 53  11 27 52  21 52 99  33 81 153
33 81 153  33 81 153  33 81 153  33 81 153  33 81 153  33 81 153
33 81 153  33 81 153  33 81 153  33 81 153  33 81 153  20 48 91
11 27 52  11 28 53  11 28 53  11 28 53  11 28 53  11 28 53
11 28 53  11 28 53  11 28 53  11 28 53  11 28 53  11 28 53
11 28 53  11 28 53  11 28 53  11 28 53  11 27 52  16 38 72
32 78 146  33 81 153  33 81 153  33 81 153  33 81 153  33 81 153
33 81 153  33 81 153  33 81 153  33 81 153  33 81 153  32 80 151
10 26 49  0 0 0  0 0 0  0 0 0  0 0 0  0 0 0
0 0 0  0 0 0  0 0 0  0 0 0  0 0 0  0 0 0
0 0 0  0 0 0  0 0 0  0 0 0  0 0 0  0 0 0
0 0 0  0 0 0  0 0 0  0 0 0  0 0 0  0 0 0
0 0 0  4 9 17  29 71 133  33 81 153  33 81 153  33 81 153
33 81 153  33 81 153  33 81 153  33 81 153  33 81 153  33 81 153
33 81 153  33 81 153  33 81 153  33 81 153  33 81 153  33 81 153
33 81 153  33 81 153  33 81 153  33 81 153  33 81 153  33 81 153
33 81 153  33 81 153  33 81 153  33 81 153  33 81 153  33 81 153
33 81 153  33 81 153  33 81 153  33 81 153  33 81 153  33 81 153
33 81 153  33 81 153  33 81 153  33 81 153  33 81 153  33 81 153
33 81 153  33 81 153  33 81 153  30 73 138  12 28 53  0 0 0
0 0 0  0 0 0  0 0 0  0 0 0  0 0 0  0 0 0
0 0 0  0 0 0  0 0 0  0 0 0  0 0 0  0 0 0
0 0 0  0 0 0  0 0 0  0 0 0
0 0 0  0 0 0  0 0 0  0 0 0  0 0 0  0 0 0
7 17 32  31 76 144  33 81 153  33 81 153  33 81 153  33 81 153
33 81 153  33 81 153  33 81 153  33 81 153  33 81 153  33 81 153
33 81 153  33 81 153  33 81 153  33 81 153  33 81 153  33 81 153
33 81 153  33 81 153  33 81 153  33 81 153  33 81 153  33 81 153
33 81 153  33 81 153  33 81 153  33 81 153  32 78 147  9 21 40
0 0 0  0 0 0  0 0 0  0 0 0  0 0 0  0 0 0
0 0 0  0 0 0  0 0 0  0 0 0  0 0 0  0 0 0
0 0 0  0 0 0  0 0 0  0 0 0  0 0 0  0 0 0
0 0 0  0 0 0  0 0 0  0 0 0  0 0 0  0 0 0
0 0 0  0 0 0  0 0 0  0 0 0  0 0 0  0 0 0
0 0 0  0 0 0  0 0 0  0 0 0  0 0 0  0 0 0
0 0 0  0 0 0  0 0 0  0 0 0  0 0 0  0 0 0
0 0 0  0 0 0  0 0 0  18 44 84  33 81 153  33 81 153
33 81 153  33 81 153  33 81 153  33 81 153  33 81 153  33 81 153
33 81 153  33 81 153  33 81 153  33 81 153  33 81 153  33 81 153
33 81 153  33 81 153  33 81 153  33 81 153  33 81 153  33 81 153
33 81 153  33 81 153  33 81 153  33 81 153  33 81 153  33 81 153
33 81 153  31 77 146  8 18 35  0 0 0  0 0 0  0 0 0
0 0 0  0 0 0  0 0 0  0 0 0  1 3 7  25 62 116
33 81 153  33 81 153  33 81 153  33 81 153  33 81 153  33 81 153
33 81 153  33 81 153  33 81 153  33 81 153  33 81 153  33 81 153
33 81 153  33 81 153  33 81 153  33 81 153  33 81 153  33 81 153
33 81 153  33 81 153  33 81 153  33 81 153  33 81 153  33 81 153
33 81 153  33 81 153  33 81 153  33 81 153  33 81 153  33 81 153
33 81 153  33 81 153  33 81 153  33 81 153  33 81 153  33 81 153
33 81 153  33 81 153  33 81 153  33 81 153  33 81 153  33 81 153
33 81 153  33 81 153  33 81 153  33 81 153  26 64 121  5 11 22
0 0 0  0 0 0  0 0 0  0 0 0  0 0 0  0 0 0
0 0 0  0 0 0  0 0 0  0 0 0  0 0 0  0 0 0
9 23 43  30 73 139  33 81 153  33 81 153  33 81 153  33 81 153
33 81 153  33 81 153  33 81 153  33 81 153  33 81 153  33 81 153
33 81 153  33 81 153  33 81 153  33 81 153  33 81 153  33 81 153
33 81 153  33 81 153  33 81 153  33 81 153  33 81 153  33 81 153
33 81 153  33 81 153  33 81 153  33 81 153  33 81 153  33 81 153
33 81 153  33 81 153  33 81 153  33 81 153  33 81 153  33 81 153
33 81 153  33 81 153  33 81 153  33 81 153  33 81 153  33 81 153
33 81 153  33 81 153  33 81 153  33 81 153  33 81 153  33 81 153
21 51 96  0 0 0  0 0 0  0 0 0  0 0 0  0 0 0
0 0 0  0 0 0  0 0 0  0 0 0  0 0 0  2 1 0
95 32 12  220 72 27  222 79 28  222 79 28  223 91 29  223 91 29
224 95 29  224 99 29  224 99 29  225 105 30  226 111 30  226 111 30
227 119 31  227 119 31  227 119 31  228 125 31  229 127 32  229 127 32
229 132 32  229 132 32  230 135 32  230 135 32  230 135 32  230 135 32
230 135 32  230 135 32  230 135 32  230 135 32  172 75 22  7 4 0
0 0 0  0 0 0  0 0 0  0 0 0  0 0 0  0 0 0
0 0 0  0 0 0  0 0 0  0 0 0  0 0 0  0 0 0
2 5 9  26 64 121  33 81 153  33 81 153  33 81 153  33 81 153
33 81 153  33 81 153  33 81 153  33 81 153  33 81 153  33 81 153
33 81 153  33 81 153  33 81 153  33 81 153  33 81 153  33 81 153
33 81 153  33 81 153  33 81 153  33 81 153  33 81 153  29 72 136
4 11 20  0 0 0  0 0 0  0 0 0  0 0 0  0 0 0
0 0 0  0 0 0  0 0 0  0 0 0  0 0 0  0 0 0
0 0 0  0 0 0  0 0 0  0 0 0  0 0 0  0 0 0
0 0 0  0 0 0  0 0 0  0 0 0  0 0 0  0 0 0
0 0 0  0 0 0  0 0 0  0 0 0  0 0 0  0 0 0
0 0 0  0 0 0  0 0 0  0 0 0  0 0 0  0 0 0
0 0 0  0 0 0  0 0 0  0 0 0  0 0 0  0 0 0
0 0 0  0 0 0  0 0 0  0 0 0  0 0 0  0 0 0
0 0 0  0 0 0  18 44 82  33 81 153  33 81 153  33 81 153
33 81 153  33 81 153  33 81 153  33 81 153  33 81 153  33 81 153
33 81 153  33 81 153  33 81 153  33 81 153  33 81 153  33 81 153
33 81 153  33 81 153  33 81 153  33 81 153  33 81 153  33 81 153
33 81 153  33 81 153  33 81 153  33 81 153  25 62 118  2 4 7
0 0 0  0 0 0  0 0 0  0 0 0  0 0 0  0 0 0
0 0 0  0 0 0  0 0 0  0 0 0  0 0 0  0 0 0
0 0 0  0 0 0  0 0 0  0 0 0  0 0 0  0 0 0
0 0 0  0 0 0  0 0 0  0 0 0  0 0 0  0 0 0
0 0 0  0 0 0  0 0 0  0 0 0  0 0 0  0 0 0
0 0 0  0 0 1  0 0 1  0 0 1  0 0 1  0 0 1
0 0 1  0 0 1  0 0 1  0 0 1  0 0 1  0 0 1
0 0 1  0 0 1  0 0 1  0 0 1  0 0 1  0 0 1
0 0 1  0 0 1  0 0 1  0 0 1  0 0 1  0 0 1
0 0 1  0 0 1  0 0 1  0 0 1  0 0 1  0 0 1
0 0 1  1 3 5  24 59 111  33 81 153  33 81 153  33 81 153
33 81 153  33 81 153  33 81 153  33 81 153  33 81 153  33 81 153
33 81 153  33 81 153  21 51 96  0 1 1  0 0 1  0 0 1
0 0 1  0 0 1  0 0 1  0 0 1  0 0 1  0 0 1
0 0 1  0 0 1  0 0 1  0 0 1  0 0 1  0 0 1
0 0 1  0 0 1  0 0 1  0 0 1  0 0 1  0 0 1
0 0 1  0 0 1  0 0 1  0 0 1  0 0 1  0 0 1
0 0 1  0 0 1  0 0 1  0 0 1  0 0 0  0 0 0
0 0 0  0 0 0  0 0 0  0 0 0  0 0 0  0 0 0
0 0 0  0 0 0  0 0 0  0 0 0  0 0 0  0 0 0
0 0 0  0 0 0  0 0 0  0 0 0  0 0 0  0 0 0
0 0 0  0 0 0  0 0 0  0 0 0  0 0 0  0 0 0
0 0 0  0 0 0  0 0 0  0 0 0  0 0 0  0 0 0
0 0 0  0 0 0  0 0 0  0 0 0  0 0 0  0 0 0
0 0 0  0 0 0  0 0 0  0 0 0  3 8 16  28 70 131
33 81 153  33 81 153  33 81 153  33 81 153  33 81 153  33 81 153
33 81 153  33 81 153  33 81 153  33 81 153  33 81 153  32 80 151
10 24 46  0 0 0  0 0 0  0 0 0  0 0 0  0 0 0
0 0 0  0 0 0  0 0 0  0 0 0  0 0 0  0 0 0
0 0 0  0 0 0  0 0 0  0 0 0  0 0 0  0 0 0
0 0 0  0 0 0  0 0 0  0 0 0  0 0 0  0 0 0
0 0 0  0 0 0  0 0 0  0 0 0  0 0 0  0 0 0
0 0 0  0 0 0  0 0 0  0 0 0  0 0 0  0 0 0
0 0 0  0 0 0  0 0 0  4 10 18  29 71 134  33 81 153
33 81 153  33 81 153  33 81 153  33 81 153  33 81 153  33 81 153
33 81 153  33 81 153  33 81 153  33 81 153  33 81 152  33 80 152
33 80 152  33 80 152  33 80 152  33 80 152  33 80 152  33 80 152
33 80 152  33 80 152  33 80 152  33 80 152  33 80 152  33 80 152
33 80 152  33 80 152  33 80 152  33 80 152  33 81 152  33 81 153
33 81 153  33 81 153  33 81 153  33 81 153  33 81 153  33 81 153
33 81 153  33 81 153  33 81 153  33 81 153  33 81 153  33 81 152
33 80 152  33 80 152  33 80 152  33 80 152  33 80 152  33 80 152
33 80 152  33 80 152  33 80 152  33 80 152  33 80 152  33 80 152
33 80 152  33 80 152  33 80 152  33 80 152  33 80 152  33 81 152
33 81 153  33 81 153  33 81 153  33 81 153  33 81 153  33 81 153
33 81 153  33 81 153  33 81 153  33 81 153  33 81 153  32 80 151
10 26 49  0 0 0  0 0 0  0 0 0  0 0 0  0 0 0
0 0 0  0 0 0  0 0 0  0 0 0  0 0 0  0 0 0
0 0 0  0 0 0  0 0 0  0 0 0  0 0 0  0 0 0
0 0 0  0 0 0  0 0 0  0 0 0  0 0 0  0 0 0
0 0 0  4 9 17  29 71 133  33 81 153  33 81 153  33 81 153
33 81 153  33 81 153  33 81 153  33 81 153  33 81 153  33 81 153
33 81 153  33 81 153  33 81 153  33 81 153  33 81 153  33 81 153
33 81 153  33 81 153  33 81 153  33 81 153  33 81 153  33 81 153
33 81 153  33 81 153  33 81 153  33 81 153  33 81 153  33 81 153
33 81 153  33 81 153  33 81 153  33 81 153  33 81 153  33 81 153
33 81 153  33 81 153  33 81 153  33 81 153  33 81 153  33 81 153
33 81 153  33 81 153  28 70 132  9 23 44  0 0 0  0 0 0
0 0 0  0 0 0  0 0 0  0 0 0  0 0 0  0 0 0
0 0 0  0 0 0  0 0 0  0 0 0  0 0 0  0 0 0
0 0 0  0 0 0  0 0 0  0 0 0
0 0 0  0 0 0  0 0 0  0 0 0  0 0 0  0 0 0
9 22 42  32 79 149  33 81 153  33 81 153  33 81 153  33 81 153
33 81 153  33 81 153  33 81 153  33 81 153  33 81 153  33 81 153
33 81 153  33 81 153  33 81 153  33 81 153  33 81 153  33 81 153
33 81 153  33 81 153  33 81 153  33 81 153  33 81 153  33 81 153
33 81 153  33 81 153  33 81 153  33 81 153  33 81 153  17 42 79
0 0 0  0 0 0  0 0 0  0 0 0  0 0 0  0 0 0
0 0 0  0 0 0  0 0 0  0 0 0  0 0 0  0 0 0
0 0 0  0 0 0  0 0 0  0 0 0  0 0 0  0 0 0
0 0 0  0 0 0  0 0 0  0 0 0  0 0 0  0 0 0
0 0 0  0 0 0  0 0 0  0 0 0  0 0 0  0 0 0
0 0 0  0 0 0  0 0 0  0 0 0  0 0 0  0 0 0
0 0 0  0 0 0  0 0 0  0 0 0  0 0 0  0 0 0
0 0 0  0 0 0  2 5 10  26 64 121  33 81 153  33 81 153
33 81 153  33 81 153  33 81 153  33 81 153  33 81 153  33 81 153
33 81 153  33 81 153  33 81 153  33 81 153  33 81 153  33 81 153
33 81 153  33 81 153  33 81 153  33 81 153  33 81 153  33 81 153
33 81 153  33 81 153  33 81 153  33 81 153  33 81 153  33 81 153
33 81 153  32 79 150  10 24 46  0 0 0  0 0 0  0 0 0
0 0 0  0 0 0  0 0 0  0 0 0  1 3 7  25 62 116
33 81 153  33 81 153  33 81 153  33 81 153  33 81 153  33 81 153
33 81 153  33 81 153  33 81 153  33 81 153  33 81 153  33 81 153
33 81 153  33 81 153  33 81 153  33 81 153  33 81 153  33 81 153
33 81 153  33 81 153  33 81 153  33 81 153  33 81 153  33 81 153
33 81 153  33 81 153  33 81 153  33 81 153  33 81 153  33 81 153
33 81 153  33 81 153  33 81 153  33 81 153  33 81 153  33 81 153
33 81 153  33 81 153  33 81 153  33 81 153  33 81 153  33 81 153
33 81 153  33 81 153  33 81 153  33 81 153  33 81 153  23 57 107
3 6 12  0 0 0  0 0 0  0 0 0  0 0 0  0 0 0
0 0 0  0 0 0  0 0 0  0 0 0  0 0 0  6 16 29
28 69 130  33 81 153  33 81 153  33 81 153  33 81 153  33 81 153
33 81 153  33 81 153  33 81 153  33 81 153  33 81 153  33 81 153
33 81 153  33 81 153  33 81 153  33 81 153  33 81 153  33 81 153
33 81 153  33 81 153  33 81 153  33 81 153  33 81 153  33 81 153
33 81 153  33 81 153  33 81 153  33 81 153  33 81 153  33 81 153
33 81 153  33 81 153  33 81 153  33 81 153  33 81 153  33 81 153
33 81 153  33 81 153  33 81 153  33 81 153  33 81 153  33 81 153
33 81 153  33 81 153  33 81 153  33 81 153  33 81 153  33 81 153
21 51 96  0 0 0  0 0 0  0 0 0  0 0 0  0 0 0
0 0 0  0 0 0  0 0 0  0 0 0  0 0 0  0 0 0
18 11 2  172 75 22  220 72 27  222 79 28  222 79 28  223 91 29
223 91 29  224 95 29  224 99 29  224 99 29  225 105 30  225 105 30
226 111 30  226 111 30  227 119 31  227 119 31  227 119 31  228 125 31
228 125 31  229 127 32  229 127 32  229 127 32  229 132 32  229 132 32
229 132 32  229 132 32  229 132 32  226 111 30  48 29 6  0 0 0
0 0 0  0 0 0  0 0 0  0 0 0  0 0 0  0 0 0
0 0 0  0 0 0  0 0 0  0 0 0  0 0 0  0 0 0
2 5 9  26 64 121  33 81 153  33 81 153  33 81 153  33 81 153
33 81 153  33 81 153  33 81 153  33 81 153  33 81 153  33 81 153
33 81 153  33 81 153  33 81 153  33 81 153  33 81 153  33 81 153
33 81 153  33 81 153  33 81 153  33 81 153  33 81 153  29 72 136
4 11 20  0 0 0  0 0 0  0 0 0  0 0 0  0 0 0
0 0 0  0 0 0  0 0 0  0 0 0  0 0 0  0 0 0
0 0 0  0 0 0  0 0 0  0 0 0  0 0 0  0 0 0
0 0 0  0 0 0  0 0 0  0 0 0  0 0 0  0 0 0
0 0 0  0 0 0  0 0 0  0 0 0  0 0 0  0 0 0
0 0 0  0 0 0  0 0 0  0 0 0  0 0 0  0 0 0
0 0 0  0 0 0  0 0 0  0 0 0  0 0 0  0 0 0
0 0 0  0 0 0  0 0 0  0 0 0  0 0 0  0 0 0
0 0 0  0 0 0  6 15 29  30 74 140  33 81 153  33 81 153
33 81 153  33 81 153  33 81 153  33 81 153  33 81 153  33 81 153
33 81 153  33 81 153  33 81 153  33 81 153  33 81 153  33 81 153
33 81 153  33 81 153  33 81 153  33 81 153  33 81 153  33 81 153
33 81 153  33 81 153  33 81 153  33 81 153  28 69 130  3 8 14
0 0 0  0 0 0  0 0 0  0 0 0  0 0 0  0 0 0
0 0 0  0 0 0  0 0 0  0 0 0  0 0 0  0 0 0
0 0 0  0 0 0  0 0 0  0 0 0  0 0 0  0 0 0
0 0 0  0 0 0  0 0 0  0 0 0  0 0 0  0 0 0
0 0 0  0 0 0  0 0 0  0 0 0  0 0 0  0 0 0
4 10 18  20 48 91  21 52 99  21 52 98  21 52 98  21 52 98
21 52 98  21 52 98  21 52 98  21 52 98  21 52 98  21 52 98
21 52 98  21 52 98  21 52 98  21 52 98  21 52 98  21 52 98
21 52 98  21 52 98  21 52 98  21 52 98  21 52 98  21 52 98
21 52 98  21 52 98  21 52 98  21 52 98  21 52 98  21 52 98
21 52 98  22 53 100  30 73 138  33 81 153  33 81 153  33 81 153
33 81 153  33 81 153  33 81 153  33 81 153  33 81 153  33 81 153
33 81 153  33 81 153  29 70 133  21 52 98  21 52 98  21 52 98
21 52 98  21 52 98  21 52 98  21 52 98  21 52 98  21 52 98
21 52 98  21 52 98  21 52 98  21 52 98  21 52 98  21 52 98
21 52 98  21 52 98  21 52 98  21 52 98  21 52 98  21 52 98
21 52 98  21 52 98  21 52 98  21 52 98  21 52 98  21 52 98
21 52 98  21 52 98  21 53 100  19 46 86  3 6 12  0 0 0
0 0 0  0 0 0  0 0 0  0 0 0  0 0 0  0 0 0
0 0 0  0 0 0  0 0 0  0 0 0  0 0 0  0 0 0
0 0 0  0 0 0  0 0 0  0 0 0  0 0 0  0 0 0
0 0 0  0 0 0  0 0 0  1 3 5  8 20 38  10 24 44
9 23 44  9 23 44  9 23 44  9 23 44  9 23 44  9 23 44
9 23 44  9 23 44  9 23 44  10 24 44  4 10 19  0 0 0
0 0 0  0 0 0  0 0 0  0 0 0  3 8 16  28 70 131
33 81 153  33 81 153  33 81 153  33 81 153  33 81 153  33 81 153
33 81 153  33 81 153  33 81 153  33 81 153  33 81 153  32 80 151
10 24 46  0 0 0  0 0 0  0 0 0  0 0 0  1 2 4
8 20 37  10 24 44  9 23 44  9 23 44  9 23 44  9 23 44
9 23 44  9 23 44  9 23 44  9 23 44  9 23 44  10 24 44
8 19 35  1 2 3  0 0 0  0 0 0  0 0 0  0 0 0
0 0 0  0 0 0  0 0 0  0 0 0  0 0 0  0 0 0
0 0 0  0 0 0  0 0 0  0 0 0  0 0 0  0 0 0
0 0 0  0 0 0  0 0 0  4 10 18  29 71 134  33 81 153
33 81 153  33 81 153  33 81 153  33 81 153  33 81 153  33 81 153
33 81 153  33 81 153  33 81 153  33 81 153  33 81 153  33 81 153
33 81 153  33 81 153  33 81 153  33 81 153  33 81 153  33 81 153
33 81 153  33 81 153  33 81 153  33 81 153  33 81 153  33 81 153
33 81 153  33 81 153  33 81 153  33 81 153  33 81 153  33 81 153
33 81 153  33 81 153  33 81 153  33 81 153  33 81 153  33 81 153
33 81 153  33 81 153  33 81 153  33 81 153  33 81 153  33 81 153
33 81 153  33 81 153  33 81 153  33 81 153  33 81 153  33 81 153
33 81 153  33 81 153  33 81 153  33 81 153  33 81 153  33 81 153
33 81 153  33 81 153  33 81 153  33 81 153  33 81 153  33 81 153
33 81 153  33 81 153  33 81 153  33 81 153  33 81 153  33 81 153
33 81 153  33 81 153  33 81 153  33 81 153  33 81 153  32 80 151
10 26 49  0 0 0  0 0 0  0 0 0  0 0 0  0 0 0
0 0 0  0 0 0  0 0 0  0 0 0  0 0 0  0 0 0
0 0 0  0 0 0  0 0 0  0 0 0  0 0 0  0 0 0
0 0 0  0 0 0  0 0 0  0 0 0  0 0 0  0 0 0
0 0 0  4 9 17  29 71 133  33 81 153  33 81 153  33 81 153
33 81 153  33 81 153  33 81 153  33 81 153  33 81 153  33 81 153
33 81 153  33 81 153  33 81 153  33 81 153  33 81 153  33 81 153
33 81 153  33 81 153  33 81 153  33 81 153  33 81 153  33 81 153
33 81 153  33 81 153  33 81 153  33 81 153  33 81 153  33 81 153
33 81 153  33 81 153  33 81 153  33 81 153  33 81 153  33 81 153
33 81 153  33 81 153  33 81 153  33 81 153  33 81 153  33 81 153
33 81 153  27 66 125  8 18 35  0 0 0  0 0 0  0 0 0
0 0 0  0 0 0  0 0 0  0 0 0  0 0 0  0 0 0
0 0 0  0 0 0  0 0 0  0 0 0  0 0 0  0 0 0
0 0 0  0 0 0  0 0 0  0 0 0
0 0 0  0 0 0  0 0 0  0 0 0  0 0 0  0 0 0
12 28 53  33 80 152  33 81 153  33 81 153  33 81 153  33 81 153
33 81 153  33 81 153  33 81 153  33 81 153  33 81 153  33 81 153
33 81 153  33 81 153  33 81 153  33 81 153  33 81 153  33 81 153
33 81 153  33 81 153  33 81 153  33 81 153  33 81 153  33 81 153
33 81 153  33 81 153  33 81 153  33 81 153  33 81 153  26 63 119
2 5 9  0 0 0  0 0 0  0 0 0  0 0 0  0 0 0
0 0 0  0 0 0  0 0 0  0 0 0  0 0 0  0 0 0
0 0 0  0 0 0  0 0 0  0 0 0  0 0 0  0 0 0
0 0 0  0 0 0  0 0 0  0 0 0  0 0 0  0 0 0
0 0 0  0 0 0  0 0 0  0 0 0  0 0 0  0 0 0
0 0 0  0 0 0  0 0 0  0 0 0  0 0 0  0 0 0
0 0 0  0 0 0  0 0 0  0 0 0  0 0 0  0 0 0
0 0 0  0 0 0  8 21 39  31 77 146  33 81 153  33 81 153
33 81 153  33 81 153  33 81 153  33 81 153  33 81 153  33 81 153
33 81 153  33 81 153  33 81 153  33 81 153  33 81 153  33 81 153
33 81 153  33 81 153  33 81 153  33 81 153  33 81 153  33 81 153
33 81 153  33 81 153  33 81 153  33 81 153  33 81 153  33 81 153
33 81 153  33 81 153  12 30 57  0 0 0  0 0 0  0 0 0
0 0 0  0 0 0  0 0 0  0 0 0  1 3 7  25 61 116
33 81 153  33 81 153  33 81 153  33 81 153  33 81 153  33 81 153
33 81 153  33 81 153  33 81 153  33 81 153  33 81 153  33 81 153
33 81 153  33 81 153  33 81 153  33 81 153  33 81 153  33 81 153
33 81 153  33 81 153  33 81 153  33 81 153  33 81 153  33 81 153
33 81 153  33 81 153  33 81 153  33 81 153  33 81 153  33 81 153
33 81 153  33 81 153  33 81 153  33 81 153  33 81 153  33 81 153
33 81 153  33 81 153  33 81 153  33 81 153  33 81 153  33 81 153
33 81 153  33 81 153  33 81 153  33 81 153  33 81 153  33 81 153
19 47 88  1 2 4  0 0 0  0 0 0  0 0 0  0 0 0
0 0 0  0 0 0  0 0 0  0 0 0  3 8 16  25 61 115
33 81 153  33 81 153  33 81 153  33 81 153  33 81 153  33 81 153
33 81 153  33 81 153  33 81 153  33 81 153  33 81 153  33 81 153
33 81 153  33 81 153  33 81 153  33 81 153  33 81 153  33 81 153
33 81 153  33 81 153  33 81 153  33 81 153  33 81 153  33 81 153
33 81 153  33 81 153  33 81 153  33 81 153  33 81 153  33 81 153
33 81 153  33 81 153  33 81 153  33 81 153  33 81 153  33 81 153
33 81 153  33 81 153  33 81 153  33 81 153  33 81 153  33 81 153
33 81 153  33 81 153  33 81 153  33 81 153  33 81 153  33 81 153
21 51 95  0 0 0  0 0 0  0 0 0  0 0 0  0 0 0
0 0 0  0 0 0  0 0 0  0 0 0  0 0 0  0 0 0
0 0 0  95 32 12  220 72 27  220 72 27  222 79 28  222 79 28
223 91 29  223 91 29  223 91 29  224 95 29  224 99 29  225 105 30
225 105 30  226 111 30  226 111 30  226 111 30  227 119 31  227 119 31
227 119 31  228 125 31  228 125 31  228 125 31  228 125 31  228 125 31
228 125 31  228 125 31  227 126 31  95 32 12  0 0 0  0 0 0
0 0 0  0 0 0  0 0 0  0 0 0  0 0 0  0 0 0
0 0 0  0 0 0  0 0 0  0 0 0  0 0 0  0 0 0
2 5 9  26 64 121  33 81 153  33 81 153  33 81 153  33 81 153
33 81 153  33 81 153  33 81 153  33 81 153  33 81 153  33 81 153
33 81 153  33 81 153  33 81 153  33 81 153  33 81 153  33 81 153
33 81 153  33 81 153  33 81 153  33 81 153  33 81 153  29 72 136
4 11 20  0 0 0  0 0 0  0 0 0  0 0 0  0 0 0
0 0 0  0 0 0  0 0 0  0 0 0  0 0 0  0 0 0
0 0 0  0 0 0  0 0 0  0 0 0  0 0 0  0 0 0
0 0 0  0 0 0  0 0 0  0 0 0  0 0 0  0 0 0
0 0 0  0 0 0  0 0 0  0 0 0  0 0 0  0 0 0
0 0 0  0 0 0  0 0 0  0 0 0  0 0 0  0 0 0
0 0 0  0 0 0  0 0 0  0 0 0  0 0 0  0 0 0
0 0 0  0 0 0  0 0 0  0 0 0  0 0 0  0 0 0
0 0 0  0 0 0  1 3 5  24 58 110  33 81 153  33 81 153
33 81 153  33 81 153  33 81 153  33 81 153  33 81 153  33 81 153
33 81 153  33 81 153  33 81 153  33 81 153  33 81 153  33 81 153
33 81 153  33 81 153  33 81 153  33 81 153  33 81 153  33 81 153
33 81 153  33 81 153  33 81 153  33 81 153  30 72 137  5 11 21
0 0 0  0 0 0  0 0 0  0 0 0  0 0 0  0 0 0
0 0 0  0 0 0  0 0 0  0 0 0  0 0 0  0 0 0
0 0 0  0 0 0  0 0 0  0 0 0  0 0 0  0 0 0
0 0 0  0 0 0  0 0 0  0 0 0  0 0 0  0 0 0
0 0 0  0 0 0  0 0 0  0 0 0  0 0 0  0 0 0
6 15 28  31 76 144  33 81 153  33 81 153  33 81 153  33 81 153
33 81 153  33 81 153  33 81 153  33 81 153  33 81 153  33 81 153
33 81 153  33 81 153  33 81 153  33 81 153  33 81 153  33 81 153
33 81 153  33 81 153  33 81 153  33 81 153  33 81 153  33 81 153
33 81 153  33 81 153  33 81 153  33 81 153  33 81 153  33 81 153
33 81 153  33 81 153  33 81 153  33 81 153  33 81 153  33 81 153
33 81 153  33 81 153  33 81 153  33 81 153  33 81 153  33 81 153
33 81 153  33 81 153  33 81 153  33 81 153  33 81 153  33 81 153
33 81 153  33 81 153  33 81 153  33 81 153  33 81 153  33 81 153
33 81 153  33 81 153  33 81 153  33 81 153  33 81 153  33 81 153
33 81 153  33 81 153  33 81 153  33 81 153  33 81 153  33 81 153
33 81 153  33 81 153  33 81 153  33 81 153  33 81 153  33 81 153
33 81 153  33 81 153  33 81 153  30 73 137  4 10 19  0 0 0
0 0 0  0 0 0  0 0 0  0 0 0  0 0 0  0 0 0
0 0 0  0 0 0  0 0 0  0 0 0  0 0 0  0 0 0
0 0 0  0 0 0  0 0 0  0 0 0  0 0 0  0 0 0
0 0 0  0 0 0  0 0 0  7 17 31  30 74 140  32 80 151
32 79 150  32 79 150  32 79 150  32 79 150  32 79 150  32 79 150
32 79 150  32 79 150  32 79 150  32 78 146  10 25 47  0 0 0
0 0 0  0 0 0  0 0 0  0 0 0  3 8 16  28 70 131
33 81 153  33 81 153  33 81 153  33 81 153  33 81 153  33 81 153
33 81 153  33 81 153  33 81 153  33 81 153  33 81 153  32 80 151
10 24 46  0 0 0  0 0 0  0 0 0  0 0 0  1 3 5
24 58 110  33 80 152  32 79 150  32 79 150  32 79 150  32 79 150
32 79 150  32 79 150  32 79 150  32 79 150  32 79 150  32 80 151
29 70 133  4 11 20  0 0 0  0 0 0  0 0 0  0 0 0
0 0 0  0 0 0  0 0 0  0 0 0  0 0 0  0 0 0
0 0 0  0 0 0  0 0 0  0 0 0  0 0 0  0 0 0
0 0 0  0 0 0  0 0 0  4 10 18  29 71 134  33 81 153
33 81 153  33 81 153  33 81 153  33 81 153  33 81 153  33 81 153
33 81 153  33 81 153  33 81 153  33 81 153  33 81 153  33 81 153
33 81 153  33 81 153  33 81 153  33 81 153  33 81 153  33 81 153
33 81 153  33 81 153  33 81 153  33 81 153  33 81 153  33 81 153
33 81 153  33 81 153  33 81 153  33 81 153  33 81 153  33 81 153
33 81 153  33 81 153  33 81 153  33 81 153  33 81 153  33 81 153
33 81 153  33 81 153  33 81 153  33 81 153  33 81 153  33 81 153
33 81 153  33 81 153  33 81 153  33 81 153  33 81 153  33 81 153
33 81 153  33 81 153  33 81 153  33 81 153  33 81 153  33 81 153
33 81 153  33 81 153  33 81 153  33 81 153  33 81 153  33 81 153
33 81 153  33 81 153  33 81 153  33 81 153  33 81 153  33 81 153
33 81 153  33 81 153  33 81 153  33 81 153  33 81 153  32 80 151
10 26 49  0 0 0  0 0 0  0 0 0  0 0 0  0 0 0
0 0 0  0 0 0  0 0 0  0 0 0  0 0 0  0 0 0
0 0 0  0 0 0  0 0 0  0 0 0  0 0 0  0 0 0
0 0 0  0 0 0  0 0 0  0 0 0  0 0 0  0 0 0
0 0 0  4 9 17  29 71 133  33 81 153  33 81 153  33 81 153
33 81 153  33 81 153  33 81 153  33 81 153  33 81 153  33 81 153
33 81 153  33 81 153  33 81 153  33 81 153  33 81 153  33 81 153
33 81 153  33 81 153  33 81 153  33 81 153  33 81 153  33 81 153
33 81 153  33 81 153  33 81 153  33 81 153  33 81 153  33 81 153
33 81 153  33 81 153  33 81 153  33 81 153  33 81 153  33 81 153
33 81 153  33 81 153  33 81 153  33 81 153  33 81 153  33 81 153
33 80 152  12 30 57  0 0 0  0 0 0  0 0 0  0 0 0
0 0 0  0 0 0  0 0 0  0 0 0  0 0 0  0 0 0
0 0 0  0 0 0  0 0 0  0 0 0  0 0 0  0 0 0
0 0 0  0 0 0  0 0 0  0 0 0
0 0 0  0 0 0  0 0 0  0 0 0  0 0 0  0 0 0
14 35 65  33 81 153  33 81 153  33 81 153  33 81 153  33 81 153
33 81 153  33 81 153  33 81 153  33 81 153  33 81 153  33 81 153
33 81 153  33 81 153  33 81 153  33 81 153  33 81 153  33 81 153
33 81 153  33 81 153  33 81 153  33 81 153  33 81 153  33 81 153
33 81 153  33 81 153  33 81 153  33 81 153  33 81 153  31 77 146
8 20 38  0 0 0  0 0 0  0 0 0  0 0 0  0 0 0
0 0 0  0 0 0  0 0 0  0 0 0  0 0 0  0 0 0
0 0 0  0 0 0  0 0 0  0 0 0  0 0 0  0 0 0
0 0 0  0 0 0  0 0 0  0 0 0  0 0 0  0 0 0
0 0 0  0 0 0  0 0 0  0 0 0  0 0 0  0 0 0
0 0 0  0 0 0  0 0 0  0 0 0  0 0 0  0 0 0
0 0 0  0 0 0  0 0 0  0 0 0  0 0 0  0 0 0
0 0 0  0 0 0  18 44 82  33 81 153  33 81 153  33 81 153
33 81 153  33 81 153  33 81 153  33 81 153  33 81 153  33 81 153
33 81 153  33 81 153  33 81 153  33 81 153  33 81 153  33 81 153
33 81 153  33 81 153  33 81 153  33 81 153  33 81 153  33 81 153
33 81 153  33 81 153  33 81 153  33 81 153  33 81 153  33 81 153
33 81 153  33 81 153  15 37 70  0 0 0  0 0 0  0 0 0
0 0 0  0 0 0  0 0 0  0 0 0  1 1 2  9 22 41
13 31 59  15 36 68  17 43 80  21 51 95  24 59 112  28 68 128
31 75 142  33 80 151  33 81 153  33 81 153  33 81 153  33 81 153
33 81 153  33 81 153  33 81 153  33 81 153  33 81 153  33 81 153
33 81 153  33 81 153  33 81 153  33 81 153  33 81 153  33 81 153
33 81 153  33 81 153  33 81 153  33 81 153  33 81 153  33 81 153
33 81 153  33 81 153  33 81 153  33 81 153  33 81 153  33 81 153
33 81 153  33 81 153  33 81 153  33 81 153  33 81 153  33 81 153
33 81 153  33 81 153  33 81 153  33 81 153  33 81 153  33 81 153
32 79 149  14 34 64  0 0 0  0 0 0  0 0 0  0 0 0
0 0 0  0 0 0  0 0 0  1 3 5  20 49 93  33 81 153
33 81 153  33 81 153  33 81 153  33 81 153  33 81 153  33 81 153
33 81 153  33 81 153  33 81 153  33 81 153  33 81 153  33 81 153
33 81 153  33 81 153  33 81 153  33 81 153  33 81 153  33 81 153
33 81 153  33 81 153  33 81 153  33 81 153  33 81 153  33 81 153
33 81 153  33 81 153  33 81 153  33 81 153  33 81 153  33 81 153
33 81 153  33 81 153  33 81 153  33 81 153  33 81 153  33 81 153
33 81 153  33 81 153  33 81 153  33 81 153  32 79 150  30 74 140
27 67 126  24 58 110  20 50 94  17 42 79  14 35 67  13 31 59
7 18 34  0 0 0  0 0 0  0 0 0  0 0 0  0 0 0
0 0 0  0 0 0  0 0 0  0 0 0  0 0 0  0 0 0
0 0 0  2 1 0  95 32 12  220 72 27  220 72 27  222 79 28
222 79 28  223 91 29  223 91 29  223 91 29  224 95 29  224 99 29
224 99 29  225 105 30  225 105 30  226 111 30  226 111 30  226 111 30
227 119 31  227 119 31  227 119 31  227 119 31  227 119 31  227 119 31
227 119 31  227 119 31  100 78 15  7 4 0  0 0 0  0 0 0
0 0 0  0 0 0  0 0 0  0 0 0  0 0 0  0 0 0
0 0 0  0 0 0  0 0 0  0 0 0  0 0 0  0 0 0
2 5 9  26 64 121  33 81 153  33 81 153  33 81 153  33 81 153
33 81 153  33 81 153  33 81 153  33 81 153  33 81 153  33 81 153
33 81 153  33 81 153  33 81 153  33 81 153  33 81 153  33 81 153
33 81 153  33 81 153  33 81 153  33 81 153  33 81 153  29 72 136
4 11 20  0 0 0  0 0 0  0 0 0  0 0 0  0 0 0
0 0 0  0 0 0  0 0 0  0 0 0  0 0 0  0 0 0
0 0 0  0 0 0  0 0 0  0 0 0  0 0 0  0 0 0
0 0 0  0 0 0  0 0 0  0 0 0  0 0 0  0 0 0
0 0 0  0 0 0  0 0 0  0 0 0  0 0 0  0 0 0
0 0 0  0 0 0  0 0 0  0 0 0  0 0 0  0 0 0
0 0 0  0 0 0  0 0 0  0 0 0  0 0 0  0 0 0
0 0 0  0 0 0  0 0 0  0 0 0  0 0 0  0 0 0
0 0 0  0 0 0  0 0 0  17 42 80  33 81 153  33 81 153
33 81 153  33 81 153  33 81 153  33 81 153  33 81 153  33 81 153
33 81 153  33 81 153  33 81 153  33 81 153  33 81 153  33 81 153
33 81 153  33 81 153  33 81 153  33 81 153  33 81 153  33 81 153
33 81 153  33 81 153  33 81 153  33 81 153  30 74 140  5 13 25
0 0 0  0 0 0  0 0 0  0 0 0  0 0 0  0 0 0
0 0 0  0 0 0  0 0 0  0 0 0  0 0 0  0 0 0
0 0 0  0 0 0  0 0 0  0 0 0  0 0 0  0 0 0
0 0 0  0 0 0  0 0 0  0 0 0  0 0 0  0 0 0
0 0 0  0 0 0  0 0 0  0 0 0  0 0 0  0 0 0
6 15 28  31 75 142  33 81 153  33 81 153  33 81 153  33 81 153
33 81 153  33 81 153  33 81 153  33 81 153  33 81 153  33 81 153
33 81 153  33 81 153  33 81 153  33 81 153  33 81 153  33 81 153
33 81 153  33 81 153  33 81 153  33 81 153  33 81 153  33 81 153
33 81 153  33 81 153  33 81 153  33 81 153  33 81 153  33 81 153
33 81 153  33 81 153  33 81 153  33 81 153  33 81 153  33 81 153
33 81 153  33 81 153  33 81 153  33 81 153  33 81 153  33 81 153
33 81 153  33 81 153  33 81 153  33 81 153  33 81 153  33 81 153
33 81 153  33 81 153  33 81 153  33 81 153  33 81 153  33 81 153
33 81 153  33 81 153  33 81 153  33 81 153  33 81 153  33 81 153
33 81 153  33 81 153  33 81 153  33 81 153  33 81 153  33 81 153
33 81 153  33 81 153  33 81 153  33 81 153  33 81 153  33 81 153
33 81 153  33 81 153  33 81 153  29 71 135  4 10 19  0 0 0
0 0 0  0 0 0  0 0 0  0 0 0  0 0 0  0 0 0
0 0 0  0 0 0  0 0 0  0 0 0  0 0 0  0 0 0
0 0 0  0 0 0  0 0 0  0 0 0  0 0 0  0 0 0
0 0 0  0 0 0  0 0 0  14 34 64  33 81 153  33 81 153
33 81 153  33 81 153  33 81 153  33 81 153  33 81 153  33 81 153
33 81 153  33 81 153  33 81 153  29 71 135  4 11 20  0 0 0
0 0 0  0 0 0  0 0 0  0 0 0  3 8 16  28 70 131
33 81 153  33 81 153  33 81 153  33 81 153  33 81 153  33 81 153
33 81 153  33 81 153  33 81 153  33 81 153  33 81 153  32 80 151
10 24 46  0 0 0  0 0 0  0 0 0  0 0 0  0 0 0
17 42 79  33 81 153  33 81 153  33 81 153  33 81 153  33 81 153
33 81 153  33 81 153  33 81 153  33 81 153  33 81 153  33 81 153
32 79 149  10 24 46  0 0 0  0 0 0  0 0 0  0 0 0
0 0 0  0 0 0  0 0 0  0 0 0  0 0 0  0 0 0
0 0 0  0 0 0  0 0 0  0 0 0  0 0 0  0 0 0
0 0 0  0 0 0  0 0 0  4 10 18  29 71 134  33 81 153
33 81 153  33 81 153  33 81 153  33 81 153  33 81 153  33 81 153
33 81 153  33 81 153  33 81 153  33 81 153  33 81 153  33 81 153
33 81 153  33 81 153  33 81 153  33 81 153  33 81 153  33 81 153
33 81 153  33 81 153  33 81 153  33 81 153  33 81 153  33 81 153
33 81 153  33 81 153  33 81 153  33 81 153  33 81 153  33 81 153
33 81 153  33 81 153  33 81 153  33 81 153  33 81 153  33 81 153
33 81 153  33 81 153  33 81 153  33 81 153  33 81 153  33 81 153
33 81 153  33 81 153  33 81 153  33 81 153  33 81 153  33 81 153
33 81 153  33 81 153  33 81 153  33 81 153  33 81 153  33 81 153
33 81 153  33 81 153  33 81 153  33 81 153  33 81 153  33 81 153
33 81 153  33 81 153  33 81 153  33 81 153  33 81 153  33 81 153
33 81 153  33 81 153  33 81 153  33 81 153  33 81 153  32 80 151
10 26 49  0 0 0  0 0 0  0 0 0  0 0 0  0 0 0
0 0 0  0 0 0  0 0 0  0 0 0  0 0 0  0 0 0
0 0 0  0 0 0  0 0 0  0 0 0  0 0 0  0 0 0
0 0 0  0 0 0  0 0 0  0 0 0  0 0 0  0 0 0
0 0 0  4 9 17  28 69 130  32 79 150  32 79 149  32 79 149
32 79 149  32 79 149  32 79 149  32 79 149  32 79 149  32 79 149
32 79 149  32 79 149  32 79 149  32 79 149  32 79 149  32 79 149
32 79 149  32 79 149  32 79 149  32 79 149  32 79 149  32 79 149
32 79 149  32 79 149  32 79 149  32 79 149  32 79 149  32 79 149
32 79 149  33 81 153  33 81 153  33 81 153  33 81 153  33 81 153
33 81 153  33 81 153  33 81 153  33 81 153  33 81 153  33 81 153
33 80 151  11 27 50  0 0 0  0 0 0  0 0 0  0 0 0
0 0 0  0 0 0  0 0 0  0 0 0  0 0 0  0 0 0
0 0 0  0 0 0  0 0 0  0 0 0  0 0 0  0 0 0
0 0 0  0 0 0  0 0 0  0 0 0
0 0 0  0 0 0  0 0 0  0 0 0  0 0 0  0 0 0
17 41 78  33 81 153  33 81 153  33 81 153  33 81 153  33 81 153
33 81 153  33 81 153  33 81 153  33 81 153  33 81 153  33 81 153
33 81 153  33 81 153  33 81 153  33 81 153  33 81 153  33 81 153
33 81 153  33 81 153  33 81 153  33 81 153  33 81 153  33 81 153
33 81 153  33 81 153  33 81 153  33 81 153  33 81 153  33 81 153
18 44 84  0 0 0  0 0 0  0 0 0  0 0 0  0 0 0
0 0 0  0 0 0  0 0 0  0 0 0  0 0 0  0 0 0
0 0 0  0 0 0  0 0 0  0 0 0  0 0 0  0 0 0
0 0 0  0 0 0  0 0 0  0 0 0  0 0 0  0 0 0
0 0 0  0 0 0  0 0 0  0 0 0  0 0 0  0 0 0
0 0 0  0 0 0  0 0 0  0 0 0  0 0 0  0 0 0
0 0 0  0 0 0  0 0 0  0 0 0  0 0 0  0 0 0
0 0 0  3 7 13  27 66 125  33 81 153  33 81 153  33 81 153
33 81 153  33 81 153  33 81 153  33 81 153  33 81 153  33 81 153
33 81 153  33 81 153  33 81 153  33 81 153  33 81 153  33 81 153
33 81 153  33 81 153  33 81 153  33 81 153  33 81 153  33 81 153
33 81 153  33 81 153  33 81 153  33 81 153  33 81 153  33 81 153
33 81 153  33 81 153  18 44 82  0 0 0  0 0 0  0 0 0
0 0 0  0 0 0  0 0 0  0 0 0  0 0 0  0 0 0
0 0 0  0 0 0  0 0 0  0 0 0  1 3 5  3 7 14
6 15 29  11 27 51  17 42 79  24 58 110  29 71 134  32 79 150
33 81 153  33 81 153  33 81 153  33 81 153  33 81 153  33 81 153
33 81 153  33 81 153  33 81 153  33 81 153  33 81 153  33 81 153
33 81 153  33 81 153  33 81 153  33 81 153  33 81 153  33 81 153
33 81 153  33 81 153  33 81 153  33 81 153  33 81 153  33 81 153
33 81 153  33 81 153  33 81 153  33 81 153  33 81 153  33 81 153
33 81 153  33 81 153  33 81 153  33 81 153  33 81 153  33 81 153
33 81 153  30 73 138  8 19 37  0 0 0  0 0 0  0 0 0
0 0 0  0 0 0  0 0 0  14 34 65  32 79 150  33 81 153
33 81 153  33 81 153  33 81 153  33 81 153  33 81 153  33 81 153
33 81 153  33 81 153  33 81 153  33 81 153  33 81 153  33 81 153
33 81 153  33 81 153  33 81 153  33 81 153  33 81 153  33 81 153
33 81 153  33 81 153  33 81 153  33 81 153  33 81 153  33 81 153
33 81 153  33 81 153  33 81 153  33 81 153  33 81 153  33 81 153
33 81 153  33 81 153  33 81 153  33 81 153  33 81 153  33 81 153
32 78 148  28 69 131  23 55 104  16 39 74  10 25 47  6 14 26
3 6 12  1 2 4  0 0 0  0 0 0  0 0 0  0 0 0
0 0 0  0 0 0  0 0 0  0 0 0  0 0 0  0 0 0
0 0 0  0 0 0  0 0 0  0 0 0  0 0 0  0 0 0
0 0 0  0 0 0  7 4 0  95 32 12  220 72 27  220 72 27
222 79 28  222 79 28  222 79 28  223 91 29  223 91 29  224 95 29
224 95 29  224 99 29  224 99 29  225 105 30  225 105 30  226 111 30
226 111 30  226 111 30  226 111 30  226 111 30  226 111 30  226 111 30
226 111 30  172 75 22  18 11 2  0 0 0  0 0 0  0 0 0
0 0 0  0 0 0  0 0 0  0 0 0  0 0 0  0 0 0
0 0 0  0 0 0  0 0 0  0 0 0  0 0 0  0 0 0
2 5 9  26 64 121  33 81 153  33 81 153  33 81 153  33 81 153
33 81 153  33 81 153  33 81 153  33 81 153  33 81 153  33 81 153
33 81 153  33 81 153  33 81 153  33 81 153  33 81 153  33 81 153
33 81 153  33 81 153  33 81 153  33 81 153  33 81 153  29 72 136
4 11 20  0 0 0  0 0 0  0 0 0  0 0 0  0 0 0
0 0 0  0 0 0  0 0 0  0 0 0  0 0 0  0 0 0
0 0 0  0 0 0  0 0 0  0 0 0  0 0 0  0 0 0
0 0 0  0 0 0  0 0 0  0 0 0  0 0 0  0 0 0
0 0 0  0 0 0  0 0 0  0 0 0  0 0 0  0 0 0
0 0 0  0 0 0  0 0 0  0 0 0  0 0 0  0 0 0
0 0 0  0 0 0  0 0 0  0 0 0  0 0 0  0 0 0
0 0 0  0 0 0  0 0 0  0 0 0  0 0 0  0 0 0
0 0 0  0 0 0  0 0 0  13 31 58  33 81 153  33 81 153
33 81 153  33 81 153  33 81 153  33 81 153  33 81 153  33 81 153
33 81 153  33 81 153  33 81 153  33 81 153  33 81 153  33 81 153
33 81 153  33 81 153  33 81 153  33 81 153  33 81 153  33 81 153
33 81 153  33 81 153  33 81 153  33 81 153  30 75 141  6 14 27
0 0 0  0 0 0  0 0 0  0 0 0  0 0 0  0 0 0
0 0 0  0 0 0  0 0 0  0 0 0  0 0 0  0 0 0
0 0 0  0 0 0  0 0 0  0 0 0  0 0 0  0 0 0
0 0 0  0 0 0  0 0 0  0 0 0  0 0 0  0 0 0
0 0 0  0 0 0  0 0 0  0 0 0  0 0 0  0 0 0
6 15 28  31 75 142  33 81 153  33 81 153  33 81 153  33 81 153
33 81 153  33 81 153  33 81 153  33 81 153  33 81 153  33 81 153
33 81 153  33 81 153  33 81 153  33 81 153  33 81 153  33 81 153
33 81 153  33 81 153  33 81 153  33 81 153  33 81 153  33 81 153
33 81 153  33 81 153  33 81 153  33 81 153  33 81 153  33 81 153
33 81 153  33 81 153  33 81 153  33 81 153  33 81 153  33 81 153
33 81 153  33 81 153  33 81 153  33 81 153  33 81 153  33 81 153
33 81 153  33 81 153  33 81 153  33 81 153  33 81 153  33 81 153
33 81 153  33 81 153  33 81 153  33 81 153  33 81 153  33 81 153
33 81 153  33 81 153  33 81 153  33 81 153  33 81 153  33 81 153
33 81 153  33 81 153  33 81 153  33 81 153  33 81 153  33 81 153
33 81 153  33 81 153  33 81 153  33 81 153  33 81 153  33 81 153
33 81 153  33 81 153  33 81 153  29 71 135  4 10 19  0 0 0
0 0 0  0 0 0  0 0 0  0 0 0  0 0 0  0 0 0
0 0 0  0 0 0  0 0 0  0 0 0  0 0 0  0 0 0
0 0 0  0 0 0  0 0 0  0 0 0  0 0 0  0 0 0
0 0 0  0 0 0  0 1 2  21 53 100  33 81 153  33 81 153
33 81 153  33 81 153  33 81 153  33 81 153  33 81 153  33 81 153
33 81 153  33 81 153  33 81 153  23 57 109  1 2 4  0 0 0
0 0 0  0 0 0  0 0 0  0 0 0  3 8 16  28 70 131
33 81 153  33 81 153  33 81 153  33 81 153  33 81 153  33 81 153
33 81 153  33 81 153  33 81 153  33 81 153  33 81 153  32 80 151
10 24 46  0 0 0  0 0 0  0 0 0  0 0 0  0 0 0
9 23 44  32 79 149  33 81 153  33 81 153  33 81 153  33 81 153
33 81 153  33 81 153  33 81 153  33 81 153  33 81 153  33 81 153
33 81 153  17 41 77  0 0 0  0 0 0  0 0 0  0 0 0
0 0 0  0 0 0  0 0 0  0 0 0  0 0 0  0 0 0
0 0 0  0 0 0  0 0 0  0 0 0  0 0 0  0 0 0
0 0 0  0 0 0  0 0 0  4 10 18  29 71 134  33 81 153
33 81 153  33 81 153  33 81 153  33 81 153  33 81 153  33 81 153
33 81 153  33 81 153  33 81 153  33 81 153  33 81 153  33 81 153
33 81 153  33 81 153  33 81 153  33 81 153  33 81 153  33 81 153
33 81 153  33 81 153  33 81 153  33 81 153  33 81 153  33 81 153
33 81 153  33 81 153  33 81 153  33 81 153  33 81 153  33 81 153
33 81 153  33 81 153  33 81 153  33 81 153  33 81 153  33 81 153
33 81 153  33 81 153  33 81 153  33 81 153  33 81 153  33 81 153
33 81 153  33 81 153  33 81 153  33 81 153  33 81 153  33 81 153
33 81 153  33 81 153  33 81 153  33 81 153  33 81 153  33 81 153
33 81 153  33 81 153  33 81 153  33 81 153  33 81 153  33 81 153
33 81 153  33 81 153  33 81 153  33 81 153  33 81 153  33 81 153
33 81 153  33 81 153  33 81 153  33 81 153  33 81 153  32 80 151
10 26 49  0 0 0  0 0 0  0 0 0  0 0 0  0 0 0
0 0 0  0 0 0  0 0 0  0 0 0  0 0 0  0 0 0
0 0 0  0 0 0  0 0 0  0 0 0  0 0 0  0 0 0
0 0 0  0 0 0  0 0 0  0 0 0  0 0 0  0 0 0
0 0 0  1 3 5  8 19 37  9 23 43  9 22 42  9 22 42
9 22 42  9 22 42  9 22 42  9 22 42  9 22 42  9 22 42
9 22 42  9 22 42  9 22 42  9 22 42  9 22 42  9 22 42
9 22 42  9 22 42  9 22 42  9 22 42  9 22 42  9 22 42
9 22 42  9 22 42  9 22 42  9 22 42  9 22 42  9 22 41
13 33 62  31 77 145  33 81 153  33 81 153  33 81 153  33 81 153
33 81 153  33 81 153  33 81 153  33 81 153  33 81 153  33 81 153
33 80 151  11 27 50  0 0 0  0 0 0  0 0 0  0 0 0
0 0 0  0 0 0  0 0 0  0 0 0  0 0 0  0 0 0
0 0 0  0 0 0  0 0 0  0 0 0  0 0 0  0 0 0
0 0 0  0 0 0  0 0 0  0 0 0
0 0 0  0 0 0  0 0 0  0 0 0  0 0 0  0 0 0
19 48 90  33 81 153  33 81 153  33 81 153  33 81 153  33 81 153
33 81 153  33 81 153  33 81 153  33 81 153  33 81 153  33 81 153
33 81 153  33 81 153  33 81 153  33 81 153  33 81 153  33 81 153
33 81 153  33 81 153  33 81 153  33 81 153  33 81 153  33 81 153
33 81 153  33 81 153  33 81 153  33 81 153  33 81 153  33 81 153
28 68 128  3 8 16  0 0 0  0 0 0  0 0 0  0 0 0
0 0 0  0 0 0  0 0 0  0 0 0  0 0 0  0 0 0
0 0 0  0 0 0  0 0 0  0 0 0  0 0 0  0 0 0
0 0 0  0 0 0  0 0 0  0 0 0  0 0 0  0 0 0
0 0 0  0 0 0  0 0 0  0 0 0  0 0 0  0 0 0
0 0 0  0 0 0  0 0 0  0 0 0  0 0 0  0 0 0
0 0 0  0 0 0  0 0 0  0 0 0  0 0 0  0 0 0
0 0 0  11 27 50  32 79 149  33 81 153  33 81 153  33 81 153
33 81 153  33 81 153  33 81 153  33 81 153  33 81 153  33 81 153
33 81 153  33 81 153  33 81 153  33 81 153  33 81 153  33 81 153
33 81 153  33 81 153  33 81 153  33 81 153  33 81 153  33 81 153
33 81 153  33 81 153  33 81 153  33 81 153  33 81 153  33 81 153
33 81 153  33 81 153  20 50 94  0 0 0  0 0 0  0 0 0
0 0 0  0 0 0  0 0 0  0 0 0  0 0 0  0 0 0
0 0 0  0 0 0  0 0 0  0 0 0  0 0 0  0 0 0
0 0 0  0 0 0  0 0 0  1 2 4  4 11 20  11 26 49
19 47 88  27 66 125  32 78 148  33 81 153  33 81 153  33 81 153
33 81 153  33 81 153  33 81 153  33 81 153  33 81 153  33 81 153
33 81 153  33 81 153  33 81 153  33 81 153  33 81 153  33 81 153
33 81 153  33 81 153  33 81 153  33 81 153  33 81 153  33 81 153
33 81 153  33 81 153  33 81 153  33 81 153  33 81 153  33 81 153
33 81 153  33 81 153  33 81 153  33 81 153  33 81 153  33 81 153
33 81 153  33 81 153  25 62 117  3 8 14  0 0 0  0 0 0
0 0 0  0 0 0  8 18 35  30 73 138  33 81 153  33 81 153
33 81 153  33 81 153  33 81 153  33 81 153  33 81 153  33 81 153
33 81 153  33 81 153  33 81 153  33 81 153  33 81 153  33 81 153
33 81 153  33 81 153  33 81 153  33 81 153  33 81 153  33 81 153
33 81 153  33 81 153  33 81 153  33 81 153  33 81 153  33 81 153
33 81 153  33 81 153  33 81 153  33 81 153  33 81 153  33 81 153
33 81 153  33 81 153  33 81 153  31 77 145  26 63 119  17 43 81
9 23 44  4 9 17  1 1 2  0 0 0  0 0 0  0 0 0
0 0 0  0 0 0  0 0 0  0 0 0  0 0 0  0 0 0
0 0 0  0 0 0  0 0 0  0 0 0  0 0 0  0 0 0
0 0 0  0 0 0  0 0 0  0 0 0  0 0 0  0 0 0
0 0 0  0 0 0  0 0 0  7 4 0  95 32 12  220 72 27
220 72 27  222 79 28  222 79 28  222 79 28  223 91 29  223 91 29
223 91 29  224 95 29  224 95 29  224 99 29  224 99 29  225 105 30
225 105 30  225 105 30  225 105 30  225 105 30  226 111 30  224 99 29
100 78 15  7 4 0  0 0 0  0 0 0  0 0 0  0 0 0
0 0 0  0 0 0  0 0 0  0 0 0  0 0 0  0 0 0
0 0 0  0 0 0  0 0 0  0 0 0  0 0 0  0 0 0
2 5 9  26 64 121  33 81 153  33 81 153  33 81 153  33 81 153
33 81 153  33 81 153  33 81 153  33 81 153  33 81 153  33 81 153
33 81 153  33 81 153  33 81 153  33 81 153  33 81 153  33 81 153
33 81 153  33 81 153  33 81 153  33 81 153  33 81 153  29 72 136
4 11 20  0 0 0  0 0 0  0 0 0  0 0 0  0 0 0
0 0 0  0 0 0  0 0 0  0 0 0  0 0 0  0 0 0
0 0 0  0 0 0  0 0 0  0 0 0  0 0 0  0 0 0
0 0 0  0 0 0  0 0 0  0 0 0  0 0 0  0 0 0
0 0 0  0 0 0  0 0 0  0 0 0  0 0 0  0 0 0
0 0 0  0 0 0  0 0 0  0 0 0  0 0 0  0 0 0
0 0 0  0 0 0  0 0 0  0 0 0  0 0 0  0 0 0
0 0 0  0 0 0  0 0 0  0 0 0  0 0 0  0 0 0
0 0 0  0 0 0  0 0 0  10 24 46  32 79 150  33 81 153
33 81 153  33 81 153  33 81 153  33 81 153  33 81 153  33 81 153
33 81 153  33 81 153  33 81 153  33 81 153  33 81 153  33 81 153
33 81 153  33 81 153  33 81 153  33 81 153  33 81 153  33 81 153
33 81 153  33 81 153  33 81 153  33 81 153  30 74 140  5 13 25
0 0 0  0 0 0  0 0 0  0 0 0  0 0 0  0 0 0
0 0 0  0 0 0  0 0 0  0 0 0  0 0 0  0 0 0
0 0 0  0 0 0  0 0 0  0 0 0  0 0 0  0 0 0
0 0 0  0 0 0  0 0 0  0 0 0  0 0 0  0 0 0
0 0 0  0 0 0  0 0 0  0 0 0  0 0 0  0 0 0
6 15 28  31 75 142  33 81 153  33 81 153  33 81 153  33 81 153
33 81 153  33 81 153  33 81 153  33 81 153  33 81 153  33 81 153
33 81 153  33 81 153  33 81 153  33 81 153  33 81 153  33 81 153
33 81 153  33 81 153  33 81 153  33 81 153  33 81 153  33 81 153
33 81 153  33 81 153  33 81 153  33 81 153  33 81 153  33 81 153
33 81 153  33 81 153  33 81 153  33 81 153  33 81 153  33 81 153
33 81 153  33 81 153  33 81 153  33 81 153  33 81 153  33 81 153
33 81 153  33 81 153  33 81 153  33 81 153  33 81 153  33 81 153
33 81 153  33 81 153  33 81 153  33 81 153  33 81 153  33 81 153
33 81 153  33 81 153  33 81 153  33 81 153  33 81 153  33 81 153
33 81 153  33 81 153  33 81 153  33 81 153  33 81 153  33 81 153
33 81 153  33 81 153  33 81 153  33 81 153  33 81 153  33 81 153
33 81 153  33 81 153  33 81 153  29 71 135  4 10 19  0 0 0
0 0 0  0 0 0  0 0 0  0 0 0  0 0 0  0 0 0
0 0 0  0 0 0  0 0 0  0 0 0  0 0 0  0 0 0
0 0 0  0 0 0  0 0 0  0 0 0  0 0 0  0 0 0
0 0 0  0 0 0  3 8 15  28 68 129  33 81 153  33 81 153
33 81 153  33 81 153  33 81 153  33 81 153  33 81 153  33 81 153
33 81 153  33 81 153  33 81 153  16 39 74  0 0 0  0 0 0
0 0 0  0 0 0  0 0 0  0 0 0  3 8 16  28 70 131
33 81 153  33 81 153  33 81 153  33 81 153  33 81 153  33 81 153
33 81 153  33 81 153  33 81 153  33 81 153  33 81 153  32 80 151
10 24 46  0 0 0  0 0 0  0 0 0  0 0 0  0 0 0
4 9 17  28 70 131  33 81 153  33 81 153  33 81 153  33 81 153
33 81 153  33 81 153  33 81 153  33 81 153  33 81 153  33 81 153
33 81 153  24 58 110  1 2 4  0 0 0  0 0 0  0 0 0
0 0 0  0 0 0  0 0 0  0 0 0  0 0 0  0 0 0
0 0 0  0 0 0  0 0 0  0 0 0  0 0 0  0 0 0
0 0 0  0 0 0  0 0 0  4 10 18  29 71 134  33 81 153
33 81 153  33 81 153  33 81 153  33 81 153  33 81 153  33 81 153
33 81 153  33 81 153  33 81 153  33 81 153  33 81 153  33 81 153
33 81 153  33 81 153  33 81 153  33 81 153  33 81 153  33 81 153
33 81 153  33 81 153  33 81 153  33 81 153  33 81 153  33 81 153
33 81 153  33 81 153  33 81 153  33 81 153  33 81 153  33 81 153
33 81 153  33 81 153  33 81 153  33 81 153  33 81 153  33 81 153
33 81 153  33 81 153  33 81 153  33 81 153  33 81 153  33 81 153
33 81 153  33 81 153  33 81 153  33 81 153  33 81 153  33 81 153
33 81 153  33 81 153  33 81 153  33 81 153  33 81 153  33 81 153
33 81 153  33 81 153  33 81 153  33 81 153  33 81 153  33 81 153
33 81 153  33 81 153  33 81 153  33 81 153  33 81 153  33 81 153
33 81 153  33 81 153  33 81 153  33 81 153  33 81 153  32 80 151
10 26 49  0 0 0  0 0 0  0 0 0  0 0 0  0 0 0
0 0 0  0 0 0  0 0 0  0 0 0  0 0 0  0 0 0
0 0 0  0 0 0  0 0 0  0 0 0  0 0 0  0 0 0
0 0 0  0 0 0  0 0 0  0 0 0  0 0 0  0 0 0
0 0 0  0 0 0  0 0 0  0 0 0  0 0 0  0 0 0
0 0 0  0 0 0  0 0 0  0 0 0  0 0 0  0 0 0
0 0 0  0 0 0  0 0 0  0 0 0  0 0 0  0 0 0
0 0 0  0 0 0  0 0 0  0 0 0  0 0 0  0 0 0
0 0 0  0 0 0  0 0 0  0 0 0  0 0 0  0 0 0
6 14 26  31 75 142  33 81 153  33 81 153  33 81 153  33 81 153
33 81 153  33 81 153  33 81 153  33 81 153  33 81 153  33 81 153
33 80 151  11 27 50  0 0 0  0 0 0  0 0 0  0 0 0
0 0 0  0 0 0  0 0 0  0 0 0  0 0 0  0 0 0
0 0 0  0 0 0  0 0 0  0 0 0  0 0 0  0 0 0
0 0 0  0 0 0  0 0 0  0 0 0
0 0 0  0 0 0  0 0 0  0 0 0  0 0 0  0 1 2
22 54 102  33 81 153  33 81 153  33 81 153  33 81 153  33 81 153
33 81 153  33 81 153  33 81 153  33 81 153  33 81 153  33 81 153
33 81 153  33 81 153  33 81 153  33 81 153  33 81 153  33 81 153
33 81 153  33 81 153  33 81 153  33 81 153  33 81 153  33 81 153
33 81 153  33 81 153  33 81 153  33 81 153  33 81 153  33 81 153
33 80 151  12 30 56  0 0 0  0 0 0  0 0 0  0 0 0
0 0 0  0 0 0  0 0 0  0 0 0  0 0 0  0 0 0
0 0 0  0 0 0  0 0 0  0 0 0  0 0 0  0 0 0
0 0 0  0 0 0  0 0 0  0 0 0  0 0 0  0 0 0
0 0 0  0 0 0  0 0 0  0 0 0  0 0 0  0 0 0
0 0 0  0 0 0  0 0 0  0 0 0  0 0 0  0 0 0
0 0 0  0 0 0  0 0 0  0 0 0  0 0 0  0 0 0
1 2 3  22 54 101  33 81 153  33 81 153  33 81 153  33 81 153
33 81 153  33 81 153  33 81 153  33 81 153  33 81 153  33 81 153
33 81 153  33 81 153  33 81 153  33 81 153  33 81 153  33 81 153
33 81 153  33 81 153  33 81 153  33 81 153  33 81 153  33 81 153
33 81 153  33 81 153  33 81 153  33 81 153  33 81 153  33 81 153
33 81 153  33 81 153  23 56 106  1 1 2  0 0 0  0 0 0
0 0 0  0 0 0  0 0 0  0 0 0  0 0 0  0 0 0
0 0 0  0 0 0  0 0 0  0 0 0  0 0 0  0 0 0
0 0 0  0 0 0  0 0 0  0 0 0  0 0 0  0 0 0
0 0 0  3 7 13  10 24 44  20 48 91  29 70 133  33 81 152
33 81 153  33 81 153  33 81 153  33 81 153  33 81 153  33 81 153
33 81 153  33 81 153  33 81 153  33 81 153  33 81 153  33 81 153
33 81 153  33 81 153  33 81 153  33 81 153  33 81 153  33 81 153
33 81 153  33 81 153  33 81 153  33 81 153  33 81 153  33 81 153
33 81 153  33 81 153  33 81 153  33 81 153  33 81 153  33 81 153
33 81 153  33 81 153  33 81 153  18 44 83  0 1 1  0 0 0
0 0 0  2 6 11  24 59 112  33 81 153  33 81 153  33 81 153
33 81 153  33 81 153  33 81 153  33 81 153  33 81 153  33 81 153
33 81 153  33 81 153  33 81 153  33 81 153  33 81 153  33 81 153
33 81 153  33 81 153  33 81 153  33 81 153  33 81 153  33 81 153
33 81 153  33 81 153  33 81 153  33 81 153  33 81 153  33 81 153
33 81 153  33 81 153  33 81 153  33 81 153  33 81 153  33 81 153
32 80 151  27 67 126  18 44 82  8 20 38  2 5 10  0 0 0
0 0 0  0 0 0  0 0 0  0 0 0  0 0 0  0 0 0
0 0 0  0 0 0  0 0 0  0 0 0  0 0 0  0 0 0
0 0 0  0 0 0  0 0 0  0 0 0  0 0 0  0 0 0
0 0 0  0 0 0  0 0 0  0 0 0  0 0 0  0 0 0
0 0 0  0 0 0  0 0 0  0 0 0  1 0 0  48 29 6
172 75 22  220 72 27  220 72 27  222 79 28  222 79 28  222 79 28
223 91 29  223 91 29  223 91 29  224 95 29  224 95 29  224 99 29
224 99 29  224 99 29  224 99 29  225 105 30  172 75 22  48 29 6
2 1 0  0 0 0  0 0 0  0 0 0  0 0 0  0 0 0
0 0 0  0 0 0  0 0 0  0 0 0  0 0 0  0 0 0
0 0 0  0 0 0  0 0 0  0 0 0  0 0 0  0 0 0
2 5 9  26 64 121  33 81 153  33 81 153  33 81 153  33 81 153
33 81 153  33 81 153  33 81 153  33 81 153  33 81 153  33 81 153
33 81 153  33 81 153  33 81 153  33 81 153  33 81 153  33 81 153
33 81 153  33 81 153  33 81 153  33 81 153  33 81 153  29 72 136
4 11 20  0 0 0  0 0 0  0 0 0  0 0 0  0 0 0
0 0 0  0 0 0  0 0 0  0 0 0  0 0 0  0 0 0
0 0 0  0 0 0  0 0 0  0 0 0  0 0 0  0 0 0
0 0 0  0 0 0  0 0 0  0 0 0  0 0 0  0 0 0
0 0 0  0 0 0  0 0 0  0 0 0  0 0 0  0 0 0
0 0 0  0 0 0  0 0 0  0 0 0  0 0 0  0 0 0
0 0 0  0 0 0  0 0 0  0 0 0  0 0 0  0 0 0
0 0 0  0 0 0  0 0 0  0 0 0  0 0 0  0 0 0
0 0 0  0 0 0  0 0 0  9 22 41  32 78 148  33 81 153
33 81 153  33 81 153  33 81 153  33 81 153  33 81 153  33 81 153
33 81 153  33 81 153  33 81 153  33 81 153  33 81 153  33 81 153
33 81 153  33 81 153  33 81 153  33 81 153  33 81 153  33 81 153
33 81 153  33 81 153  33 81 153  33 81 153  30 73 137  5 11 22
0 0 0  0 0 0  0 0 0  0 0 0  0 0 0  0 0 0
0 0 0  0 0 0  0 0 0  0 0 0  0 0 0  0 0 0
0 0 0  0 0 0  0 0 0  0 0 0  0 0 0  0 0 0
0 0 0  0 0 0  0 0 0  0 0 0  0 0 0  0 0 0
0 0 0  0 0 0  0 0 0  0 0 0  0 0 0  0 0 0
6 15 28  31 75 142  33 81 153  33 81 153  33 81 153  33 81 153
33 81 153  33 81 153  33 81 153  33 81 153  33 81 153  33 81 153
33 81 153  33 81 153  33 81 153  33 81 153  33 81 153  33 81 153
33 81 153  33 81 153  33 81 153  33 81 153  33 81 153  33 81 153
33 81 153  33 81 153  33 81 153  33 81 153  33 81 153  33 81 153
33 81 153  33 81 153  33 81 153  33 81 153  33 81 153  33 81 153
33 81 153  33 81 153  33 81 153  33 81 153  33 81 153  33 81 153
33 81 153  33 81 153  33 81 153  33 81 153  33 81 153  33 81 153
33 81 153  33 81 153  33 81 153  33 81 153  33 81 153  33 81 153
33 81 153  33 81 153  33 81 153  33 81 153  33 81 153  33 81 153
33 81 153  33 81 153  33 81 153  33 81 153  33 81 153  33 81 153
33 81 153  33 81 153  33 81 153  33 81 153  33 81 153  33 81 153
33 81 153  33 81 153  33 81 153  29 71 135  4 10 19  0 0 0
0 0 0  0 0 0  0 0 0  0 0 0  0 0 0  0 0 0
0 0 0  0 0 0  0 0 0  0 0 0  0 0 0  0 0 0
0 0 0  0 0 0  0 0 0  0 0 0  0 0 0  0 0 0
0 0 0  0 0 0  9 22 41  32 78 148  33 81 153  33 81 153
33 81 153  33 81 153  33 81 153  33 81 153  33 81 153  33 81 153
33 81 153  33 81 153  32 78 148  9 22 41  0 0 0  0 0 0
0 0 0  0 0 0  0 0 0  0 0 0  3 8 16  28 70 131
33 81 153  33 81 153  33 81 153  33 81 153  33 81 153  33 81 153
33 81 153  33 81 153  33 81 153  33 81 153  33 81 153  32 80 151
10 24 46  0 0 0  0 0 0  0 0 0  0 0 0  0 0 0
1 1 2  22 54 103  33 81 153  33 81 153  33 81 153  33 81 153
33 81 153  33 81 153  33 81 153  33 81 153  33 81 153  33 81 153
33 81 153  29 71 134  4 10 19  0 0 0  0 0 0  0 0 0
0 0 0  0 0 0  0 0 0  0 0 0  0 0 0  0 0 0
0 0 0  0 0 0  0 0 0  0 0 0  0 0 0  0 0 0
0 0 0  0 0 0  0 0 0  4 10 18  29 71 134  33 81 153
33 81 153  33 81 153  33 81 153  33 81 153  33 81 153  33 81 153
33 81 153  33 81 153  33 81 153  33 81 153  33 81 153  33 81 153
33 81 153  33 81 153  33 81 153  33 81 153  33 81 153  33 81 153
33 81 153  33 81 153  33 81 153  33 81 153  33 81 153  33 81 153
33 81 153  33 81 153  33 81 153  33 81 153  33 81 153  33 81 153
33 81 153  33 81 153  33 81 153  33 81 153  33 81 153  33 81 153
33 81 153  33 81 153  33 81 153  33 81 153  33 81 153  33 81 153
33 81 153  33 81 153  33 81 153  33 81 153  33 81 153  33 81 153
33 81 153  33 81 153  33 81 153  33 81 153  33 81 153  33 81 153
33 81 153  33 81 153  33 81 153  33 81 153  33 81 153  33 81 153
33 81 153  33 81 153  33 81 153  33 81 153  33 81 153  33 81 153
33 81 153  33 81 153  33 81 153  33 81 153  33 81 153  32 80 151
10 26 49  0 0 0  0 0 0  0 0 0  0 0 0  0 0 0
0 0 0  0 0 0  0 0 0  0 0 0  0 0 0  0 0 0
0 0 0  0 0 0  0 0 0  0 0 0  0 0 0  0 0 0
0 0 0  0 0 0  0 0 0  0 0 0  0 0 0  0 0 0
0 0 0  0 0 0  0 0 0  0 0 0  0 0 0  0 0 0
0 0 0  0 0 0  0 0 0  0 0 0  0 0 0  0 0 0
0 0 0  0 0 0  0 0 0  0 0 0  0 0 0  0 0 0
0 0 0  0 0 0  0 0 0  0 0 0  0 0 0  0 0 0
0 0 0  0 0 0  0 0 0  0 0 0  0 0 0  0 0 0
6 15 28  31 75 142  33 81 153  33 81 153  33 81 153  33 81 153
33 81 153  33 81 153  33 81 153  33 81 153  33 81 153  33 81 153
33 80 151  11 27 50  0 0 0  0 0 0  0 0 0  0 0 0
0 0 0  0 0 0  0 0 0  0 0 0  0 0 0  0 0 0
0 0 0  0 0 0  0 0 0  0 0 0  0 0 0  0 0 0
0 0 0  0 0 0  0 0 0  0 0 0
0 0 0  0 0 0  0 0 0  0 0 0  0 0 0  1 3 5
24 60 113  33 81 153  33 81 153  33 81 153  33 81 153  33 81 153
33 81 153  33 81 153  33 81 153  33 81 153  33 81 153  33 81 153
33 81 153  33 81 153  33 81 153  33 81 153  33 81 153  33 81 153
33 81 153  33 81 153  33 81 153  33 81 153  33 81 153  33 81 153
33 81 153  33 81 153  33 81 153  33 81 153  33 81 153  33 81 153
33 81 153  24 58 110  1 3 6  0 0 0  0 0 0  0 0 0
0 0 0  0 0 0  0 0 0  0 0 0  0 0 0  0 0 0
0 0 0  0 0 0  0 0 0  0 0 0  0 0 0  0 0 0
0 0 0  0 0 0  0 0 0  0 0 0  0 0 0  0 0 0
0 0 0  0 0 0  0 0 0  0 0 0  0 0 0  0 0 0
0 0 0  0 0 0  0 0 0  0 0 0  0 0 0  0 0 0
0 0 0  0 0 0  0 0 0  0 0 0  0 0 0  0 0 0
7 17 31  30 74 140  33 81 153  33 81 153  33 81 153  33 81 153
33 81 153  33 81 153  33 81 153  33 81 153  33 81 153  33 81 153
33 81 153  33 81 153  33 81 153  33 81 153  33 81 153  33 81 153
33 81 153  33 81 153  33 81 153  33 81 153  33 81 153  33 81 153
33 81 153  33 81 153  33 81 153  33 81 153  33 81 153  33 81 153
33 81 153  33 81 153  25 62 117  1 3 7  0 0 0  0 0 0
0 0 0  0 0 0  0 0 0  0 0 0  0 0 0  0 0 0
0 0 0  0 0 0  0 0 0  0 0 0  0 0 0  0 0 0
0 0 0  0 0 0  0 0 0  0 0 0  0 0 0  0 0 0
0 0 0  0 0 0  0 0 0  0 0 1  4 10 20  14 34 64
25 62 117  32 79 149  33 81 153  33 81 153  33 81 153  33 81 153
33 81 153  33 81 153  33 81 153  33 81 153  33 81 153  33 81 153
33 81 153  33 81 153  33 81 153  33 81 153  33 81 153  33 81 153
33 81 153  33 81 153  33 81 153  33 81 153  33 81 153  33 81 153
33 81 153  33 81 153  33 81 153  33 81 153  33 81 153  33 81 153
33 81 153  33 81 153  33 81 153  31 76 144  9 23 43  0 0 0
0 0 0  16 39 74  33 81 152  33 81 153  33 81 153  33 81 153
33 81 153  33 81 153  33 81 153  33 81 153  33 81 153  33 81 153
33 81 153  33 81 153  33 81 153  33 81 153  33 81 153  33 81 153
33 81 153  33 81 153  33 81 153  33 81 153  33 81 153  33 81 153
33 81 153  33 81 153  33 81 153  33 81 153  33 81 153  33 81 153
33 81 153  33 81 153  33 81 153  33 81 153  31 77 145  23 57 108
12 29 55  3 8 14  0 0 0  0 0 0  0 0 0  0 0 0
0 0 0  0 0 0  0 0 0  0 0 0  0 0 0  0 0 0
0 0 0  0 0 0  0 0 0  0 0 0  0 0 0  0 0 0
0 0 0  0 0 0  0 0 0  0 0 0  0 0 0  0 0 0
0 0 0  0 0 0  0 0 0  0 0 0  0 0 0  0 0 0
0 0 0  0 0 0  0 0 0  0 0 0  0 0 0  0 0 0
18 11 2  95 32 12  172 75 22  220 72 27  222 79 28  222 79 28
222 79 28  222 79 28  223 91 29  223 91 29  223 91 29  223 91 29
224 95 29  221 93 28  172 75 22  95 32 12  18 11 2  0 0 0
0 0 0  0 0 0  0 0 0  0 0 0  0 0 0  0 0 0
0 0 0  0 0 0  0 0 0  0 0 0  0 0 0  0 0 0
0 0 0  0 0 0  0 0 0  0 0 0  0 0 0  0 0 0
2 5 9  26 64 121  33 81 153  33 81 153  33 81 153  33 81 153
33 81 153  33 81 153  33 81 153  33 81 153  33 81 153  33 81 153
33 81 153  33 81 153  33 81 153  33 81 153  33 81 153  33 81 153
33 81 153  33 81 153  33 81 153  33 81 153  33 81 153  29 72 136
4 11 20  0 0 0  0 0 0  0 0 0  0 0 0  0 0 0
0 0 0  0 0 0  0 0 0  0 0 0  0 0 0  0 0 0
0 0 0  0 0 0  0 0 0  0 0 0  0 0 0  0 0 0
0 0 0  0 0 0  0 0 0  0 0 0  0 0 0  0 0 0
0 0 0  0 0 0  0 0 0  0 0 0  0 0 0  0 0 0
0 0 0  0 0 0  0 0 0  0 0 0  0 0 0  0 0 0
0 0 0  0 0 0  0 0 0  0 0 0  0 0 0  0 0 0
0 0 0  0 0 0  0 0 0  0 0 0  0 0 0  0 0 0
0 0 0  0 0 0  0 0 0  9 22 41  32 79 149  33 81 153
33 81 153  33 81 153  33 81 153  33 81 153  33 81 153  33 81 153
33 81 153  33 81 153  33 81 153  33 81 153  33 81 153  33 81 153
33 81 153  33 81 153  33 81 153  33 81 153  33 81 153  33 81 153
33 81 153  33 81 153  33 81 153  33 81 153  29 70 133  4 9 17
0 0 0  0 0 0  0 0 0  0 0 0  0 0 0  0 0 0
0 0 0  0 0 0  0 0 0  0 0 0  0 0 0  0 0 0
0 0 0  0 0 0  0 0 0  0 0 0  0 0 0  0 0 0
0 0 0  0 0 0  0 0 0  0 0 0  0 0 0  0 0 0
0 0 0  0 0 0  0 0 0  0 0 0  0 0 0  0 0 0
6 15 28  31 75 142  33 81 153  33 81 153  33 81 153  33 81 153
33 81 153  33 81 153  33 81 153  33 81 153  33 81 153  33 81 153
33 81 153  33 81 153  33 81 153  33 81 153  33 81 153  33 81 153
33 81 153  33 81 153  33 81 153  33 81 153  33 81 153  33 81 153
33 81 153  33 81 153  33 81 153  33 81 153  33 81 153  33 81 153
33 81 153  33 81 153  33 81 153  33 81 153  33 81 153  33 81 153
33 81 153  33 81 153  33 81 153  33 81 153  33 81 153  33 81 153
33 81 153  33 81 153  33 81 153  33 81 153  33 81 153  33 81 153
33 81 153  33 81 153  33 81 153  33 81 153  33 81 153  33 81 153
33 81 153  33 81 153  33 81 153  33 81 153  33 81 153  33 81 153
33 81 153  33 81 153  33 81 153  33 81 153  33 81 153  33 81 153
33 81 153  33 81 153  33 81 153  33 81 153  33 81 153  33 81 153
33 81 153  33 81 153  33 81 153  29 72 136  4 10 19  0 0 0
0 0 0  0 0 0  0 0 0  0 0 0  0 0 0  0 0 0
0 0 0  0 0 0  0 0 0  0 0 0  0 0 0  0 0 0
0 0 0  0 0 0  0 0 0  0 0 0  0 0 0  0 0 0
0 0 0  0 0 0  16 40 75  33 81 153  33 81 153  33 81 153
33 81 153  33 81 153  33 81 153  33 81 153  33 81 153  33 81 153
33 81 153  33 81 153  28 69 130  3 8 16  0 0 0  0 0 0
0 0 0  0 0 0  0 0 0  0 0 0  3 8 16  28 70 131
33 81 153  33 81 153  33 81 153  33 81 153  33 81 153  33 81 153
33 81 153  33 81 153  33 81 153  33 81 153  33 81 153  32 80 151
10 24 46  0 0 0  0 0 0  0 0 0  0 0 0  0 0 0
0 0 0  14 35 67  33 81 153  33 81 153  33 81 153  33 81 153
33 81 153  33 81 153  33 81 153  33 81 153  33 81 153  33 81 153
33 81 153  32 79 149  9 23 44  0 0 0  0 0 0  0 0 0
0 0 0  0 0 0  0 0 0  0 0 0  0 0 0  0 0 0
0 0 0  0 0 0  0 0 0  0 0 0  0 0 0  0 0 0
0 0 0  0 0 0  0 0 0  4 10 18  29 71 134  33 81 153
33 81 153  33 81 153  33 81 153  33 81 153  33 81 153  33 81 153
33 81 153  33 81 153  33 81 153  33 81 153  24 60 113  18 44 82
18 44 83  18 44 83  18 44 83  18 44 83  18 44 83  18 44 83
18 44 83  18 44 83  18 44 83  18 44 83  18 44 83  18 44 83
18 44 83  18 44 83  18 44 83  18 44 82  25 61 115  33 81 153
33 81 153  33 81 153  33 81 153  33 81 153  33 81 153  33 81 153
33 81 153  33 81 153  33 81 153  33 81 153  33 81 153  24 58 110
18 44 82  18 44 83  18 44 83  18 44 83  18 44 83  18 44 83
18 44 83  18 44 83  18 44 83  18 44 83  18 44 83  18 44 83
18 44 83  18 44 83  18 44 83  18 44 83  18 44 82  21 51 97
32 78 148  33 81 153  33 81 153  33 81 153  33 81 153  33 81 153
33 81 153  33 81 153  33 81 153  33 81 153  33 81 153  32 80 151
10 26 49  0 0 0  0 0 0  0 0 0  0 0 0  0 0 0
0 0 0  0 0 0  0 0 0  0 0 0  0 0 0  0 0 0
0 0 0  0 0 0  0 0 0  0 0 0  0 0 0  0 0 0
0 0 0  0 0 0  0 0 0  0 0 0  0 0 0  0 0 0
0 0 0  0 0 0  0 0 0  0 0 0  0 0 0  0 0 0
0 0 0  0 0 0  0 0 0  0 0 0  0 0 0  0 0 0
0 0 0  0 0 0  0 0 0  0 0 0  0 0 0  0 0 0
0 0 0  0 0 0  0 0 0  0 0 0  0 0 0  0 0 0
0 0 0  0 0 0  0 0 0  0 0 0  0 0 0  0 0 0
6 15 28  31 75 142  33 81 153  33 81 153  33 81 153  33 81 153
33 81 153  33 81 153  33 81 153  33 81 153  33 81 153  33 81 153
33 80 151  11 27 50  0 0 0  0 0 0  0 0 0  0 0 0
0 0 0  0 0 0  0 0 0  0 0 0  0 0 0  0 0 0
0 0 0  0 0 0  0 0 0  0 0 0  0 0 0  0 0 0
0 0 0  0 0 0  0 0 0  0 0 0
0 0 0  0 0 0  0 0 0  0 0 0  0 0 0  2 5 10
27 65 123  33 81 153  33 81 153  33 81 153  33 81 153  33 81 153
33 81 153  33 81 153  33 81 153  33 81 153  33 81 153  33 81 153
33 81 153  33 81 153  33 81 153  33 81 153  33 81 153  33 81 153
33 81 153  33 81 153  33 81 153  33 81 153  33 81 153  33 81 153
33 81 153  33 81 153  33 81 153  33 81 153  33 81 153  33 81 153
33 81 153  31 77 146  9 21 40  0 0 0  0 0 0  0 0 0
0 0 0  0 0 0  0 0 0  0 0 0  0 0 0  0 0 0
0 0 0  0 0 0  0 0 0  0 0 0  0 0 0  0 0 0
0 0 0  0 0 0  0 0 0  0 0 0  0 0 0  0 0 0
0 0 0  0 0 0  0 0 0  0 0 0  0 0 0  0 0 0
0 0 0  0 0 0  0 0 0  0 0 0  0 0 0  0 0 0
0 0 0  0 0 0  0 0 0  0 0 0  0 0 0  0 0 0
18 44 83  33 81 153  33 81 153  33 81 153  33 81 153  33 81 153
33 81 153  33 81 153  33 81 153  33 81 153  33 81 153  33 81 153
33 81 153  33 81 153  33 81 153  33 81 153  33 81 153  33 81 153
33 81 153  33 81 153  33 81 153  33 81 153  33 81 153  33 81 153
33 81 153  33 81 153  33 81 153  33 81 153  33 81 153  33 81 153
33 81 153  33 81 153  27 67 127  3 6 12  0 0 0  0 0 0
0 0 0  0 0 0  0 0 0  0 0 0  0 0 0  0 0 0
0 0 0  0 0 0  0 0 0  0 0 0  0 0 0  0 0 0
0 0 0  0 0 0  0 0 0  0 0 0  0 0 0  0 0 0
0 0 0  0 0 0  0 0 0  0 0 0  0 0 0  0 0 0
2 5 10  11 27 50  24 58 110  32 78 148  33 81 153  33 81 153
33 81 153  33 81 153  33 81 153  33 81 153  33 81 153  33 81 153
33 81 153  33 81 153  33 81 153  33 81 153  33 81 153  33 81 153
33 81 153  33 81 153  33 81 153  33 81 153  33 81 153  33 81 153
33 81 153  33 81 153  33 81 153  33 81 153  33 81 153  33 81 153
33 81 153  33 81 153  33 81 153  33 81 153  25 62 117  2 6 11
7 17 32  30 73 139  33 81 153  33 81 153  33 81 153  33 81 153
33 81 153  33 81 153  33 81 153  33 81 153  33 81 153  33 81 153
33 81 153  33 81 153  33 81 153  33 81 153  33 81 153  33 81 153
33 81 153  33 81 153  33 81 153  33 81 153  33 81 153  33 81 153
33 81 153  33 81 153  33 81 153  33 81 153  33 81 153  33 81 153
33 81 153  33 81 153  31 76 143  21 52 99  9 21 40  1 3 5
0 0 0  0 0 0  0 0 0  0 0 0  0 0 0  0 0 0
0 0 0  0 0 0  0 0 0  0 0 0  0 0 0  0 0 0
0 0 0  0 0 0  0 0 0  0 0 0  0 0 0  0 0 0
0 0 0  0 0 0  0 0 0  0 0 0  0 0 0  0 0 0
0 0 0  0 0 0  0 0 0  0 0 0  0 0 0  0 0 0
0 0 0  0 0 0  0 0 0  0 0 0  0 0 0  0 0 0
0 0 0  0 0 0  7 4 0  48 29 6  95 32 12  172 75 22
172 75 22  172 75 22  172 75 22  172 75 22  172 75 22  172 75 22
95 32 12  48 29 6  18 11 2  0 0 0  0 0 0  0 0 0
0 0 0  0 0 0  0 0 0  0 0 0  0 0 0  0 0 0
0 0 0  0 0 0  0 0 0  0 0 0  0 0 0  0 0 0
0 0 0  0 0 0  0 0 0  0 0 0  0 0 0  0 0 0
2 5 9  26 64 121  33 81 153  33 81 153  33 81 153  33 81 153
33 81 153  33 81 153  33 81 153  33 81 153  33 81 153  33 81 153
33 81 153  33 81 153  33 81 153  33 81 153  33 81 153  33 81 153
33 81 153  33 81 153  33 81 153  33 81 153  33 81 153  29 72 136
4 11 20  0 0 0  0 0 0  0 0 0  0 0 0  0 0 0
0 0 0  0 0 0  0 0 0  0 0 0  0 0 0  0 0 0
0 0 0  0 0 0  0 0 0  0 0 0  0 0 0  0 0 0
0 0 0  0 0 0  0 0 0  0 0 0  0 0 0  0 0 0
0 0 0  0 0 0  0 0 0  0 0 0  0 0 0  0 0 0
0 0 0  0 0 0  0 0 0  0 0 0  0 0 0  0 0 0
0 0 0  0 0 0  0 0 0  0 0 0  0 0 0  0 0 0
0 0 0  0 0 0  0 0 0  0 0 0  0 0 0  0 0 0
0 0 0  0 0 0  0 0 0  10 25 48  32 80 151  33 81 153
33 81 153  33 81 153  33 81 153  33 81 153  33 81 153  33 81 153
33 81 153  33 81 153  33 81 153  33 81 153  33 81 153  33 81 153
33 81 153  33 81 153  33 81 153  33 81 153  33 81 153  33 81 153
33 81 153  33 81 153  33 81 153  33 81 153  27 66 125  2 6 11
0 0 0  0 0 0  0 0 0  0 0 0  0 0 0  0 0 0
0 0 0  0 0 0  0 0 0  0 0 0  0 0 0  0 0 0
0 0 0  0 0 0  0 0 0  0 0 0  0 0 0  0 0 0
0 0 0  0 0 0  0 0 0  0 0 0  0 0 0  0 0 0
0 0 0  0 0 0  0 0 0  0 0 0  0 0 0  0 0 0
2 6 11  12 30 56  13 32 60  13 32 60  13 32 60  13 32 60
13 32 60  13 32 60  13 32 60  13 32 60  13 32 60  13 32 60
13 32 60  13 32 60  13 31 59  16 39 74  31 76 143  33 81 153
33 81 153  33 81 153  33 81 153  33 81 153  33 81 153  33 81 153
33 81 153  33 81 153  33 81 153  33 81 153  33 81 153  31 75 142
16 38 72  13 33 62  27 67 127  33 81 153  33 81 153  33 81 153
33 81 153  33 81 153  33 81 153  33 81 153  33 81 153  33 81 153
33 81 153  33 81 153  25 63 118  13 32 60  13 31 59  20 48 91
33 80 152  33 81 153  33 81 153  33 81 153  33 81 153  33 81 153
33 81 153  33 81 153  33 81 153  33 81 153  33 81 153  33 81 153
30 73 137  15 36 68  13 31 59  13 32 60  13 32 60  13 32 60
13 32 60  13 32 60  13 32 60  13 32 60  13 32 60  13 32 60
13 32 60  13 32 60  13 32 61  11 28 53  2 4 7  0 0 0
0 0 0  0 0 0  0 0 0  0 0 0  0 0 0  0 0 0
0 0 0  0 0 0  0 0 0  0 0 0  0 0 0  0 0 0
0 0 0  0 0 0  0 0 0  0 0 0  0 0 0  0 0 0
0 0 0  1 3 5  24 58 110  33 81 153  33 81 153  33 81 153
33 81 153  33 81 153  33 81 153  33 81 153  33 81 153  33 81 153
33 81 153  33 81 153  22 54 101  0 1 2  0 0 0  0 0 0
0 0 0  0 0 0  0 0 0  0 0 0  3 8 16  28 70 131
33 81 153  33 81 153  33 81 153  33 81 153  33 81 153  33 81 153
33 81 153  33 81 153  33 81 153  33 81 153  33 81 153  32 80 151
10 24 46  0 0 0  0 0 0  0 0 0  0 0 0  0 0 0
0 0 0  7 18 34  31 77 145  33 81 153  33 81 153  33 81 153
33 81 153  33 81 153  33 81 153  33 81 153  33 81 153  33 81 153
33 81 153  33 81 153  16 40 75  0 0 0  0 0 0  0 0 0
0 0 0  0 0 0  0 0 0  0 0 0  0 0 0  0 0 0
0 0 0  0 0 0  0 0 0  0 0 0  0 0 0  0 0 0
0 0 0  0 0 0  0 0 0  4 10 18  29 71 134  33 81 153
33 81 153  33 81 153  33 81 153  33 81 153  33 81 153  33 81 153
33 81 153  33 81 153  33 81 153  33 81 153  14 34 64  0 0 0
0 0 0  0 0 0  0 0 0  0 0 0  0 0 0  0 0 0
0 0 0  0 0 0  0 0 0  0 0 0  0 0 0  0 0 0
0 0 0  0 0 0  0 0 0  0 0 0  15 37 70  33 81 153
33 81 153  33 81 153  33 81 153  33 81 153  33 81 153  33 81 153
33 81 153  33 81 153  33 81 153  33 81 153  33 81 153  12 30 58
0 0 0  0 0 0  0 0 0  0 0 0  0 0 0  0 0 0
0 0 0  0 0 0  0 0 0  0 0 0  0 0 0  0 0 0
0 0 0  0 0 0  0 0 0  0 0 0  0 0 0  6 15 28
31 76 143  33 81 153  33 81 153  33 81 153  33 81 153  33 81 153
33 81 153  33 81 153  33 81 153  33 81 153  33 81 153  32 80 151
10 26 49  0 0 0  0 0 0  0 0 0  0 0 0  0 0 0
0 0 0  0 0 0  0 0 0  0 0 0  0 0 0  0 0 0
0 0 0  0 0 0  0 0 0  0 0 0  0 0 0  0 0 0
0 0 0  0 0 0  0 0 0  0 0 0  0 0 0  0 0 0
0 0 0  0 0 0  0 0 0  0 0 0  0 0 0  0 0 0
0 0 0  0 0 0  0 0 0  0 0 0  0 0 0  0 0 0
0 0 0  0 0 0  0 0 0  0 0 0  0 0 0  0 0 0
0 0 0  0 0 0  0 0 0  0 0 0  0 0 0  0 0 0
0 0 0  0 0 0  0 0 0  0 0 0  0 0 0  0 0 0
6 14 27  31 75 142  33 81 153  33 81 153  33 81 153  33 81 153
33 81 153  33 81 153  33 81 153  33 81 153  33 81 153  33 81 153
33 80 151  10 26 49  0 0 0  0 0 0  0 0 0  0 0 0
0 0 0  0 0 0  0 0 0  0 0 0  0 0 0  0 0 0
0 0 0  0 0 0  0 0 0  0 0 0  0 0 0  0 0 0
0 0 0  0 0 0  0 0 0  0 0 0
0 0 0  0 0 0  0 0 0  0 0 0  0 0 0  3 9 16
28 70 132  33 81 153  33 81 153  33 81 153  33 81 153  33 81 153
33 81 153  33 81 153  33 81 153  33 81 153  33 81 153  33 81 153
33 81 153  33 81 153  33 81 153  33 81 153  33 81 153  33 81 153
33 81 153  33 81 153  33 81 153  33 81 153  33 81 153  33 81 153
33 81 153  33 81 153  33 81 153  33 81 153  33 81 153  33 81 153
33 81 153  33 81 153  21 52 98  1 1 2  0 0 0  0 0 0
0 0 0  0 0 0  0 0 0  0 0 0  0 0 0  0 0 0
0 0 0  0 0 0  0 0 0  0 0 0  0 0 0  0 0 0
0 0 0  0 0 0  0 0 0  0 0 0  0 0 0  0 0 0
0 0 0  0 0 0  0 0 0  0 0 0  0 0 0  0 0 0
0 0 0  0 0 0  0 0 0  0 0 0  0 0 0  0 0 0
0 0 0  0 0 0  0 0 0  0 0 0  0 0 0  5 12 23
29 71 134  33 81 153  33 81 153  33 81 153  33 81 153  33 81 153
33 81 153  33 81 153  33 81 153  33 81 153  33 81 153  33 81 153
33 81 153  33 81 153  33 81 153  33 81 153  33 81 153  33 81 153
33 81 153  33 81 153  33 81 153  33 81 153  33 81 153  33 81 153
33 81 153  33 81 153  33 81 153  33 81 153  33 81 153  33 81 153
33 81 153  33 81 153  29 71 134  4 10 19  0 0 0  0 0 0
0 0 0  0 0 0  0 0 0  0 0 0  0 0 0  0 0 0
0 0 0  0 0 0  0 0 0  0 0 0  0 0 0  0 0 0
0 0 0  0 0 0  0 0 0  0 0 0  0 0 0  0 0 0
0 0 0  0 0 0  0 0 0  0 0 0  0 0 0  0 0 0
0 0 0  0 0 0  1 3 7  11 26 49  25 60 114  33 80 151
33 81 153  33 81 153  33 81 153  33 81 153  33 81 153  33 81 153
33 81 153  33 81 153  33 81 153  33 81 153  33 81 153  33 81 153
33 81 153  33 81 153  33 81 153  33 81 153  33 81 153  33 81 153
33 81 153  33 81 153  33 81 153  33 81 153  33 81 153  33 81 153
33 81 153  33 81 153  33 81 153  33 81 153  33 81 152  17 41 78
22 55 103  33 81 153  33 81 153  33 81 153  33 81 153  33 81 153
33 81 153  33 81 153  33 81 153  33 81 153  33 81 153  33 81 153
33 81 153  33 81 153  33 81 153  33 81 153  33 81 153  33 81 153
33 81 153  33 81 153  33 81 153  33 81 153  33 81 153  33 81 153
33 81 153  33 81 153  33 81 153  33 81 153  33 81 153  33 81 153
32 78 147  22 54 102  8 20 38  1 2 3  0 0 0  0 0 0
0 0 0  0 0 0  0 0 0  0 0 0  0 0 0  0 0 0
0 0 0  0 0 0  0 0 0  0 0 0  0 0 0  0 0 0
0 0 0  0 0 0  0 0 0  0 0 0  0 0 0  0 0 0
0 0 0  0 0 0  0 0 0  0 0 0  0 0 0  0 0 0
0 0 0  0 0 0  0 0 0  0 0 0  0 0 0  0 0 0
0 0 0  0 0 0  0 0 0  0 0 0  0 0 0  0 0 0
0 0 0  0 0 0  0 0 0  0 0 0  0 0 0  2 1 0
7 4 0  18 11 2  18 11 2  18 11 2  18 11 2  2 1 0
0 0 0  0 0 0  0 0 0  0 0 0  0 0 0  0 0 0
0 0 0  0 0 0  0 0 0  0 0 0  0 0 0  0 0 0
0 0 0  0 0 0  0 0 0  0 0 0  0 0 0  0 0 0
0 0 0  0 0 0  0 0 0  0 0 0  0 0 0  0 0 0
2 5 9  26 64 121  33 81 153  33 81 153  33 81 153  33 81 153
33 81 153  33 81 153  33 81 153  33 81 153  33 81 153  33 81 153
33 81 153  33 81 153  33 81 153  33 81 153  33 81 153  33 81 153
33 81 153  33 81 153  33 81 153  33 81 153  33 81 153  29 72 136
4 11 20  0 0 0  0 0 0  0 0 0  0 0 0  0 0 0
0 0 0  0 0 0  0 0 0  0 0 0  0 0 0  0 0 0
0 0 0  0 0 0  0 0 0  0 0 0  0 0 0  0 0 0
0 0 0  0 0 0  0 0 0  0 0 0  0 0 0  0 0 0
0 0 0  0 0 0  0 0 0  0 0 0  0 0 0  0 0 0
0 0 0  0 0 0  0 0 0  0 0 0  0 0 0  0 0 0
0 0 0  0 0 0  0 0 0  0 0 0  0 0 0  0 0 0
0 0 0  0 0 0  0 0 0  0 0 0  0 0 0  0 0 0
0 0 0  0 0 0  0 0 0  13 32 61  33 81 153  33 81 153
33 81 153  33 81 153  33 81 153  33 81 153  33 81 153  33 81 153
33 81 153  33 81 153  33 81 153  33 81 153  33 81 153  33 81 153
33 81 153  33 81 153  33 81 153  33 81 153  33 81 153  33 81 153
33 81 153  33 81 153  33 81 153  33 81 153  24 60 113  1 3 5
0 0 0  0 0 0  0 0 0  0 0 0  0 0 0  0 0 0
0 0 0  0 0 0  0 0 0  0 0 0  0 0 0  0 0 0
0 0 0  0 0 0  0 0 0  0 0 0  0 0 0  0 0 0
0 0 0  0 0 0  0 0 0  0 0 0  0 0 0  0 0 0
0 0 0  0 0 0  0 0 0  0 0 0  0 0 0  0 0 0
0 0 0  0 0 0  0 0 0  0 0 0  0 0 0  0 0 0
0 0 0  0 0 0  0 0 0  0 0 0  0 0 0  0 0 0
0 0 0  0 0 0  0 0 0  13 33 62  33 80 151  33 81 153
33 81 153  33 81 153  33 81 153  33 81 153  33 81 153  33 81 153
33 81 153  33 81 153  33 81 153  33 81 153  33 81 153  19 47 89
0 0 0  0 1 1  24 58 110  33 81 153  33 81 153  33 81 153
33 81 153  33 81 153  33 81 153  33 81 153  33 81 153  33 81 153
33 81 153  33 81 153  20 50 95  0 0 0  0 0 0  3 9 16
28 68 128  33 81 153  33 81 153  33 81 153  33 81 153  33 81 153
33 81 153  33 81 153  33 81 153  33 81 153  33 81 153  33 81 153
32 78 148  10 24 46  0 0 0  0 0 0  0 0 0  0 0 0
0 0 0  0 0 0  0 0 0  0 0 0  0 0 0  0 0 0
0 0 0  0 0 0  0 0 0  0 0 0  0 0 0  0 0 0
0 0 0  0 0 0  0 0 0  0 0 0  0 0 0  0 0 0
0 0 0  0 0 0  0 0 0  0 0 0  0 0 0  0 0 0
0 0 0  0 0 0  0 0 0  0 0 0  0 0 0  0 0 0
0 0 0  5 12 23  29 72 136  33 81 153  33 81 153  33 81 153
33 81 153  33 81 153  33 81 153  33 81 153  33 81 153  33 81 153
33 81 153  33 81 153  14 35 67  0 0 0  0 0 0  0 0 0
0 0 0  0 0 0  0 0 0  0 0 0  3 8 16  28 70 131
33 81 153  33 81 153  33 81 153  33 81 153  33 81 153  33 81 153
33 81 153  33 81 153  33 81 153  33 81 153  33 81 153  32 80 151
10 24 46  0 0 0  0 0 0  0 0 0  0 0 0  0 0 0
0 0 0  2 6 11  27 65 123  33 81 153  33 81 153  33 81 153
33 81 153  33 81 153  33 81 153  33 81 153  33 81 153  33 81 153
33 81 153  33 81 153  23 57 107  1 2 4  0 0 0  0 0 0
0 0 0  0 0 0  0 0 0  0 0 0  0 0 0  0 0 0
0 0 0  0 0 0  0 0 0  0 0 0  0 0 0  0 0 0
0 0 0  0 0 0  0 0 0  4 10 18  29 71 134  33 81 153
33 81 153  33 81 153  33 81 153  33 81 153  33 81 153  33 81 153
33 81 153  33 81 153  33 81 153  33 81 153  14 35 65  0 0 0
0 0 0  0 0 0  0 0 0  0 0 0  0 0 0  0 0 0
0 0 0  0 0 0  0 0 0  0 0 0  0 0 0  0 0 0
0 0 0  0 0 0  0 0 0  0 0 0  15 37 70  33 81 153
33 81 153  33 81 153  33 81 153  33 81 153  33 81 153  33 81 153
33 81 153  33 81 153  33 81 153  33 81 153  33 81 153  13 31 59
0 0 0  0 0 0  0 0 0  0 0 0  0 0 0  0 0 0
0 0 0  0 0 0  0 0 0  0 0 0  0 0 0  0 0 0
0 0 0  0 0 0  0 0 0  0 0 0  0 0 0  6 16 29
31 76 143  33 81 153  33 81 153  33 81 153  33 81 153  33 81 153
33 81 153  33 81 153  33 81 153  33 81 153  33 81 153  32 80 151
10 26 49  0 0 0  0 0 0  0 0 0  0 0 0  0 0 0
0 0 0  0 0 0  1 3 7  4 11 20  4 11 20  4 11 20
4 11 20  4 11 20  4 11 20  4 11 20  4 11 20  4 11 20
4 11 20  4 11 20  4 11 20  4 11 20  4 11 20  4 11 20
4 11 20  4 11 20  4 11 20  4 11 20  4 11 20  4 11 20
4 11 20  4 11 20  4 11 20  4 11 20  4 11 20  4 11 20
4 11 20  4 11 20  4 11 20  4 11 20  4 11 20  4 11 20
4 11 20  4 11 20  4 11 20  4 11 20  4 11 20  4 11 20
4 11 20  4 11 20  4 11 20  4 11 20  4 11 20  4 10 19
10 24 45  31 76 143  33 81 153  33 81 153  33 81 153  33 81 153
33 81 153  33 81 153  33 81 153  33 81 153  33 81 153  33 81 153
33 80 152  21 51 96  14 35 66  15 36 68  15 36 68  15 36 68
15 36 68  15 36 68  15 36 68  15 36 68  15 36 68  15 36 68
15 36 68  15 36 68  15 36 68  15 36 68  15 36 68  14 35 65
4 9 17  0 0 0  0 0 0  0 0 0
0 0 0  0 0 0  0 0 0  0 0 0  0 0 0  5 13 24
30 74 139  33 81 153  33 81 153  33 81 153  33 81 153  33 81 153
33 81 153  33 81 153  33 81 153  33 81 153  33 81 153  33 81 153
33 81 153  33 81 153  33 81 153  33 81 153  33 81 153  33 81 153
33 81 153  33 81 153  33 81 153  33 81 153  33 81 153  33 81 153
33 81 153  33 81 153  33 81 153  33 81 153  33 81 153  33 81 153
33 81 153  33 81 153  31 76 143  8 19 37  0 0 0  0 0 0
0 0 0  0 0 0  0 0 0  0 0 0  0 0 0  0 0 0
0 0 0  0 0 0  0 0 0  0 0 0  0 0 0  0 0 0
0 0 0  0 0 0  0 0 0  0 0 0  0 0 0  0 0 0
0 0 0  0 0 0  0 0 0  0 0 0  0 0 0  0 0 0
0 0 0  0 0 0  0 0 0  0 0 0  0 0 0  0 0 0
0 0 0  0 0 0  0 0 0  0 0 0  0 0 0  17 41 78
33 81 153  33 81 153  33 81 153  33 81 153  33 81 153  33 81 153
33 81 153  33 81 153  33 81 153  33 81 153  33 81 153  33 81 153
33 81 153  33 81 153  33 81 153  33 81 153  33 81 153  33 81 153
33 81 153  33 81 153  33 81 153  33 81 153  33 81 153  33 81 153
33 81 153  33 81 153  33 81 153  33 81 153  33 81 153  33 81 153
33 81 153  33 81 153  31 75 142  6 14 27  0 0 0  0 0 0
0 0 0  0 0 0  0 0 0  0 0 0  0 0 0  0 0 0
0 0 0  0 0 0  0 0 0  0 0 0  0 0 0  0 0 0
0 0 0  0 0 0  0 0 0  0 0 0  0 0 0  0 0 0
0 0 0  0 0 0  0 0 0  0 0 0  0 0 0  0 0 0
0 0 0  0 0 0  0 0 0  0 0 0  2 5 10  13 33 62
28 68 128  33 81 153  33 81 153  33 81 153  33 81 153  33 81 153
33 81 153  33 81 153  33 81 153  33 81 153  33 81 153  33 81 153
33 81 153  33 81 153  33 81 153  33 81 153  33 81 153  33 81 153
33 81 153  33 81 153  33 81 153  33 81 153  33 81 153  33 81 153
33 81 153  33 81 153  33 81 153  33 81 153  33 81 153  32 78 148
32 79 150  33 81 153  33 81 153  33 81 153  33 81 153  33 81 153
33 81 153  33 81 153  33 81 153  33 81 153  33 81 153  33 81 153
33 81 153  33 81 153  33 81 153  33 81 153  33 81 153  33 81 153
33 81 153  33 81 153  33 81 153  33 81 153  33 81 153  33 81 153
33 81 153  33 81 153  33 81 153  33 81 153  33 81 152  25 62 117
10 25 48  1 3 5  0 0 0  0 0 0  0 0 0  0 0 0
0 0 0  0 0 0  0 0 0  0 0 0  0 0 0  0 0 0
0 0 0  0 0 0  0 0 0  0 0 0  0 0 0  0 0 0
0 0 0  0 0 0  0 0 0  0 0 0  0 0 0  0 0 0
0 0 0  0 0 0  0 0 0  0 0 0  0 0 0  0 0 0
0 0 0  0 0 0  0 0 0  0 0 0  0 0 0  0 0 0
0 0 0  0 0 0  0 0 0  0 0 0  0 0 0  0 0 0
0 0 0  0 0 0  0 0 0  0 0 0  0 0 0  0 0 0
0 0 0  0 0 0  0 0 0  0 0 0  0 0 0  0 0 0
0 0 0  0 0 0  0 0 0  0 0 0  0 0 0  0 0 0
0 0 0  0 0 0  0 0 0  0 0 0  0 0 0  0 0 0
0 0 0  0 0 0  0 0 0  0 0 0  0 0 0  0 0 0
0 0 0  0 0 0  0 0 0  0 0 0  0 0 0  0 0 0
2 5 9  26 64 121  33 81 153  33 81 153  33 81 153  33 81 153
33 81 153  33 81 153  33 81 153  33 81 153  33 81 153  33 81 153
33 81 153  33 81 153  33 81 153  33 81 153  33 81 153  33 81 153
33 81 153  33 81 153  33 81 153  33 81 153  33 81 153  29 72 136
4 11 20  0 0 0  0 0 0  0 0 0  0 0 0  0 0 0
0 0 0  0 0 0  0 0 0  0 0 0  0 0 0  0 0 0
0 0 0  0 0 0  0 0 0  0 0 0  0 0 0  0 0 0
0 0 0  0 0 0  0 0 0  0 0 0  0 0 0  0 0 0
0 0 0  0 0 0  0 0 0  0 0 0  0 0 0  0 0 0
0 0 0  0 0 0  0 0 0  0 0 0  0 0 0  0 0 0
0 0 0  0 0 0  0 0 0  0 0 0  0 0 0  0 0 0
0 0 0  0 0 0  0 0 0  0 0 0  0 0 0  0 0 0
0 0 0  0 0 0  0 0 0  18 44 82  33 81 153  33 81 153
33 81 153  33 81 153  33 81 153  33 81 153  33 81 153  33 81 153
33 81 153  33 81 153  33 81 153  33 81 153  33 81 153  33 81 153
33 81 153  33 81 153  33 81 153  33 81 153  33 81 153  33 81 153
33 81 153  33 81 153  33 81 153  33 81 153  21 51 97  0 0 1
0 0 0  0 0 0  0 0 0  0 0 0  0 0 0  0 0 0
0 0 0  0 0 0  0 0 0  0 0 0  0 0 0  0 0 0
0 0 0  0 0 0  0 0 0  0 0 0  0 0 0  0 0 0
0 0 0  0 0 0  0 0 0  0 0 0  0 0 0  0 0 0
0 0 0  0 0 0  0 0 0  0 0 0  0 0 0  0 0 0
0 0 0  0 0 0  0 0 0  0 0 0  0 0 0  0 0 0
0 0 0  0 0 0  0 0 0  0 0 0  0 0 0  0 0 0
0 0 0  0 0 0  3 7 13  26 65 122  33 81 153  33 81 153
33 81 153  33 81 153  33 81 153  33 81 153  33 81 153  33 81 153
33 81 153  33 81 153  33 81 153  33 81 153  29 72 136  6 15 28
0 0 0  1 2 4  24 59 111  33 81 153  33 81 153  33 81 153
33 81 153  33 81 153  33 81 153  33 81 153  33 81 153  33 81 153
33 81 153  33 81 153  21 51 95  0 0 0  0 0 0  0 0 0
16 38 72  33 81 153  33 81 153  33 81 153  33 81 153  33 81 153
33 81 153  33 81 153  33 81 153  33 81 153  33 81 153  33 81 153
33 81 153  23 56 106  1 3 5  0 0 0  0 0 0  0 0 0
0 0 0  0 0 0  0 0 0  0 0 0  0 0 0  0 0 0
0 0 0  0 0 0  0 0 0  0 0 0  0 0 0  0 0 0
0 0 0  0 0 0  0 0 0  0 0 0  0 0 0  0 0 0
0 0 0  0 0 0  0 0 0  0 0 0  0 0 0  0 0 0
0 0 0  0 0 0  0 0 0  0 0 0  0 0 0  0 0 0
0 0 0  11 27 51  32 80 151  33 81 153  33 81 153  33 81 153
33 81 153  33 81 153  33 81 153  33 81 153  33 81 153  33 81 153
33 81 153  31 77 145  8 18 35  0 0 0  0 0 0  0 0 0
0 0 0  0 0 0  0 0 0  0 0 0  3 8 16  28 70 131
33 81 153  33 81 153  33 81 153  33 81 153  33 81 153  33 81 153
33 81 153  33 81 153  33 81 153  33 81 153  33 81 153  32 80 151
10 24 46  0 0 0  0 0 0  0 0 0  0 0 0  0 0 0
0 0 0  0 0 0  20 48 91  33 81 153  33 81 153  33 81 153
33 81 153  33 81 153  33 81 153  33 81 153  33 81 153  33 81 153
33 81 153  33 81 153  29 70 133  4 10 18  0 0 0  0 0 0
0 0 0  0 0 0  0 0 0  0 0 0  0 0 0  0 0 0
0 0 0  0 0 0  0 0 0  0 0 0  0 0 0  0 0 0
0 0 0  0 0 0  0 0 0  4 10 18  29 71 134  33 81 153
33 81 153  33 81 153  33 81 153  33 81 153  33 81 153  33 81 153
33 81 153  33 81 153  33 81 153  33 81 153  14 35 65  0 0 0
0 0 0  0 0 0  0 0 0  0 0 0  0 0 0  0 0 0
0 0 0  0 0 0  0 0 0  0 0 0  0 0 0  0 0 0
0 0 0  0 0 0  0 0 0  0 0 0  15 37 70  33 81 153
33 81 153  33 81 153  33 81 153  33 81 153  33 81 153  33 81 153
33 81 153  33 81 153  33 81 153  33 81 153  33 81 153  13 31 59
0 0 0  0 0 0  0 0 0  0 0 0  0 0 0  0 0 0
0 0 0  0 0 0  0 0 0  0 0 0  0 0 0  0 0 0
0 0 0  0 0 0  0 0 0  0 0 0  0 0 0  6 16 29
31 76 143  33 81 153  33 81 153  33 81 153  33 81 153  33 81 153
33 81 153  33 81 153  33 81 153  33 81 153  33 81 153  32 80 151
10 26 49  0 0 0  0 0 0  0 0 0  0 0 0  0 0 0
0 0 0  0 0 0  10 24 46  29 71 134  29 72 136  29 72 136
29 72 136  29 72 136  29 72 136  29 72 136  29 72 136  29 72 136
29 72 136  29 72 136  29 72 136  29 72 136  29 72 136  29 72 136
29 72 136  29 72 136  29 72 136  29 72 136  29 72 136  29 72 136
29 72 136  29 72 136  29 72 136  29 72 136  29 72 136  29 72 136
29 72 136  29 72 136  29 72 136  29 72 136  29 72 136  29 72 136
29 72 136  29 72 136  29 72 136  29 72 136  29 72 136  29 72 136
29 72 136  29 72 136  29 72 136  29 72 136  29 72 136  29 72 136
30 74 139  33 80 152  33 81 153  33 81 153  33 81 153  33 81 153
33 81 153  33 81 153  33 81 153  33 81 153  33 81 153  33 81 153
33 81 153  33 81 153  33 81 153  33 81 153  33 81 153  33 81 153
33 81 153  33 81 153  33 81 153  33 81 153  33 81 153  33 81 153
33 81 153  33 81 153  33 81 153  33 81 153  33 81 153  32 79 149
9 21 40  0 0 0  0 0 0  0 0 0
0 0 0  0 0 0  0 0 0  0 0 0  0 0 0  7 18 34
31 77 145  33 81 153  33 81 153  33 81 153  33 81 153  33 81 153
33 81 153  33 81 153  33 81 153  33 81 153  33 81 153  33 81 153
33 81 153  33 81 153  33 81 153  33 81 153  33 81 153  33 81 153
33 81 153  33 81 153  33 81 153  33 81 153  33 81 153  33 81 153
33 81 153  33 81 153  33 81 153  33 81 153  33 81 153  33 81 153
33 81 153  33 81 153  33 81 153  21 52 98  1 2 4  0 0 0
0 0 0  0 0 0  0 0 0  0 0 0  0 0 0  0 0 0
0 0 0  0 0 0  0 0 0  0 0 0  0 0 0  0 0 0
0 0 0  0 0 0  0 0 0  0 0 0  0 0 0  0 0 0
0 0 0  0 0 0  0 0 0  0 0 0  0 0 0  0 0 0
0 0 0  0 0 0  0 0 0  0 0 0  0 0 0  0 0 0
0 0 0  0 0 0  0 0 0  0 0 0  5 12 23  29 71 133
33 81 153  33 81 153  33 81 153  33 81 153  33 81 153  33 81 153
33 81 153  33 81 153  33 81 153  33 81 153  33 81 153  33 81 153
33 81 153  33 81 153  33 81 153  33 81 153  33 81 153  33 81 153
33 81 153  33 81 153  33 81 153  33 81 153  33 81 153  33 81 153
33 81 153  33 81 153  33 81 153  33 81 153  33 81 153  33 81 153
33 81 153  33 81 153  32 78 146  8 19 37  0 0 0  0 0 0
0 0 0  0 0 0  0 0 0  0 0 0  0 0 0  0 0 0
0 0 0  0 0 0  0 0 0  0 0 0  0 0 0  0 0 0
0 0 0  0 0 0  0 0 0  0 0 0  0 0 0  0 0 0
0 0 0  0 0 0  0 0 0  0 0 0  0 0 0  0 0 0
0 0 0  0 0 0  0 0 0  0 0 0  0 0 0  0 0 0
4 11 20  19 47 89  31 77 146  33 81 153  33 81 153  33 81 153
33 81 153  33 81 153  33 81 153  33 81 153  33 81 153  33 81 153
33 81 153  33 81 153  33 81 153  33 81 153  33 81 153  33 81 153
33 81 153  33 81 153  33 81 153  33 81 153  33 81 153  33 81 153
33 81 153  33 81 153  33 81 153  33 81 153  33 81 153  33 81 153
33 81 153  33 81 153  33 81 153  33 81 153  33 81 153  33 81 153
33 81 153  33 81 153  33 81 153  33 81 153  33 81 153  33 81 153
33 81 153  33 81 153  33 81 153  33 81 153  33 81 153  33 81 153
33 81 153  33 81 153  33 81 153  33 81 153  33 81 153  33 81 153
33 81 153  33 81 153  33 81 153  30 73 139  16 39 73  3 6 12
0 0 0  0 0 0  0 0 0  0 0 0  0 0 0  0 0 0
0 0 0  0 0 0  0 0 0  0 0 0  0 0 0  0 0 0
0 0 0  0 0 0  0 0 0  0 0 0  0 0 0  0 0 0
0 0 0  0 0 0  0 0 0  0 0 0  0 0 0  0 0 0
0 0 0  0 0 0  0 0 0  0 0 0  0 0 0  0 0 0
0 0 0  0 0 0  0 0 0  0 0 0  0 0 0  0 0 0
0 0 0  0 0 0  0 0 0  0 0 0  0 0 0  0 0 0
0 0 0  0 0 0  0 0 0  0 0 0  0 0 0  0 0 0
0 0 0  0 0 1  0 1 2  0 1 1  0 0 0  0 0 0
0 0 0  0 0 0  0 0 0  0 0 0  0 0 0  0 0 0
0 0 0  0 0 0  0 0 0  0 0 0  0 0 0  0 0 0
0 0 0  0 0 0  0 0 0  0 0 0  0 0 0  0 0 0
0 0 0  0 0 0  0 0 0  0 0 0  0 0 0  0 0 0
2 5 9  26 64 121  33 81 153  33 81 153  33 81 153  33 81 153
33 81 153  33 81 153  33 81 153  33 81 153  33 81 153  33 81 153
33 81 153  33 81 153  33 81 153  33 81 153  33 81 153  33 81 153
33 81 153  33 81 153  33 81 153  33 81 153  33 81 153  29 72 136
4 11 20  0 0 0  0 0 0  0 0 0  0 0 0  0 0 0
0 0 0  0 0 0  0 0 0  0 0 0  0 0 0  0 0 0
0 0 0  0 0 0  0 0 0  0 0 0  0 0 0  0 0 0
0 0 0  0 0 0  0 0 0  0 0 0  0 0 0  0 0 0
0 0 0  0 0 0  0 0 0  0 0 0  0 0 0  0 0 0
0 0 0  0 0 0  0 0 0  0 0 0  0 0 0  0 0 0
0 0 0  0 0 0  0 0 0  0 0 0  0 0 0  0 0 0
0 0 0  0 0 0  0 0 0  0 0 0  0 0 0  0 0 0
0 0 0  0 0 0  1 3 5  24 58 110  33 81 153  33 81 153
33 81 153  33 81 153  33 81 153  33 81 153  33 81 153  33 81 153
33 81 153  33 81 153  33 81 153  33 81 153  33 81 153  33 81 153
33 81 153  33 81 153  33 81 153  33 81 153  33 81 153  33 81 153
33 81 153  33 81 153  33 81 153  33 81 153  16 40 75  0 0 0
0 0 0  0 0 0  0 0 0  0 0 0  0 0 0  0 0 0
0 0 0  0 0 0  0 0 0  0 0 0  0 0 0  0 0 0
0 0 0  0 0 0  0 0 0  0 0 0  0 0 0  0 0 0
0 0 0  0 0 0  0 0 0  0 0 0  0 0 0  0 0 0
0 0 0  0 0 0  0 0 0  0 0 0  0 0 0  0 0 0
0 0 0  0 0 0  0 0 0  0 0 0  0 0 0  0 0 0
0 0 0  0 0 0  0 0 0  0 0 0  0 0 0  0 0 0
0 0 0  0 0 0  13 33 62  33 80 152  33 81 153  33 81 153
33 81 153  33 81 153  33 81 153  33 81 153  33 81 153  33 81 153
33 81 153  33 81 153  33 81 153  33 81 153  17 43 80  0 0 0
0 0 0  1 2 4  24 59 111  33 81 153  33 81 153  33 81 153
33 81 153  33 81 153  33 81 153  33 81 153  33 81 153  33 81 153
33 81 153  33 81 153  21 51 95  0 0 0  0 0 0  0 0 0
4 10 20  28 69 131  33 81 153  33 81 153  33 81 153  33 81 153
33 81 153  33 81 153  33 81 153  33 81 153  33 81 153  33 81 153
33 81 153  31 77 145  9 22 41  0 0 0  0 0 0  0 0 0
0 0 0  0 0 0  0 0 0  0 0 0  0 0 0  0 0 0
0 0 0  0 0 0  0 0 0  0 0 0  0 0 0  0 0 0
0 0 0  0 0 0  0 0 0  0 0 0  0 0 0  0 0 0
0 0 0  0 0 0  0 0 0  0 0 0  0 0 0  0 0 0
0 0 0  0 0 0  0 0 0  0 0 0  0 0 0  0 0 0
0 0 0  19 46 86  33 81 153  33 81 153  33 81 153  33 81 153
33 81 153  33 81 153  33 81 153  33 81 153  33 81 153  33 81 153
33 81 153  27 66 125  3 6 12  0 0 0  0 0 0  0 0 0
0 0 0  0 0 0  0 0 0  0 0 0  3 8 16  28 70 131
33 81 153  33 81 153  33 81 153  33 81 153  33 81 153  33 81 153
33 81 153  33 81 153  33 81 153  33 81 153  33 81 153  32 80 151
10 24 46  0 0 0  0 0 0  0 0 0  0 0 0  0 0 0
0 0 0  0 0 0  12 30 56  33 80 152  33 81 153  33 81 153
33 81 153  33 81 153  33 81 153  33 81 153  33 81 153  33 81 153
33 81 153  33 81 153  32 78 148  9 22 42  0 0 0  0 0 0
0 0 0  0 0 0  0 0 0  0 0 0  0 0 0  0 0 0
0 0 0  0 0 0  0 0 0  0 0 0  0 0 0  0 0 0
0 0 0  0 0 0  0 0 0  4 10 18  29 71 134  33 81 153
33 81 153  33 81 153  33 81 153  33 81 153  33 81 153  33 81 153
33 81 153  33 81 153  33 81 153  33 81 153  14 35 65  0 0 0
0 0 0  0 0 0  0 0 0  0 0 0  0 0 0  0 0 0
0 0 0  0 0 0  0 0 0  0 0 0  0 0 0  0 0 0
0 0 0  0 0 0  0 0 0  0 0 0  15 37 70  33 81 153
33 81 153  33 81 153  33 81 153  33 81 153  33 81 153  33 81 153
33 81 153  33 81 153  33 81 153  33 81 153  33 81 153  13 31 59
0 0 0  0 0 0  0 0 0  0 0 0  0 0 0  0 0 0
0 0 0  0 0 0  0 0 0  0 0 0  0 0 0  0 0 0
0 0 0  0 0 0  0 0 0  0 0 0  0 0 0  6 16 29
31 76 143  33 81 153  33 81 153  33 81 153  33 81 153  33 81 153
33 81 153  33 81 153  33 81 153  33 81 153  33 81 153  32 80 151
10 26 49  0 0 0  0 0 0  0 0 0  0 0 0  0 0 0
0 0 0  0 0 0  11 27 52  33 81 152  33 81 153  33 81 153
33 81 153  33 81 153  33 81 153  33 81 153  33 81 153  33 81 153
33 81 153  33 81 153  33 81 153  33 81 153  33 81 153  33 81 153
33 81 153  33 81 153  33 81 153  33 81 153  33 81 153  33 81 153
33 81 153  33 81 153  33 81 153  33 81 153  33 81 153  33 81 153
33 81 153  33 81 153  33 81 153  33 81 153  33 81 153  33 81 153
33 81 153  33 81 153  33 81 153  33 81 153  33 81 153  33 81 153
33 81 153  33 81 153  33 81 153  33 81 153  33 81 153  33 81 153
33 81 153  33 81 153  33 81 153  33 81 153  33 81 153  33 81 153
33 81 153  33 81 153  33 81 153  33 81 153  33 81 153  33 81 153
33 81 153  33 81 153  33 81 153  33 81 153  33 81 153  33 81 153
33 81 153  33 81 153  33 81 153  33 81 153  33 81 153  33 81 153
33 81 153  33 81 153  33 81 153  33 81 153  33 81 153  32 78 148
9 21 40  0 0 0  0 0 0  0 0 0
0 0 0  0 0 0  0 0 0  0 0 0  0 0 0  9 23 44
32 79 149  33 81 153  33 81 153  33 81 153  33 81 153  33 81 153
33 81 153  33 81 153  33 81 153  33 81 153  33 81 153  33 81 153
33 81 153  33 81 153  33 81 153  33 81 153  33 81 153  33 81 153
33 81 153  33 81 153  33 81 153  33 81 153  33 81 153  33 81 153
33 81 153  33 81 153  33 81 153  33 81 153  33 81 153  33 81 153
33 81 153  33 81 153  33 81 153  31 77 145  9 23 43  0 0 0
0 0 0  0 0 0  0 0 0  0 0 0  0 0 0  0 0 0
0 0 0  0 0 0  0 0 0  0 0 0  0 0 0  0 0 0
0 0 0  0 0 0  0 0 0  0 0 0  0 0 0  0 0 0
0 0 0  0 0 0  0 0 0  0 0 0  0 0 0  0 0 0
0 0 0  0 0 0  0 0 0  0 0 0  0 0 0  0 0 0
0 0 0  0 0 0  0 0 0  0 0 1  18 45 85  33 81 153
33 81 153  33 81 153  33 81 153  33 81 153  33 81 153  33 81 153
33 81 153  33 81 153  33 81 153  33 81 153  33 81 153  33 81 153
33 81 153  33 81 153  33 81 153  33 81 153  33 81 153  33 81 153
33 81 153  33 81 153  33 81 153  33 81 153  33 81 153  33 81 153
33 81 153  33 81 153  33 81 153  33 81 153  33 81 153  33 81 153
33 81 153  33 81 153  32 80 151  10 25 47  0 0 0  0 0 0
0 0 0  0 0 0  0 0 0  0 0 0  0 0 0  0 0 0
0 0 0  0 0 0  0 0 0  0 0 0  0 0 0  0 0 0
0 0 0  0 0 0  0 0 0  0 0 0  0 0 0  0 0 0
0 0 0  0 0 0  0 0 0  0 0 0  0 0 0  0 0 0
0 0 0  0 0 0  0 0 0  0 0 0  0 0 0  0 0 0
0 0 0  1 1 2  11 26 49  27 67 126  33 81 153  33 81 153
33 81 153  33 81 153  33 81 153  33 81 153  33 81 153  33 81 153
33 81 153  33 81 153  33 81 153  33 81 153  33 81 153  33 81 153
33 81 153  33 81 153  33 81 153  33 81 153  33 81 153  33 81 153
33 81 153  33 81 153  33 81 153  33 81 153  33 81 153  33 81 153
33 81 153  33 81 153  33 81 153  33 81 153  33 81 153  33 81 153
33 81 153  33 81 153  33 81 153  33 81 153  33 81 153  33 81 153
33 81 153  33 81 153  33 81 153  33 81 153  33 81 153  33 81 153
33 81 153  33 81 153  33 81 153  33 81 153  33 81 153  33 81 153
33 81 153  33 81 153  24 59 112  8 18 35  0 0 0  0 0 0
0 0 0  0 0 0  0 0 0  0 0 0  0 0 0  0 0 0
0 0 0  0 0 0  0 0 0  0 0 0  0 0 0  0 0 0
0 0 0  0 0 0  0 0 0  0 0 0  0 0 0  0 0 0
0 0 0  0 0 0  0 0 0  0 0 0  0 0 0  0 0 0
0 0 0  0 0 0  0 0 0  0 0 0  0 0 0  0 0 0
0 0 0  0 0 0  0 0 0  0 0 0  0 0 0  0 0 0
0 0 0  0 0 0  0 0 0  0 0 0  0 0 0  0 0 0
0 0 0  0 0 0  0 0 0  3 6 12  8 20 37  14 34 64
18 45 85  21 51 97  22 54 103  21 53 100  19 47 89  15 37 71
10 24 45  4 10 18  0 1 1  0 0 0  0 0 0  0 0 0
0 0 0  0 0 0  0 0 0  0 0 0  0 0 0  0 0 0
0 0 0  0 0 0  0 0 0  0 0 0  0 0 0  0 0 0
0 0 0  0 0 0  0 0 0  0 0 0  0 0 0  0 0 0
2 5 9  26 64 121  33 81 153  33 81 153  33 81 153  33 81 153
33 81 153  33 81 153  33 81 153  33 81 153  33 81 153  33 81 153
33 81 153  33 81 153  33 81 153  33 81 153  33 81 153  33 81 153
33 81 153  33 81 153  33 81 153  33 81 153  33 81 153  29 72 136
4 11 20  0 0 0  0 0 0  0 0 0  0 0 0  0 0 0
0 0 0  0 0 0  0 0 0  0 0 0  0 0 0  0 0 0
0 0 0  0 0 0  0 0 0  0 0 0  0 0 0  0 0 0
0 0 0  0 0 0  0 0 0  0 0 0  0 0 0  0 0 0
0 0 0  0 0 0  0 0 0  0 0 0  0 0 0  0 0 0
0 0 0  0 0 0  0 0 0  0 0 0  0 0 0  0 0 0
0 0 0  0 0 0  0 0 0  0 0 0  0 0 0  0 0 0
0 0 0  0 0 0  0 0 0  0 0 0  0 0 0  0 0 0
0 0 0  0 0 0  5 13 25  30 73 138  33 81 153  33 81 153
33 81 153  33 81 153  33 81 153  33 81 153  33 81 153  33 81 153
33 81 153  33 81 153  33 81 153  33 81 153  33 81 153  33 81 153
33 81 153  33 81 153  33 81 153  33 81 153  33 81 153  33 81 153
33 81 153  33 81 153  33 81 153  33 80 151  11 27 51  0 0 0
0 0 0  0 0 0  0 0 0  0 0 0  0 0 0  0 0 0
0 0 0  0 0 0  0 0 0  0 0 0  0 0 0  0 0 0
0 0 0  0 0 0  0 0 0  0 0 0  0 0 0  0 0 0
0 0 0  0 0 0  0 0 0  0 0 0  0 0 0  0 0 0
0 0 0  0 0 0  0 0 0  0 0 0  0 0 0  0 0 0
0 0 0  0 0 0  0 0 0  0 0 0  0 0 0  0 0 0
0 0 0  0 0 0  0 0 0  0 0 0  0 0 0  0 0 0
0 0 0  3 6 12  26 64 120  33 81 153  33 81 153  33 81 153
33 81 153  33 81 153  33 81 153  33 81 153  33 81 153  33 81 153
33 81 153  33 81 153  33 81 153  28 69 131  5 11 21  0 0 0
0 0 0  1 2 4  24 59 111  33 81 153  33 81 153  33 81 153
33 81 153  33 81 153  33 81 153  33 81 153  33 81 153  33 81 153
33 81 153  33 81 153  21 51 95  0 0 0  0 0 0  0 0 0
0 0 0  17 41 77  33 81 153  33 81 153  33 81 153  33 81 153
33 81 153  33 81 153  33 81 153  33 81 153  33 81 153  33 81 153
33 81 153  33 81 153  21 52 98  1 1 2  0 0 0  0 0 0
0 0 0  0 0 0  0 0 0  0 0 0  0 0 0  0 0 0
0 0 0  0 0 0  0 0 0  0 0 0  0 0 0  0 0 0
0 0 0  0 0 0  0 0 0  0 0 0  0 0 0  0 0 0
0 0 0  0 0 0  0 0 0  0 0 0  0 0 0  0 0 0
0 0 0  0 0 0  0 0 0  0 0 0  0 0 0  0 0 0
2 5 9  26 63 119  33 81 153  33 81 153  33 81 153  33 81 153
33 81 153  33 81 153  33 81 153  33 81 153  33 81 153  33 81 153
33 81 153  20 50 94  0 0 1  0 0 0  0 0 0  0 0 0
0 0 0  0 0 0  0 0 0  0 0 0  3 8 16  28 70 131
33 81 153  33 81 153  33 81 153  33 81 153  33 81 153  33 81 153
33 81 153  33 81 153  33 81 153  33 81 153  33 81 153  32 80 151
10 24 46  0 0 0  0 0 0  0 0 0  0 0 0  0 0 0
0 0 0  0 0 0  5 13 25  30 74 139  33 81 153  33 81 153
33 81 153  33 81 153  33 81 153  33 81 153  33 81 153  33 81 153
33 81 153  33 81 153  33 81 153  16 39 73  0 0 0  0 0 0
0 0 0  0 0 0  0 0 0  0 0 0  0 0 0  0 0 0
0 0 0  0 0 0  0 0 0  0 0 0  0 0 0  0 0 0
0 0 0  0 0 0  0 0 0  4 10 18  29 71 134  33 81 153
33 81 153  33 81 153  33 81 153  33 81 153  33 81 153  33 81 153
33 81 153  33 81 153  33 81 153  33 81 153  14 35 65  0 0 0
0 0 0  0 0 0  0 0 0  0 0 0  0 0 0  0 0 0
0 0 0  0 0 0  0 0 0  0 0 0  0 0 0  0 0 0
0 0 0  0 0 0  0 0 0  0 0 0  15 37 70  33 81 153
33 81 153  33 81 153  33 81 153  33 81 153  33 81 153  33 81 153
33 81 153  33 81 153  33 81 153  33 81 153  33 81 153  13 31 59
0 0 0  0 0 0  0 0 0  0 0 0  0 0 0  0 0 0
0 0 0  0 0 0  0 0 0  0 0 0  0 0 0  0 0 0
0 0 0  0 0 0  0 0 0  0 0 0  0 0 0  6 16 29
31 76 143  33 81 153  33 81 153  33 81 153  33 81 153  33 81 153
33 81 153  33 81 153  33 81 153  33 81 153  33 81 153  32 80 151
10 26 49  0 0 0  0 0 0  0 0 0  0 0 0  0 0 0
0 0 0  0 0 0  11 27 52  33 80 152  33 81 153  33 81 153
33 81 153  33 81 153  33 81 153  33 81 153  33 81 153  33 81 153
33 81 153  33 81 153  33 81 153  33 81 153  33 81 153  33 81 153
33 81 153  33 81 153  33 81 153  33 81 153  33 81 153  33 81 153
33 81 153  33 81 153  33 81 153  33 81 153  33 81 153  33 81 153
33 81 153  33 81 153  33 81 153  33 81 153  33 81 153  33 81 153
33 81 153  33 81 153  33 81 153  33 81 153  33 81 153  33 81 153
33 81 153  33 81 153  33 81 153  33 81 153  33 81 153  33 81 153
33 81 153  33 81 153  33 81 153  33 81 153  33 81 153  33 81 153
33 81 153  33 81 153  33 81 153  33 81 153  33 81 153  33 81 153
33 81 153  33 81 153  33 81 153  33 81 153  33 81 153  33 81 153
33 81 153  33 81 153  33 81 153  33 81 153  33 81 153  33 81 153
33 81 153  33 81 153  33 81 153  33 81 153  33 81 153  32 78 148
9 21 40  0 0 0  0 0 0  0 0 0
0 0 0  0 0 0  0 0 0  0 0 0  0 0 0  12 29 55
33 81 152  33 81 153  33 81 153  33 81 153  33 81 153  33 81 153
33 81 153  33 81 153  33 81 153  33 81 153  33 81 153  33 81 153
33 81 153  33 81 153  33 81 153  33 81 153  33 81 153  33 81 153
33 81 153  33 81 153  33 81 153  33 81 153  33 81 153  33 81 153
33 81 153  33 81 153  33 81 153  33 81 153  33 81 153  33 81 153
33 81 153  33 81 153  33 81 153  33 81 153  24 59 112  2 5 9
0 0 0  0 0 0  0 0 0  0 0 0  0 0 0  0 0 0
0 0 0  0 0 0  0 0 0  0 0 0  0 0 0  0 0 0
0 0 0  0 0 0  0 0 0  0 0 0  0 0 0  0 0 0
0 0 0  0 0 0  0 0 0  0 0 0  0 0 0  0 0 0
0 0 0  0 0 0  0 0 0  0 0 0  0 0 0  0 0 0
0 0 0  0 0 0  0 0 0  8 19 35  30 74 140  33 81 153
33 81 153  33 81 153  33 81 153  33 81 153  33 81 153  33 81 153
33 81 153  33 81 153  33 81 153  33 81 153  33 81 153  33 81 153
33 81 153  33 81 153  33 81 153  33 81 153  33 81 153  33 81 153
33 81 153  33 81 153  33 81 153  33 81 153  33 81 153  33 81 153
33 81 153  33 81 153  33 81 153  33 81 153  33 81 153  33 81 153
33 81 153  33 81 153  33 81 153  13 31 59  0 0 0  0 0 0
0 0 0  0 0 0  0 0 0  0 0 0  0 0 0  0 0 0
0 0 0  0 0 0  0 0 0  0 0 0  0 0 0  0 0 0
0 0 0  0 0 0  0 0 0  0 0 0  0 0 0  0 0 0
0 0 0  0 0 0  0 0 0  0 0 0  0 0 0  0 0 0
0 0 0  0 0 0  0 0 0  0 0 0  0 0 0  0 0 0
0 0 0  0 0 0  0 0 0  5 11 22  22 53 100  33 80 152
33 81 153  33 81 153  33 81 153  33 81 153  33 81 153  33 81 153
33 81 153  33 81 153  33 81 153  33 81 153  33 81 153  33 81 153
33 81 153  33 81 153  33 81 153  33 81 153  33 81 153  33 81 153
33 81 153  33 81 153  33 81 153  33 81 153  33 81 153  33 81 153
33 81 153  33 81 153  33 81 153  33 81 153  33 81 153  33 81 153
33 81 153  33 81 153  33 81 153  33 81 153  33 81 153  33 81 153
33 81 153  33 81 153  33 81 153  33 81 153  33 81 153  33 81 153
33 81 153  33 81 153  33 81 153  33 81 153  33 81 153  33 81 153
32 78 146  18 44 82  3 6 12  0 0 0  0 0 0  0 0 0
0 0 0  0 0 0  0 0 0  0 0 0  0 0 0  0 0 0
0 0 0  0 0 0  0 0 0  0 0 0  0 0 0  0 0 0
0 0 0  0 0 0  0 0 0  0 0 0  0 0 0  0 0 0
0 0 0  0 0 0  0 0 0  0 0 0  0 0 0  0 0 0
0 0 0  0 0 0  0 0 0  0 0 0  0 0 0  0 0 0
0 0 0  0 0 0  0 0 0  0 0 0  0 0 0  0 0 0
0 0 0  0 0 0  0 0 0  0 0 0  0 0 0  0 0 0
0 0 0  6 14 26  17 42 80  27 66 124  32 78 146  33 81 153
33 81 153  33 81 153  33 81 153  33 81 153  33 81 153  33 81 153
32 79 149  28 70 132  20 49 93  8 20 38  1 1 2  0 0 0
0 0 0  0 0 0  0 0 0  0 0 0  0 0 0  0 0 0
0 0 0  0 0 0  0 0 0  0 0 0  0 0 0  0 0 0
0 0 0  0 0 0  0 0 0  0 0 0  0 0 0  0 0 0
2 5 9  26 64 121  33 81 153  33 81 153  33 81 153  33 81 153
33 81 153  33 81 153  33 81 153  33 81 153  33 81 153  33 81 153
33 81 153  33 81 153  33 81 153  33 81 153  33 81 153  33 81 153
33 81 153  33 81 153  33 81 153  33 81 153  33 81 153  29 72 136
4 11 20  0 0 0  0 0 0  0 0 0  0 0 0  0 0 0
0 0 0  0 0 0  0 0 0  0 0 0  0 0 0  0 0 0
0 0 0  0 0 0  0 0 0  0 0 0  0 0 0  0 0 0
0 0 0  0 0 0  0 0 0  0 0 0  0 0 0  0 0 0
0 0 0  0 0 0  0 0 0  0 0 0  0 0 0  0 0 0
0 0 0  0 0 0  0 0 0  0 0 0  0 0 0  0 0 0
0 0 0  0 0 0  0 0 0  0 0 0  0 0 0  0 0 0
0 0 0  0 0 0  0 0 0  0 0 0  0 0 0  0 0 0
0 0 0  0 0 0  15 37 70  33 81 153  33 81 153  33 81 153
33 81 153  33 81 153  33 81 153  33 81 153  33 81 153  33 81 153
33 81 153  33 81 153  33 81 153  33 81 153  33 81 153  33 81 153
33 81 153  33 81 153  33 81 153  33 81 153  33 81 153  33 81 153
33 81 153  33 81 153  33 81 153  30 74 140  6 14 26  0 0 0
0 0 0  0 0 0  0 0 0  0 0 0  0 0 0  0 0 0
0 0 0  0 0 0  0 0 0  0 0 0  0 0 0  0 0 0
0 0 0  0 0 0  0 0 0  0 0 0  0 0 0  0 0 0
0 0 0  0 0 0  0 0 0  0 0 0  0 0 0  0 0 0
0 0 0  0 0 0  0 0 0  0 0 0  0 0 0  0 0 0
0 0 0  0 0 0  0 0 0  0 0 0  0 0 0  0 0 0
0 0 0  0 0 0  0 0 0  0 0 0  0 0 0  0 0 0
0 0 0  13 31 59  33 80 151  33 81 153  33 81 153  33 81 153
33 81 153  33 81 153  33 81 153  33 81 153  33 81 153  33 81 153
33 81 153  33 81 153  33 81 153  15 37 71  0 0 0  0 0 0
0 0 0  1 2 4  24 59 111  33 81 153  33 81 153  33 81 153
33 81 153  33 81 153  33 81 153  33 81 153  33 81 153  33 81 153
33 81 153  33 81 153  21 51 95  0 0 0  0 0 0  0 0 0
0 0 0  5 12 23  29 71 134  33 81 153  33 81 153  33 81 153
33 81 153  33 81 153  33 81 153  33 81 153  33 81 153  33 81 153
33 81 153  33 81 153  31 75 142  7 17 33  0 0 0  0 0 0
0 0 0  0 0 0  0 0 0  0 0 0  0 0 0  0 0 0
0 0 0  0 0 0  0 0 0  0 0 0  0 0 0  0 0 0
0 0 0  0 0 0  0 0 0  0 0 0  0 0 0  0 0 0
0 0 0  0 0 0  0 0 0  0 0 0  0 0 0  0 0 0
0 0 0  0 0 0  0 0 0  0 0 0  0 0 0  0 0 0
6 16 30  31 75 142  33 81 153  33 81 153  33 81 153  33 81 153
33 81 153  33 81 153  33 81 153  33 81 153  33 81 153  33 81 153
33 81 152  13 31 59  0 0 0  0 0 0  0 0 0  0 0 0
0 0 0  0 0 0  0 0 0  0 0 0  3 8 16  28 70 131
33 81 153  33 81 153  33 81 153  33 81 153  33 81 153  33 81 153
33 81 153  33 81 153  33 81 153  33 81 153  33 81 153  32 80 151
10 24 46  0 0 0  0 0 0  0 0 0  0 0 0  0 0 0
0 0 0  0 0 0  1 3 6  25 60 114  33 81 153  33 81 153
33 81 153  33 81 153  33 81 153  33 81 153  33 81 153  33 81 153
33 81 153  33 81 153  33 81 153  23 56 105  1 2 3  0 0 0
0 0 0  0 0 0  0 0 0  0 0 0  0 0 0  0 0 0
0 0 0  0 0 0  0 0 0  0 0 0  0 0 0  0 0 0
0 0 0  0 0 0  0 0 0  4 10 18  29 71 134  33 81 153
33 81 153  33 81 153  33 81 153  33 81 153  33 81 153  33 81 153
33 81 153  33 81 153  33 81 153  33 81 153  14 35 65  0 0 0
0 0 0  0 0 0  0 0 0  0 0 0  0 0 0  0 0 0
0 0 0  0 0 0  0 0 0  0 0 0  0 0 0  0 0 0
0 0 0  0 0 0  0 0 0  0 0 0  15 37 70  33 81 153
33 81 153  33 81 153  33 81 153  33 81 153  33 81 153  33 81 153
33 81 153  33 81 153  33 81 153  33 81 153  33 81 153  13 31 59
0 0 0  0 0 0  0 0 0  0 0 0  0 0 0  0 0 0
0 0 0  0 0 0  0 0 0  0 0 0  0 0 0  0 0 0
0 0 0  0 0 0  0 0 0  0 0 0  0 0 0  6 16 29
31 76 143  33 81 153  33 81 153  33 81 153  33 81 153  33 81 153
33 81 153  33 81 153  33 81 153  33 81 153  33 81 153  32 80 151
10 26 49  0 0 0  0 0 0  0 0 0  0 0 0  0 0 0
0 0 0  0 0 0  11 27 52  33 80 152  33 81 153  33 81 153
33 81 153  33 81 153  33 81 153  33 81 153  33 81 153  33 81 153
33 81 153  33 81 153  33 81 153  33 81 153  33 81 153  33 81 153
33 81 153  33 81 153  33 81 153  33 81 153  33 81 153  33 81 153
33 81 153  33 81 153  33 81 153  33 81 153  33 81 153  33 81 153
33 81 153  33 81 153  33 81 153  33 81 153  33 81 153  33 81 153
33 81 153  33 81 153  33 81 153  33 81 153  33 81 153  33 81 153
33 81 153  33 81 153  33 81 153  33 81 153  33 81 153  33 81 153
33 81 153  33 81 153  33 81 153  33 81 153  33 81 153  33 81 153
33 81 153  33 81 153  33 81 153  33 81 153  33 81 153  33 81 153
33 81 153  33 81 153  33 81 153  33 81 153  33 81 153  33 81 153
33 81 153  33 81 153  33 81 153  33 81 153  33 81 153  33 81 153
33 81 153  33 81 153  33 81 153  33 81 153  33 81 153  32 78 148
9 21 40  0 0 0  0 0 0  0 0 0
0 0 0  0 0 0  0 0 0  0 0 0  0 0 0  14 35 67
33 81 153  33 81 153  33 81 153  33 81 153  33 81 153  33 81 153
33 81 153  33 81 153  33 81 153  33 81 153  33 81 153  33 81 153
33 81 153  33 81 153  33 81 153  33 81 153  33 81 153  33 81 153
33 81 153  33 81 153  33 81 153  33 81 153  33 81 153  33 81 153
33 81 153  33 81 153  33 81 153  33 81 153  33 81 153  33 81 153
33 81 153  33 81 153  33 81 153  33 81 153  33 80 151  14 34 65
0 0 0  0 0 0  0 0 0  0 0 0  0 0 0  0 0 0
0 0 0  0 0 0  0 0 0  0 0 0  0 0 0  0 0 0
0 0 0  0 0 0  0 0 0  0 0 0  0 0 0  0 0 0
0 0 0  0 0 0  0 0 0  0 0 0  0 0 0  0 0 0
0 0 0  0 0 0  0 0 0  0 0 0  0 0 0  0 0 0
0 0 0  0 0 0  2 4 7  23 56 106  33 81 153  33 81 153
33 81 153  33 81 153  33 81 153  33 81 153  33 81 153  33 81 153
33 81 153  33 81 153  33 81 153  33 81 153  33 81 153  33 81 153
33 81 153  33 81 153  33 81 153  33 81 153  33 81 153  33 81 153
33 81 153  33 81 153  33 81 153  33 81 153  33 81 153  33 81 153
33 81 153  33 81 153  33 81 153  33 81 153  33 81 153  33 81 153
33 81 153  33 81 153  33 81 153  15 38 71  0 0 0  0 0 0
0 0 0  0 0 0  0 0 0  0 0 0  0 0 0  0 0 0
0 0 0  0 0 0  0 0 0  0 0 0  0 0 0  0 0 0
0 0 0  0 0 0  0 0 0  0 0 0  0 0 0  0 0 0
0 0 0  0 0 0  0 0 0  0 0 0  0 0 0  0 0 0
0 0 0  0 0 0  0 0 0  0 0 0  0 0 0  0 0 0
0 0 0  0 0 0  0 0 0  0 0 0  2 4 7  16 40 75
31 77 146  33 81 153  33 81 153  33 81 153  33 81 153  33 81 153
33 81 153  33 81 153  33 81 153  33 81 153  33 81 153  33 81 153
33 81 153  33 81 153  33 81 153  33 81 153  33 81 153  33 81 153
33 81 153  33 81 153  33 81 153  33 81 153  33 81 153  33 81 153
33 81 153  33 81 153  33 81 153  33 81 153  33 81 153  33 81 153
33 81 153  33 81 153  33 81 153  33 81 153  33 81 153  33 81 153
33 81 153  33 81 153  33 81 153  33 81 153  33 81 153  33 81 153
33 81 153  33 81 153  33 81 153  33 81 153  33 81 153  30 72 137
12 30 56  0 1 2  0 0 0  0 0 0  0 0 0  0 0 0
0 0 0  0 0 0  0 0 0  0 0 0  0 0 0  0 0 0
0 0 0  0 0 0  0 0 0  0 0 0  0 0 0  0 0 0
0 0 0  0 0 0  0 0 0  0 0 0  0 0 0  0 0 0
0 0 0  0 0 0  0 0 0  0 0 0  0 0 0  0 0 0
0 0 0  0 0 0  0 0 0  0 0 0  0 0 0  0 0 0
0 0 0  0 0 0  0 0 0  0 0 0  0 0 0  0 0 0
0 0 0  0 0 0  0 0 0  0 0 0  0 0 0  2 5 9
16 39 73  29 72 136  33 81 153  33 81 153  33 81 153  33 81 153
33 81 153  33 81 153  33 81 153  33 81 153  33 81 153  33 81 153
33 81 153  33 81 153  33 81 153  31 76 144  19 48 90  4 10 18
0 0 0  0 0 0  0 0 0  0 0 0  0 0 0  0 0 0
0 0 0  0 0 0  0 0 0  0 0 0  0 0 0  0 0 0
0 0 0  0 0 0  0 0 0  0 0 0  0 0 0  0 0 0
2 5 9  26 64 121  33 81 153  33 81 153  33 81 153  33 81 153
33 81 153  33 81 153  33 81 153  33 81 153  33 81 153  33 81 153
33 81 153  33 81 153  33 81 153  33 81 153  33 81 153  33 81 153
33 81 153  33 81 153  33 81 153  33 81 153  33 81 153  29 72 136
4 11 20  0 0 0  0 0 0  0 0 0  0 0 0  0 0 0
0 0 0  0 0 0  0 0 0  0 0 0  0 0 0  0 0 0
0 0 0  0 0 0  0 0 0  0 0 0  0 0 0  0 0 0
0 0 0  0 0 0  0 0 0  0 0 0  0 0 0  0 0 0
0 0 0  0 0 0  0 0 0  0 0 0  0 0 0  0 0 0
0 0 0  0 0 0  0 0 0  0 0 0  0 0 0  0 0 0
0 0 0  0 0 0  0 0 0  0 0 0  0 0 0  0 0 0
0 0 0  0 0 0  0 0 0  0 0 0  0 0 0  0 0 0
0 0 0  4 10 18  27 67 127  33 81 153  33 81 153  33 81 153
33 81 153  33 81 153  33 81 153  33 81 153  33 81 153  33 81 153
33 81 153  33 81 153  33 81 153  33 81 153  33 81 153  33 81 153
33 81 153  33 81 153  33 81 153  33 81 153  33 81 153  33 81 153
33 81 153  33 81 153  33 81 153  25 62 117  2 4 8  0 0 0
0 0 0  0 0 0  0 0 0  0 0 0  0 0 0  0 0 0
0 0 0  0 0 0  0 0 0  0 0 0  0 0 0  0 0 0
0 0 0  0 0 0  0 0 0  0 0 0  0 0 0  0 0 0
0 0 0  0 0 0  0 0 0  0 0 0  0 0 0  0 0 0
0 0 0  0 0 0  0 0 0  0 0 0  0 0 0  0 0 0
0 0 0  0 0 0  0 0 0  0 0 0  0 0 0  0 0 0
0 0 0  0 0 0  0 0 0  0 0 0  0 0 0  0 0 0
2 6 11  25 63 118  33 81 153  33 81 153  33 81 153  33 81 153
33 81 153  33 81 153  33 81 153  33 81 153  33 81 153  33 81 153
33 81 153  33 81 153  27 66 124  3 8 16  0 0 0  0 0 0
0 0 0  1 2 4  24 59 111  33 81 153  33 81 153  33 81 153
33 81 153  33 81 153  33 81 153  33 81 153  33 81 153  33 81 153
33 81 153  33 81 153  21 51 95  0 0 0  0 0 0  0 0 0
0 0 0  0 0 0  18 43 82  33 81 153  33 81 153  33 81 153
33 81 153  33 81 153  33 81 153  33 81 153  33 81 153  33 81 153
33 81 153  33 81 153  33 81 153  19 47 89  0 0 1  0 0 0
0 0 0  0 0 0  0 0 0  0 0 0  0 0 0  0 0 0
0 0 0  0 0 0  0 0 0  0 0 0  0 0 0  0 0 0
0 0 0  0 0 0  0 0 0  0 0 0  0 0 0  0 0 0
0 0 0  0 0 0  0 0 0  0 0 0  0 0 0  0 0 0
0 0 0  0 0 0  0 0 0  0 0 0  0 0 0  0 0 0
13 33 62  33 81 153  33 81 153  33 81 153  33 81 153  33 81 153
33 81 153  33 81 153  33 81 153  33 81 153  33 81 153  33 81 153
30 75 141  6 15 28  0 0 0  0 0 0  0 0 0  0 0 0
0 0 0  0 0 0  0 0 0  0 0 0  3 8 16  28 70 131
33 81 153  33 81 153  33 81 153  33 81 153  33 81 153  33 81 153
33 81 153  33 81 153  33 81 153  33 81 153  33 81 153  32 80 151
10 24 46  0 0 0  0 0 0  0 0 0  0 0 0  0 0 0
0 0 0  0 0 0  0 0 0  17 42 80  33 81 153  33 81 153
33 81 153  33 81 153  33 81 153  33 81 153  33 81 153  33 81 153
33 81 153  33 81 153  33 81 153  28 69 131  3 9 16  0 0 0
0 0 0  0 0 0  0 0 0  0 0 0  0 0 0  0 0 0
0 0 0  0 0 0  0 0 0  0 0 0  0 0 0  0 0 0
0 0 0  0 0 0  0 0 0  4 10 18  29 71 134  33 81 153
33 81 153  33 81 153  33 81 153  33 81 153  33 81 153  33 81 153
33 81 153  33 81 153  33 81 153  33 81 153  14 35 65  0 0 0
0 0 0  0 0 0  0 0 0  0 0 0  0 0 0  0 0 0
0 0 0  0 0 0  0 0 0  0 0 0  0 0 0  0 0 0
0 0 0  0 0 0  0 0 0  0 0 0  15 37 70  33 81 153
33 81 153  33 81 153  33 81 153  33 81 153  33 81 153  33 81 153
33 81 153  33 81 153  33 81 153  33 81 153  33 81 153  13 31 59
0 0 0  0 0 0  0 0 0  0 0 0  0 0 0  0 0 0
0 0 0  0 0 0  0 0 0  0 0 0  0 0 0  0 0 0
0 0 0  0 0 0  0 0 0  0 0 0  0 0 0  6 16 29
31 76 143  33 81 153  33 81 153  33 81 153  33 81 153  33 81 153
33 81 153  33 81 153  33 81 153  33 81 153  33 81 153  32 80 151
10 26 49  0 0 0  0 0 0  0 0 0  0 0 0  0 0 0
0 0 0  0 0 0  11 27 52  33 80 152  33 81 153  33 81 153
33 81 153  33 81 153  33 81 153  33 81 153  33 81 153  33 81 153
33 81 153  33 81 153  33 81 153  33 81 153  33 81 153  33 81 153
33 81 153  33 81 153  33 81 153  33 81 153  33 81 153  33 81 153
33 81 153  33 81 153  33 81 153  33 81 153  33 81 153  33 81 153
33 81 153  33 81 153  33 81 153  33 81 153  33 81 153  33 81 153
33 81 153  33 81 153  33 81 153  33 81 153  33 81 153  33 81 153
33 81 153  33 81 153  33 81 153  33 81 153  33 81 153  33 81 153
33 81 153  33 81 153  33 81 153  33 81 153  33 81 153  33 81 153
33 81 153  33 81 153  33 81 153  33 81 153  33 81 153  33 81 153
33 81 153  33 81 153  33 81 153  33 81 153  33 81 153  33 81 153
33 81 153  33 81 153  33 81 153  33 81 153  33 81 153  33 81 153
33 81 153  33 81 153  33 81 153  33 81 153  33 81 153  32 78 148
9 21 40  0 0 0  0 0 0  0 0 0
0 0 0  0 0 0  0 0 0  0 0 0  0 0 0  17 42 80
33 81 153  33 81 153  33 81 153  33 81 153  33 81 153  33 81 153
33 81 153  33 81 153  33 81 153  33 81 153  33 81 153  33 81 153
33 81 153  33 81 153  33 81 153  33 81 153  33 81 153  33 81 153
33 81 153  33 81 153  33 81 153  33 81 153  33 81 153  33 81 153
33 81 153  33 81 153  33 81 153  33 81 153  33 81 153  33 81 153
33 81 153  33 81 153  33 81 153  33 81 153  33 81 153  29 71 133
6 15 28  0 0 0  0 0 0  0 0 0  0 0 0  0 0 0
0 0 0  0 0 0  0 0 0  0 0 0  0 0 0  0 0 0
0 0 0  0 0 0  0 0 0  0 0 0  0 0 0  0 0 0
0 0 0  0 0 0  0 0 0  0 0 0  0 0 0  0 0 0
0 0 0  0 0 0  0 0 0  0 0 0  0 0 0  0 0 0
0 0 0  0 0 0  14 34 64  32 80 151  33 81 153  33 81 153
33 81 153  33 81 153  33 81 153  33 81 153  33 81 153  33 81 153
33 81 153  33 81 153  33 81 153  33 81 153  33 81 153  33 81 153
33 81 153  33 81 153  33 81 153  33 81 153  33 81 153  33 81 153
33 81 153  33 81 153  33 81 153  33 81 153  33 81 153  33 81 153
33 81 153  33 81 153  33 81 153  33 81 153  33 81 153  33 81 153
33 81 153  33 81 153  33 81 153  18 44 84  0 0 0  0 0 0
0 0 0  0 0 0  0 0 0  0 0 0  0 0 0  0 0 0
0 0 0  0 0 0  0 0 0  0 0 0  0 0 0  0 0 0
0 0 0  0 0 0  0 0 0  0 0 0  0 0 0  0 0 0
0 0 0  0 0 0  0 0 0  0 0 0  0 0 0  0 0 0
0 0 0  0 0 0  0 0 0  0 0 0  0 0 0  0 0 0
0 0 0  0 0 0  0 0 0  0 0 0  0 0 0  0 1 1
12 30 58  30 74 140  33 81 153  33 81 153  33 81 153  33 81 153
33 81 153  33 81 153  33 81 153  33 81 153  33 81 153  33 81 153
33 81 153  33 81 153  33 81 153  33 81 153  33 81 153  33 81 153
33 81 153  33 81 153  33 81 153  33 81 153  33 81 153  33 81 153
33 81 153  33 81 153  33 81 153  33 81 153  33 81 153  33 81 153
33 81 153  33 81 153  33 81 153  33 81 153  33 81 153  33 81 153
33 81 153  33 81 153  33 81 153  33 81 153  33 81 153  33 81 153
33 81 153  33 81 153  33 81 153  33 81 153  27 67 127  8 21 39
0 0 0  0 0 0  0 0 0  0 0 0  0 0 0  0 0 0
0 0 0  0 0 0  0 0 0  0 0 0  0 0 0  0 0 0
0 0 0  0 0 0  0 0 0  0 0 0  0 0 0  0 0 0
0 0 0  0 0 0  0 0 0  0 0 0  0 0 0  0 0 0
0 0 0  0 0 0  0 0 0  0 0 0  0 0 0  0 0 0
0 0 0  0 0 0  0 0 0  0 0 0  0 0 0  0 0 0
0 0 0  0 0 0  0 0 0  0 0 0  0 0 0  0 0 0
0 0 0  0 0 0  0 0 0  0 0 0  3 8 15  22 54 101
33 81 152  33 81 153  33 81 153  33 81 153  33 81 153  33 81 153
33 81 153  33 81 153  33 81 153  33 81 153  33 81 153  33 81 153
33 81 153  33 81 153  33 81 153  33 81 153  33 81 153  25 62 118
6 14 26  0 0 0  0 0 0  0 0 0  0 0 0  0 0 0
0 0 0  0 0 0  0 0 0  0 0 0  0 0 0  0 0 0
0 0 0  0 0 0  0 0 0  0 0 0  0 0 0  0 0 0
2 5 9  26 64 121  33 81 153  33 81 153  33 81 153  33 81 153
33 81 153  33 81 153  33 81 153  33 81 153  33 81 153  33 81 153
33 81 153  33 81 153  33 81 153  33 81 153  33 81 153  33 81 153
33 81 153  33 81 153  33 81 153  33 81 153  33 81 153  29 72 136
4 11 20  0 0 0  0 0 0  0 0 0  0 0 0  0 0 0
0 0 0  0 0 0  0 0 0  0 0 0  0 0 0  0 0 0
0 0 0  0 0 0  0 0 0  0 0 0  0 0 0  0 0 0
0 0 0  0 0 0  0 0 0  0 0 0  0 0 0  0 0 0
0 0 0  0 0 0  0 0 0  0 0 0  0 0 0  0 0 0
0 0 0  0 0 0  0 0 0  0 0 0  0 0 0  0 0 0
0 0 0  0 0 0  0 0 0  0 0 0  0 0 0  0 0 0
0 0 0  0 0 0  0 0 0  0 0 0  0 0 0  0 0 0
1 2 3  19 46 88  33 81 153  33 81 153  33 81 153  33 81 153
33 81 153  33 81 153  33 81 153  33 81 153  33 81 153  33 81 153
33 81 153  33 81 153  33 81 153  33 81 153  33 81 153  33 81 153
33 81 153  33 81 153  33 81 153  33 81 153  33 81 153  33 81 153
33 81 153  33 81 153  33 81 153  17 43 81  0 0 0  0 0 0
0 0 0  0 0 0  0 0 0  0 0 0  0 0 0  0 0 0
0 0 0  0 0 0  0 0 0  0 0 0  0 0 0  0 0 0
0 0 0  0 0 0  0 0 0  0 0 0  0 0 0  0 0 0
0 0 0  0 0 0  0 0 0  0 0 0  0 0 0  0 0 0
0 0 0  0 0 0  0 0 0  0 0 0  0 0 0  0 0 0
0 0 0  0 0 0  0 0 0  0 0 0  0 0 0  0 0 0
0 0 0  0 0 0  0 0 0  0 0 0  0 0 0  0 0 0
12 30 56  32 80 151  33 81 153  33 81 153  33 81 153  33 81 153
33 81 153  33 81 153  33 81 153  33 81 153  33 81 153  33 81 153
33 81 153  33 80 151  13 33 62  0 0 0  0 0 0  0 0 0
0 0 0  1 2 4  24 59 111  33 81 153  33 81 153  33 81 153
33 81 153  33 81 153  33 81 153  33 81 153  33 81 153  33 81 153
33 81 153  33 81 153  21 51 95  0 0 0  0 0 0  0 0 0
0 0 0  0 0 0  6 14 26  29 72 136  33 81 153  33 81 153
33 81 153  33 81 153  33 81 153  33 81 153  33 81 153  33 81 153
33 81 153  33 81 153  33 81 153  30 73 137  6 14 26  0 0 0
0 0 0  0 0 0  0 0 0  0 0 0  0 0 0  0 0 0
0 0 0  0 0 0  0 0 0  0 0 0  0 0 0  0 0 0
0 0 0  0 0 0  0 0 0  0 0 0  0 0 0  0 0 0
0 0 0  0 0 0  0 0 0  0 0 0  0 0 0  0 0 0
0 0 0  0 0 0  0 0 0  0 0 0  0 0 0  0 1 1
21 52 98  33 81 153  33 81 153  33 81 153  33 81 153  33 81 153
33 81 153  33 81 153  33 81 153  33 81 153  33 81 153  33 81 153
25 63 118  2 4 8  0 0 0  0 0 0  0 0 0  0 0 0
0 0 0  0 0 0  0 0 0  0 0 0  3 8 16  28 70 131
33 81 153  33 81 153  33 81 153  33 81 153  33 81 153  33 81 153
33 81 153  33 81 153  33 81 153  33 81 153  33 81 153  32 80 151
10 24 46  0 0 0  0 0 0  0 0 0  0 0 0  0 0 0
0 0 0  0 0 0  0 0 0  10 24 45  32 79 149  33 81 153
33 81 153  33 81 153  33 81 153  33 81 153  33 81 153  33 81 153
33 81 153  33 81 153  33 81 153  32 78 147  9 21 40  0 0 0
0 0 0  0 0 0  0 0 0  0 0 0  0 0 0  0 0 0
0 0 0  0 0 0  0 0 0  0 0 0  0 0 0  0 0 0
0 0 0  0 0 0  0 0 0  4 10 18  29 71 134  33 81 153
33 81 153  33 81 153  33 81 153  33 81 153  33 81 153  33 81 153
33 81 153  33 81 153  33 81 153  33 81 153  14 35 65  0 0 0
0 0 0  0 0 0  0 0 0  0 0 0  0 0 0  0 0 0
0 0 0  0 0 0  0 0 0  0 0 0  0 0 0  0 0 0
0 0 0  0 0 0  0 0 0  0 0 0  15 37 70  33 81 153
33 81 153  33 81 153  33 81 153  33 81 153  33 81 153  33 81 153
33 81 153  33 81 153  33 81 153  33 81 153  33 81 153  13 31 59
0 0 0  0 0 0  0 0 0  0 0 0  0 0 0  0 0 0
0 0 0  0 0 0  0 0 0  0 0 0  0 0 0  0 0 0
0 0 0  0 0 0  0 0 0  0 0 0  0 0 0  6 15 29
31 76 143  33 81 153  33 81 153  33 81 153  33 81 153  33 81 153
33 81 153  33 81 153  33 81 153  33 81 153  33 81 153  32 80 151
10 26 49  0 0 0  0 0 0  0 0 0  0 0 0  0 0 0
0 0 0  0 0 0  11 27 52  33 80 152  33 81 153  33 81 153
33 81 153  33 81 153  33 81 153  33 81 153  33 81 153  33 81 153
33 81 153  33 81 153  33 81 153  33 81 153  33 81 153  33 81 153
33 81 153  33 81 153  33 81 153  33 81 153  33 81 153  33 81 153
33 81 153  33 81 153  33 81 153  33 81 153  33 81 153  33 81 153
33 81 153  33 81 153  33 81 153  33 81 153  33 81 153  33 81 153
33 81 153  33 81 153  33 81 153  33 81 153  33 81 153  33 81 153
33 81 153  33 81 153  33 81 153  33 81 153  33 81 153  33 81 153
33 81 153  33 81 153  33 81 153  33 81 153  33 81 153  33 81 153
33 81 153  33 81 153  33 81 153  33 81 153  33 81 153  33 81 153
33 81 153  33 81 153  33 81 153  33 81 153  33 81 153  33 81 153
33 81 153  33 81 153  33 81 153  33 81 153  33 81 153  33 81 153
33 81 153  33 81 153  33 81 153  33 81 153  33 81 153  32 78 148
9 21 40  0 0 0  0 0 0  0 0 0
0 0 0  0 0 0  0 0 0  0 0 0  0 0 0  20 49 92
33 81 153  33 81 153  33 81 153  33 81 153  33 81 153  33 81 153
33 81 153  33 81 153  33 81 153  33 81 153  33 81 153  33 81 153
33 81 153  33 81 153  33 81 153  33 81 153  33 81 153  33 81 153
33 81 153  33 81 153  33 81 153  33 81 153  33 81 153  33 81 153
33 81 153  33 81 153  33 81 153  33 81 153  33 81 153  33 81 153
33 81 153  33 81 153  33 81 153  33 81 153  33 81 153  33 81 153
23 55 104  2 4 8  0 0 0  0 0 0  0 0 0  0 0 0
0 0 0  0 0 0  0 0 0  0 0 0  0 0 0  0 0 0
0 0 0  0 0 0  0 0 0  0 0 0  0 0 0  0 0 0
0 0 0  0 0 0  0 0 0  0 0 0  0 0 0  0 0 0
0 0 0  0 0 0  0 0 0  0 0 0  0 0 0  0 0 0
0 0 0  7 17 32  29 72 136  33 81 153  33 81 153  33 81 153
33 81 153  33 81 153  33 81 153  33 81 153  33 81 153  33 81 153
33 81 153  33 81 153  33 81 153  33 81 153  33 81 153  33 81 153
33 81 153  33 81 153  33 81 153  33 81 153  33 81 153  33 81 153
33 81 153  33 81 153  33 81 153  33 81 153  33 81 153  33 81 153
33 81 153  33 81 153  33 81 153  33 81 153  33 81 153  33 81 153
33 81 153  33 81 153  33 81 153  21 51 97  0 0 1  0 0 0
0 0 0  0 0 0  0 0 0  0 0 0  0 0 0  0 0 0
0 0 0  0 0 0  0 0 0  0 0 0  0 0 0  0 0 0
0 0 0  0 0 0  0 0 0  0 0 0  0 0 0  0 0 0
0 0 0  0 0 0  0 0 0  0 0 0  0 0 0  0 0 0
0 0 0  0 0 0  0 0 0  0 0 0  0 0 0  0 0 0
0 0 0  0 0 0  0 0 0  0 0 0  0 0 0  0 0 0
0 0 0  10 25 47  29 72 136  33 81 153  33 81 153  33 81 153
33 81 153  33 81 153  33 81 153  33 81 153  33 81 153  33 81 153
33 81 153  33 81 153  33 81 153  33 81 153  33 81 153  33 81 153
33 81 153  33 81 153  33 81 153  33 81 153  33 81 153  33 81 153
33 81 153  33 81 153  33 81 153  33 81 153  33 81 153  33 81 153
33 81 153  33 81 153  33 81 153  33 81 153  33 81 153  33 81 153
33 81 153  33 81 153  33 81 153  33 81 153  33 81 153  33 81 153
33 81 153  33 81 153  33 81 153  26 64 121  6 15 29  0 0 0
0 0 0  0 0 0  0 0 0  0 0 0  0 0 0  0 0 0
0 0 0  0 0 0  0 0 0  0 0 0  0 0 0  0 0 0
0 0 0  0 0 0  0 0 0  0 0 0  0 0 0  0 0 0
0 0 0  0 0 0  0 0 0  0 0 0  0 0 0  0 0 0
0 0 0  0 0 0  0 0 0  0 0 0  0 0 0  0 0 0
0 0 0  0 0 0  0 0 0  0 0 0  0 0 0  0 0 0
0 0 0  0 0 0  0 0 0  0 0 0  0 0 0  0 0 0
0 0 0  0 0 0  0 0 0  2 4 8  21 52 99  33 81 153
33 81 153  33 81 153  33 81 153  33 81 153  33 81 153  33 81 153
33 81 153  33 81 153  33 81 153  33 81 153  33 81 153  33 81 153
33 81 153  33 81 153  33 81 153  33 81 153  33 81 153  33 81 153
25 61 115  3 8 15  0 0 0  0 0 0  0 0 0  0 0 0
0 0 0  0 0 0  0 0 0  0 0 0  0 0 0  0 0 0
0 0 0  0 0 0  0 0 0  0 0 0  0 0 0  0 0 0
2 5 9  26 64 121  33 81 153  33 81 153  33 81 153  33 81 153
33 81 153  33 81 153  33 81 153  33 81 153  33 81 153  33 81 153
33 81 153  33 81 153  33 81 153  33 81 153  33 81 153  33 81 153
33 81 153  33 81 153  33 81 153  33 81 153  33 81 153  29 72 136
4 11 20  0 0 0  0 0 0  0 0 0  0 0 0  0 0 0
0 0 0  0 0 0  0 0 0  0 0 0  0 0 0  0 0 0
0 0 0  0 0 0  0 0 0  0 0 0  0 0 0  0 0 0
0 0 0  0 0 0  0 0 0  0 0 0  0 0 0  0 0 0
0 0 0  0 0 0  0 0 0  0 0 0  0 0 0  0 0 0
0 0 0  0 0 0  0 0 0  0 0 0  0 0 0  0 0 0
0 0 0  0 0 0  0 0 0  0 0 0  0 0 0  0 0 0
0 0 0  0 0 0  0 0 0  0 0 0  0 0 0  0 1 1
15 36 68  32 78 148  33 81 153  33 81 153  33 81 153  33 81 153
33 81 153  33 81 153  33 81 153  33 81 153  33 81 153  33 81 153
33 81 153  33 81 153  33 81 153  33 81 153  33 81 153  33 81 153
33 81 153  33 81 153  33 81 153  33 81 153  33 81 153  33 81 153
33 81 153  33 81 153  32 78 146  9 21 40  0 0 0  0 0 0
0 0 0  0 0 0  0 0 0  0 0 0  0 0 0  0 0 0
0 0 0  0 0 0  0 0 0  0 0 0  0 0 0  0 0 0
0 0 0  0 0 0  0 0 0  0 0 0  0 0 0  0 0 0
0 0 0  0 0 0  0 0 0  0 0 0  0 0 0  0 0 0
0 0 0  0 0 0  0 0 0  0 0 0  0 0 0  0 0 0
0 0 0  0 0 0  0 0 0  0 0 0  0 0 0  0 0 0
0 0 0  0 0 0  0 0 0  0 0 0  0 0 0  2 5 10
25 61 116  33 81 153  33 81 153  33 81 153  33 81 153  33 81 153
33 81 153  33 81 153  33 81 153  33 81 153  33 81 153  33 81 153
33 81 153  25 62 117  2 6 11  0 0 0  0 0 0  0 0 0
0 0 0  1 2 4  24 59 111  33 81 153  33 81 153  33 81 153
33 81 153  33 81 153  33 81 153  33 81 153  33 81 153  33 81 153
33 81 153  33 81 153  21 51 95  0 0 0  0 0 0  0 0 0
0 0 0  0 0 0  0 0 0  19 45 86  33 81 153  33 81 153
33 81 153  33 81 153  33 81 153  33 81 153  33 81 153  33 81 153
33 81 153  33 81 153  33 81 153  33 81 153  17 43 80  0 0 0
0 0 0  0 0 0  0 0 0  0 0 0  0 0 0  0 0 0
0 0 0  0 0 0  0 0 0  0 0 0  0 0 0  0 0 0
0 0 0  0 0 0  0 0 0  0 0 0  0 0 0  0 0 0
0 0 0  0 0 0  0 0 0  0 0 0  0 0 0  0 0 0
0 0 0  0 0 0  0 0 0  0 0 0  0 0 0  3 8 14
28 68 128  33 81 153  33 81 153  33 81 153  33 81 153  33 81 153
33 81 153  33 81 153  33 81 153  33 81 153  33 81 153  33 81 153
19 46 86  0 0 0  0 0 0  0 0 0  0 0 0  0 0 0
0 0 0  0 0 0  0 0 0  0 0 0  3 8 16  28 70 131
33 81 153  33 81 153  33 81 153  33 81 153  33 81 153  33 81 153
33 81 153  33 81 153  33 81 153  33 81 153  33 81 153  32 80 151
10 24 46  0 0 0  0 0 0  0 0 0  0 0 0  0 0 0
0 0 0  0 0 0  0 0 0  4 10 18  29 70 133  33 81 153
33 81 153  33 81 153  33 81 153  33 81 153  33 81 153  33 81 153
33 81 153  33 81 153  33 81 153  33 81 153  15 37 71  0 0 0
0 0 0  0 0 0  0 0 0  0 0 0  0 0 0  0 0 0
0 0 0  0 0 0  0 0 0  0 0 0  0 0 0  0 0 0
0 0 0  0 0 0  0 0 0  4 10 18  29 71 134  33 81 153
33 81 153  33 81 153  33 81 153  33 81 153  33 81 153  33 81 153
33 81 153  33 81 153  33 81 153  33 81 153  14 34 65  0 0 0
0 0 0  0 0 0  0 0 0  0 0 0  0 0 0  0 0 0
0 0 0  0 0 0  0 0 0  0 0 0  0 0 0  0 0 0
0 0 0  0 0 0  0 0 0  0 0 0  15 37 70  33 81 153
33 81 153  33 81 153  33 81 153  33 81 153  33 81 153  33 81 153
33 81 153  33 81 153  33 81 153  33 81 153  33 81 153  13 31 58
0 0 0  0 0 0  0 0 0  0 0 0  0 0 0  0 0 0
0 0 0  0 0 0  0 0 0  0 0 0  0 0 0  0 0 0
0 0 0  0 0 0  0 0 0  0 0 0  0 0 0  12 28 53
32 79 149  33 81 153  33 81 153  33 81 153  33 81 153  33 81 153
33 81 153  33 81 153  33 81 153  33 81 153  33 81 153  32 80 151
10 26 49  0 0 0  0 0 0  0 0 0  0 0 0  0 0 0
0 0 0  0 0 0  11 28 52  33 81 153  33 81 153  33 81 153
33 81 153  33 81 153  33 81 153  33 81 153  33 81 153  33 81 153
33 81 153  33 81 153  33 81 153  33 81 153  33 81 153  33 81 153
33 81 153  33 81 153  33 81 153  33 81 153  33 81 153  33 81 153
33 81 153  33 81 153  33 81 153  33 81 153  33 81 153  33 81 153
33 81 153  33 81 153  33 81 153  33 81 153  33 81 153  33 81 153
33 81 153  33 81 153  33 81 153  33 81 153  33 81 153  33 81 153
33 81 153  33 81 153  33 81 153  33 81 153  33 81 153  33 81 153
33 81 153  33 81 153  33 81 153  33 81 153  33 81 153  33 81 153
33 81 153  33 81 153  33 81 153  33 81 153  33 81 153  33 81 153
33 81 153  33 81 153  33 81 153  33 81 153  33 81 153  33 81 153
33 81 153  33 81 153  33 81 153  33 81 153  33 81 153  33 81 153
33 81 153  33 81 153  33 81 153  33 81 153  33 81 153  32 79 149
9 21 40  0 0 0  0 0 0  0 0 0
0 0 0  0 0 0  0 0 0  0 0 0  0 1 2  22 55 104
33 81 153  33 81 153  33 81 153  33 81 153  33 81 153  33 81 153
33 81 153  33 81 153  33 81 153  33 81 153  33 81 153  33 81 153
33 81 153  33 81 153  33 81 153  33 81 153  33 81 153  33 81 153
33 81 153  33 81 153  33 81 153  33 81 153  33 81 153  33 81 153
33 81 153  33 81 153  33 81 153  33 81 153  33 81 153  33 81 153
33 81 153  33 81 153  33 81 153  33 81 153  33 81 153  33 81 153
33 80 152  16 39 74  0 0 1  0 0 0  0 0 0  0 0 0
0 0 0  0 0 0  0 0 0  0 0 0  0 0 0  0 0 0
0 0 0  0 0 0  0 0 0  0 0 0  0 0 0  0 0 0
0 0 0  0 0 0  0 0 0  0 0 0  0 0 0  0 0 0
0 0 0  0 0 0  0 0 0  0 0 0  0 0 0  0 0 0
3 7 13  24 59 112  33 81 153  33 81 153  33 81 153  33 81 153
33 81 153  33 81 153  33 81 153  33 81 153  33 81 153  33 81 153
33 81 153  33 81 153  33 81 153  33 81 153  33 81 153  33 81 153
33 81 153  33 81 153  33 81 153  33 81 153  33 81 153  33 81 153
33 81 153  33 81 153  33 81 153  33 81 153  33 81 153  33 81 153
33 81 153  33 81 153  33 81 153  33 81 153  33 81 153  33 81 153
33 81 153  33 81 153  33 81 153  23 57 108  1 2 3  0 0 0
0 0 0  0 0 0  0 0 0  0 0 0  0 0 0  0 0 0
0 0 0  0 0 0  0 0 0  0 0 0  0 0 0  0 0 0
0 0 0  0 0 0  0 0 0  0 0 0  0 0 0  0 0 0
0 0 0  0 0 0  0 0 0  0 0 0  0 0 0  0 0 0
0 0 0  0 0 0  0 0 0  0 0 0  0 0 0  0 0 0
0 0 0  0 0 0  0 0 0  0 0 0  0 0 0  0 0 0
0 0 0  0 0 0  9 23 43  29 72 136  33 81 153  33 81 153
33 81 153  33 81 153  33 81 153  33 81 153  33 81 153  33 81 153
33 81 153  33 81 153  33 81 153  33 81 153  33 81 153  33 81 153
33 81 153  33 81 153  33 81 153  33 81 153  33 81 153  33 81 153
33 81 153  33 81 153  33 81 153  33 81 153  33 81 153  33 81 153
33 81 153  33 81 153  33 81 153  33 81 153  33 81 153  33 81 153
33 81 153  33 81 153  33 81 153  33 81 153  33 81 153  33 81 153
33 81 153  33 81 153  26 63 119  5 13 25  0 0 0  0 0 0
0 0 0  0 0 0  0 0 0  0 0 0  0 0 0  0 0 0
0 0 0  0 0 0  0 0 0  0 0 0  0 0 0  0 0 0
0 0 0  0 0 0  0 0 0  0 0 0  0 0 0  0 0 0
0 0 0  0 0 0  0 0 0  0 0 0  0 0 0  0 0 0
0 0 0  0 0 0  0 0 0  0 0 0  0 0 0  0 0 0
0 0 0  0 0 0  0 0 0  0 0 0  0 0 0  0 0 0
0 0 0  0 0 0  0 0 0  0 0 0  0 0 0  0 0 0
0 0 0  0 0 0  0 0 0  14 34 65  33 80 152  33 81 153
33 81 153  33 81 153  33 81 153  33 81 153  33 81 153  33 81 153
33 81 153  33 81 153  33 81 153  33 81 153  33 81 153  33 81 153
33 81 153  33 81 153  33 81 153  33 81 153  33 81 153  33 81 153
33 81 153  17 42 79  0 0 0  0 0 0  0 0 0  0 0 0
0 0 0  0 0 0  0 0 0  0 0 0  0 0 0  0 0 0
0 0 0  0 0 0  0 0 0  0 0 0  0 0 0  0 0 0
2 5 9  26 64 121  33 81 153  33 81 153  33 81 153  33 81 153
33 81 153  33 81 153  33 81 153  33 81 153  33 81 153  33 81 153
33 81 153  33 81 153  33 81 153  33 81 153  33 81 153  33 81 153
33 81 153  33 81 153  33 81 153  33 81 153  33 81 153  29 72 136
4 11 20  0 0 0  0 0 0  0 0 0  0 0 0  0 0 0
0 0 0  0 0 0  0 0 0  0 0 0  0 0 0  0 0 0
0 0 0  0 0 0  0 0 0  0 0 0  0 0 0  0 0 0
0 0 0  0 0 0  0 0 0  0 0 0  0 0 0  0 0 0
0 0 0  0 0 0  0 0 0  0 0 0  0 0 0  0 0 0
0 0 0  0 0 0  0 0 0  0 0 0  0 0 0  0 0 0
0 0 0  0 0 0  0 0 0  0 0 0  0 0 0  0 0 0
0 0 0  0 0 0  0 0 0  0 0 0  2 5 10  17 41 77
32 78 146  33 81 153  33 81 153  33 81 153  33 81 153  33 81 153
33 81 153  33 81 153  33 81 153  33 81 153  33 81 153  33 81 153
33 81 153  33 81 153  33 81 153  33 81 153  33 81 153  33 81 153
33 81 153  33 81 153  33 81 153  33 81 153  33 81 153  33 81 153
33 81 153  33 81 153  25 62 116  2 4 8  0 0 0  0 0 0
0 0 0  0 0 0  0 0 0  0 0 0  0 0 0  0 0 0
0 0 0  0 0 0  0 0 0  0 0 0  0 0 0  0 0 0
0 0 0  0 0 0  0 0 0  0 0 0  0 0 0  0 0 0
0 0 0  0 0 0  0 0 0  0 0 0  0 0 0  0 0 0
0 0 0  0 0 0  0 0 0  0 0 0  0 0 0  0 0 0
0 0 0  0 0 0  0 0 0  0 0 0  0 0 0  0 0 0
0 0 0  0 0 0  0 0 0  0 0 0  0 0 0  12 28 53
32 79 149  33 81 153  33 81 153  33 81 153  33 81 153  33 81 153
33 81 153  33 81 153  33 81 153  33 81 153  33 81 153  33 81 153
32 79 149  11 28 53  0 0 0  0 0 0  0 0 0  0 0 0
0 0 0  1 2 4  24 59 111  33 81 153  33 81 153  33 81 153
33 81 153  33 81 153  33 81 153  33 81 153  33 81 153  33 81 153
33 81 153  33 81 153  21 51 95  0 0 0  0 0 0  0 0 0
0 0 0  0 0 0  0 0 0  6 16 29  30 73 139  33 81 153
33 81 153  33 81 153  33 81 153  33 81 153  33 81 153  33 81 153
33 81 153  33 81 153  33 81 153  33 81 153  28 70 132  4 11 20
0 0 0  0 0 0  0 0 0  0 0 0  0 0 0  0 0 0
0 0 0  0 0 0  0 0 0  0 0 0  0 0 0  0 0 0
0 0 0  0 0 0  0 0 0  0 0 0  0 0 0  0 0 0
0 0 0  0 0 0  0 0 0  0 0 0  0 0 0  0 0 0
0 0 0  0 0 0  0 0 0  0 0 0  0 0 0  8 21 39
32 78 147  33 81 153  33 81 153  33 81 153  33 81 153  33 81 153
33 81 153  33 81 153  33 81 153  33 81 153  33 81 153  33 80 151
11 27 52  0 0 0  0 0 0  0 0 0  0 0 0  0 0 0
0 0 0  0 0 0  0 0 0  0 0 0  3 8 16  28 70 131
33 81 153  33 81 153  33 81 153  33 81 153  33 81 153  33 81 153
33 81 153  33 81 153  33 81 153  33 81 153  33 81 153  32 80 151
10 24 46  0 0 0  0 0 0  0 0 0  0 0 0  0 0 0
0 0 0  0 0 0  0 0 0  1 2 3  22 55 104  33 81 153
33 81 153  33 81 153  33 81 153  33 81 153  33 81 153  33 81 153
33 81 153  33 81 153  33 81 153  33 81 153  22 55 103  1 1 2
0 0 0  0 0 0  0 0 0  0 0 0  0 0 0  0 0 0
0 0 0  0 0 0  0 0 0  0 0 0  0 0 0  0 0 0
0 0 0  0 0 0  0 0 0  4 10 18  29 71 134  33 81 153
33 81 153  33 81 153  33 81 153  33 81 153  33 81 153  33 81 153
33 81 153  33 81 153  33 81 153  33 81 153  25 62 116  19 46 88
19 47 89  19 47 89  19 47 89  19 47 89  19 47 89  19 47 89
19 47 89  19 47 89  19 47 89  19 47 89  19 47 89  19 47 89
19 47 89  19 47 89  19 47 89  19 46 88  25 63 118  33 81 153
33 81 153  33 81 153  33 81 153  33 81 153  33 81 153  33 81 153
33 81 153  33 81 153  33 81 153  33 81 153  33 81 153  24 60 113
19 46 88  19 47 89  19 47 89  19 47 89  19 47 89  19 47 89
19 47 89  19 47 89  19 47 89  19 47 89  19 47 89  19 47 89
19 47 89  19 47 89  19 47 89  19 47 88  20 50 95  29 72 136
33 81 153  33 81 153  33 81 153  33 81 153  33 81 153  33 81 153
33 81 153  33 81 153  33 81 153  33 81 153  33 81 153  32 80 151
10 26 49  0 0 0  0 0 0  0 0 0  0 0 0  0 0 0
0 0 0  0 0 0  5 12 23  14 35 67  15 36 68  15 36 68
15 36 68  15 36 68  15 36 68  15 36 68  15 36 68  15 36 68
15 36 68  15 36 68  15 36 68  15 36 68  15 36 68  15 36 68
15 36 68  15 36 68  15 36 68  15 36 68  15 36 68  15 36 68
15 36 68  15 36 68  15 36 68  15 36 68  15 36 68  15 36 68
15 36 68  15 36 68  15 36 68  15 36 68  15 36 68  15 36 68
15 36 68  15 36 68  15 36 68  15 36 68  15 36 68  15 36 68
15 36 68  15 36 68  15 36 68  15 36 68  15 36 68  14 35 67
18 44 83  32 78 147  33 81 153  33 81 153  33 81 153  33 81 153
33 81 153  33 81 153  33 81 153  33 81 153  33 81 153  33 81 153
33 80 152  21 51 96  14 35 67  15 36 68  15 36 68  15 36 68
15 36 68  15 36 68  15 36 68  15 36 68  15 36 68  15 36 68
15 36 68  15 36 68  15 36 68  15 36 68  15 36 68  14 35 66
4 10 18  0 0 0  0 0 0  0 0 0
0 0 0  0 0 0  0 0 0  0 0 0  1 3 6  25 61 115
33 81 153  33 81 153  33 81 153  33 81 153  33 81 153  33 81 153
33 81 153  33 81 153  33 81 153  33 81 153  33 81 153  33 81 153
33 81 153  33 81 153  33 81 153  33 81 153  33 81 153  33 81 153
33 81 153  33 81 153  33 81 153  33 81 153  33 81 153  33 81 153
33 81 153  33 81 153  33 81 153  33 81 153  33 81 153  33 81 153
33 81 153  33 81 153  33 81 153  33 81 153  33 81 153  33 81 153
33 81 153  31 76 144  11 27 51  0 0 0  0 0 0  0 0 0
0 0 0  0 0 0  0 0 0  0 0 0  0 0 0  0 0 0
0 0 0  0 0 0  0 0 0  0 0 0  0 0 0  0 0 0
0 0 0  0 0 0  0 0 0  0 0 0  0 0 0  0 0 0
0 0 0  0 0 0  0 0 0  0 0 0  0 0 0  1 3 5
19 47 89  33 81 153  33 81 153  33 81 153  33 81 153  33 81 153
33 81 153  33 81 153  33 81 153  33 81 153  33 81 153  33 81 153
33 81 153  33 81 153  33 81 153  33 81 153  33 81 153  33 81 153
33 81 153  33 81 153  33 81 153  33 81 153  33 81 153  33 81 153
33 81 153  33 81 153  33 81 153  33 81 153  33 81 153  33 81 153
33 81 153  33 81 153  33 81 153  33 81 153  33 81 153  33 81 153
33 81 153  33 81 153  33 81 153  25 63 118  2 4 7  0 0 0
0 0 0  0 0 0  0 0 0  0 0 0  0 0 0  0 0 0
0 0 0  0 0 0  0 0 0  0 0 0  0 0 0  0 0 0
0 0 0  0 0 0  0 0 0  0 0 0  0 0 0  0 0 0
0 0 0  0 0 0  0 0 0  0 0 0  0 0 0  0 0 0
0 0 0  0 0 0  0 0 0  0 0 0  0 0 0  0 0 0
0 0 0  0 0 0  0 0 0  0 0 0  0 0 0  0 0 0
0 0 0  0 0 0  0 0 0  10 24 46  30 74 139  33 81 153
33 81 153  33 81 153  33 81 153  33 81 153  33 81 153  33 81 153
33 81 153  33 81 153  33 81 153  33 81 153  33 81 153  33 81 153
33 81 153  33 81 153  33 81 153  33 81 153  33 81 153  33 81 153
33 81 153  33 81 153  33 81 153  33 81 153  33 81 153  33 81 153
33 81 153  33 81 153  33 81 153  33 81 153  33 81 153  33 81 153
33 81 153  33 81 153  33 81 153  33 81 153  33 81 153  33 81 153
33 81 153  27 66 124  6 14 27  0 0 0  0 0 0  0 0 0
0 0 0  0 0 0  0 0 0  0 0 0  0 0 0  0 0 0
0 0 0  0 0 0  0 0 0  0 0 0  0 0 0  0 0 0
0 0 0  0 0 0  0 0 0  0 0 0  0 0 0  0 0 0
0 0 0  0 0 0  0 0 0  0 0 0  0 0 0  0 0 0
0 0 0  0 0 0  0 0 0  0 0 0  0 0 0  0 0 0
0 0 0  0 0 0  0 0 0  0 0 0  0 0 0  0 0 0
0 0 0  0 0 0  0 0 0  0 0 0  0 0 0  0 0 0
0 0 0  0 0 0  3 7 13  27 66 124  33 81 153  33 81 153
33 81 153  33 81 153  33 81 153  33 81 153  33 81 153  33 81 153
33 81 153  33 81 153  33 81 153  33 81 153  33 81 153  33 81 153
33 81 153  33 81 153  33 81 153  33 81 153  33 81 153  33 81 153
33 81 153  28 70 132  4 10 19  0 0 0  0 0 0  0 0 0
0 0 0  0 0 0  0 0 0  0 0 0  0 0 0  0 0 0
0 0 0  0 0 0  0 0 0  0 0 0  0 0 0  0 0 0
2 5 9  26 64 121  33 81 153  33 81 153  33 81 153  33 81 153
33 81 153  33 81 153  33 81 153  33 81 153  33 81 153  33 81 153
33 81 153  33 81 153  33 81 153  33 81 153  33 81 153  33 81 153
33 81 153  33 81 153  33 81 153  33 81 153  33 81 153  29 72 136
4 11 20  0 0 0  0 0 0  0 0 0  0 0 0  0 0 0
0 0 0  0 0 0  0 0 0  0 0 0  0 0 0  0 0 0
0 0 0  0 0 0  0 0 0  0 0 0  0 0 0  0 0 0
0 0 0  0 0 0  0 0 0  0 0 0  0 0 0  0 0 0
0 0 0  0 0 0  0 0 0  0 0 0  0 0 0  0 0 0
0 0 0  0 0 0  0 0 0  0 0 0  0 0 0  0 0 0
0 0 0  0 0 0  0 0 0  0 0 0  0 0 0  0 0 0
0 0 0  0 0 0  2 6 11  10 26 49  24 59 112  33 80 152
33 81 153  33 81 153  33 81 153  33 81 153  33 81 153  33 81 153
33 81 153  33 81 153  33 81 153  33 81 153  33 81 153  33 81 153
33 81 153  33 81 153  33 81 153  33 81 153  33 81 153  33 81 153
33 81 153  33 81 153  33 81 153  33 81 153  33 81 153  33 81 153
33 81 153  33 81 152  14 34 64  0 0 0  0 0 0  0 0 0
0 0 0  0 0 0  0 0 0  0 0 0  0 0 0  0 0 0
0 0 0  0 0 0  0 0 0  0 0 0  0 0 0  0 0 0
0 0 0  0 0 0  0 0 0  0 0 0  0 0 0  0 0 0
0 0 0  0 0 0  0 0 0  0 0 0  0 0 0  0 0 0
0 0 0  0 0 0  0 0 0  0 0 0  0 0 0  0 0 0
0 0 0  0 0 0  0 0 0  0 0 0  0 0 0  0 0 0
0 0 0  0 0 0  0 0 0  0 0 0  2 4 8  24 60 113
33 81 153  33 81 153  33 81 153  33 81 153  33 81 153  33 81 153
33 81 153  33 81 153  33 81 153  33 81 153  33 81 153  33 81 153
24 58 110  2 4 7  0 0 0  0 0 0  0 0 0  0 0 0
0 0 0  1 2 4  24 59 111  33 81 153  33 81 153  33 81 153
33 81 153  33 81 153  33 81 153  33 81 153  33 81 153  33 81 153
33 81 153  33 81 153  21 51 95  0 0 0  0 0 0  0 0 0
0 0 0  0 0 0  0 0 0  0 1 1  20 48 91  33 81 153
33 81 153  33 81 153  33 81 153  33 81 153  33 81 153  33 81 153
33 81 153  33 81 153  33 81 153  33 81 153  33 81 153  15 38 71
0 0 0  0 0 0  0 0 0  0 0 0  0 0 0  0 0 0
0 0 0  0 0 0  0 0 0  0 0 0  0 0 0  0 0 0
0 0 0  0 0 0  0 0 0  0 0 0  0 0 0  0 0 0
0 0 0  0 0 0  0 0 0  0 0 0  0 0 0  0 0 0
0 0 0  0 0 0  0 0 0  0 0 0  0 0 0  16 39 73
33 81 153  33 81 153  33 81 153  33 81 153  33 81 153  33 81 153
33 81 153  33 81 153  33 81 153  33 81 153  33 81 153  30 73 137
5 12 23  0 0 0  0 0 0  0 0 0  0 0 0  0 0 0
0 0 0  0 0 0  0 0 0  0 0 0  3 8 16  28 70 131
33 81 153  33 81 153  33 81 153  33 81 153  33 81 153  33 81 153
33 81 153  33 81 153  33 81 153  33 81 153  33 81 153  32 80 151
10 24 46  0 0 0  0 0 0  0 0 0  0 0 0  0 0 0
0 0 0  0 0 0  0 0 0  0 0 0  15 36 68  33 81 153
33 81 153  33 81 153  33 81 153  33 81 153  33 81 153  33 81 153
33 81 153  33 81 153  33 81 153  33 81 153  28 69 130  3 8 15
0 0 0  0 0 0  0 0 0  0 0 0  0 0 0  0 0 0
0 0 0  0 0 0  0 0 0  0 0 0  0 0 0  0 0 0
0 0 0  0 0 0  0 0 0  4 10 18  29 71 134  33 81 153
33 81 153  33 81 153  33 81 153  33 81 153  33 81 153  33 81 153
33 81 153  33 81 153  33 81 153  33 81 153  33 81 153  33 81 153
33 81 153  33 81 153  33 81 153  33 81 153  33 81 153  33 81 153
33 81 153  33 81 153  33 81 153  33 81 153  33 81 153  33 81 153
33 81 153  33 81 153  33 81 153  33 81 153  33 81 153  33 81 153
33 81 153  33 81 153  33 81 153  33 81 153  33 81 153  33 81 153
33 81 153  33 81 153  33 81 153  33 81 153  33 81 153  33 81 153
33 81 153  33 81 153  33 81 153  33 81 153  33 81 153  33 81 153
33 81 153  33 81 153  33 81 153  33 81 153  33 81 153  33 81 153
33 81 153  33 81 153  33 81 153  33 81 153  33 81 153  33 81 153
33 81 153  33 81 153  33 81 153  33 81 153  33 81 153  33 81 153
33 81 153  33 81 153  33 81 153  33 81 153  33 81 153  33 80 151
11 26 49  0 0 0  0 0 0  0 0 0  0 0 0  0 0 0
0 0 0  0 0 0  0 0 0  0 0 0  0 0 0  0 0 0
0 0 0  0 0 0  0 0 0  0 0 0  0 0 0  0 0 0
0 0 0  0 0 0  0 0 0  0 0 0  0 0 0  0 0 0
0 0 0  0 0 0  0 0 0  0 0 0  0 0 0  0 0 0
0 0 0  0 0 0  0 0 0  0 0 0  0 0 0  0 0 0
0 0 0  0 0 0  0 0 0  0 0 0  0 0 0  0 0 0
0 0 0  0 0 0  0 0 0  0 0 0  0 0 0  0 0 0
0 0 0  0 0 0  0 0 0  0 0 0  0 0 0  0 0 0
6 14 26  31 75 142  33 81 153  33 81 153  33 81 153  33 81 153
33 81 153  33 81 153  33 81 153  33 81 153  33 81 153  33 81 153
33 80 151  10 26 49  0 0 0  0 0 0  0 0 0  0 0 0
0 0 0  0 0 0  0 0 0  0 0 0  0 0 0  0 0 0
0 0 0  0 0 0  0 0 0  0 0 0  0 0 0  0 0 0
0 0 0  0 0 0  0 0 0  0 0 0
0 0 0  0 0 0  0 0 0  0 0 0  2 6 11  27 66 125
33 81 153  33 81 153  33 81 153  33 81 153  33 81 153  33 81 153
33 81 153  33 81 153  33 81 153  33 81 153  33 81 153  33 81 153
33 81 153  33 81 153  33 81 153  33 81 153  33 81 153  33 81 153
33 81 153  33 81 153  33 81 153  33 81 153  33 81 153  33 81 153
33 81 153  33 81 153  33 81 153  33 81 153  33 81 153  33 81 153
33 81 153  33 81 153  33 81 153  33 81 153  33 81 153  33 81 153
33 81 153  33 81 153  29 71 135  8 20 38  0 0 0  0 0 0
0 0 0  0 0 0  0 0 0  0 0 0  0 0 0  0 0 0
0 0 0  0 0 0  0 0 0  0 0 0  0 0 0  0 0 0
0 0 0  0 0 0  0 0 0  0 0 0  0 0 0  0 0 0
0 0 0  0 0 0  0 0 0  0 0 0  0 1 2  16 39 73
32 79 150  33 81 153  33 81 153  33 81 153  33 81 153  33 81 153
33 81 153  33 81 153  33 81 153  33 81 153  33 81 153  33 81 153
33 81 153  33 81 153  33 81 153  33 81 153  33 81 153  33 81 153
33 81 153  33 81 153  33 81 153  33 81 153  33 81 153  33 81 153
33 81 153  33 81 153  33 81 153  33 81 153  33 81 153  33 81 153
33 81 153  33 81 153  33 81 153  33 81 153  33 81 153  33 81 153
33 81 153  33 81 153  33 81 153  28 68 128  3 7 13  0 0 0
0 0 0  0 0 0  0 0 0  0 0 0  0 0 0  0 0 0
0 0 0  0 0 0  0 0 0  0 0 0  0 0 0  0 0 0
0 0 0  0 0 0  0 0 0  0 0 0  0 0 0  0 0 0
0 0 0  0 0 0  0 0 0  0 0 0  0 0 0  0 0 0
0 0 0  0 0 0  0 0 0  0 0 0  0 0 0  0 0 0
0 0 0  0 0 0  0 0 0  0 0 0  0 0 0  0 0 0
0 0 0  0 0 0  0 0 0  0 0 0  12 30 57  31 77 146
33 81 153  33 81 153  33 81 153  33 81 153  33 81 153  33 81 153
33 81 153  33 81 153  33 81 153  33 81 153  33 81 153  33 81 153
33 81 153  33 81 153  33 81 153  33 81 153  33 81 153  33 81 153
33 81 153  33 81 153  33 81 153  33 81 153  33 81 153  33 81 153
33 81 153  33 81 153  33 81 153  33 81 153  33 81 153  33 81 153
33 81 153  33 81 153  33 81 153  33 81 153  33 81 153  33 81 153
29 71 133  7 18 34  0 0 0  0 0 0  0 0 0  0 0 0
0 0 0  0 0 0  0 0 0  0 0 0  0 0 0  0 0 0
0 0 0  0 0 0  0 0 0  0 0 0  0 0 0  0 0 0
0 0 0  0 0 0  0 0 0  0 0 0  0 0 0  0 0 0
0 0 0  0 0 0  0 0 0  0 0 0  0 0 0  0 0 0
0 0 0  0 0 0  0 0 0  0 0 0  0 0 0  0 0 0
0 0 0  0 0 0  0 0 0  0 0 0  0 0 0  0 0 0
0 0 0  0 0 0  0 0 0  0 0 0  0 0 0  0 0 0
0 0 0  0 0 0  6 14 27  31 75 142  33 81 153  33 81 153
33 81 153  33 81 153  33 81 153  33 81 153  33 81 153  33 81 153
33 81 153  33 81 153  33 81 153  33 81 153  33 81 153  33 81 153
33 81 153  33 81 153  33 81 153  33 81 153  33 81 153  33 81 153
33 81 153  31 77 145  7 17 32  0 0 0  0 0 0  0 0 0
0 0 0  0 0 0  0 0 0  0 0 0  0 0 0  0 0 0
0 0 0  0 0 0  0 0 0  0 0 0  0 0 0  0 0 0
2 5 9  26 64 121  33 81 153  33 81 153  33 81 153  33 81 153
33 81 153  33 81 153  33 81 153  33 81 153  33 81 153  33 81 153
33 81 153  33 81 153  33 81 153  33 81 153  33 81 153  33 81 153
33 81 153  33 81 153  33 81 153  33 81 153  33 81 153  29 72 136
5 12 23  0 1 1  1 1 2  1 1 2  1 1 2  1 1 2
1 1 2  1 1 2  1 1 2  1 1 2  1 1 2  1 1 2
1 1 2  1 1 2  1 1 2  1 1 2  1 1 2  1 1 2
1 1 2  1 1 2  1 1 2  1 1 2  1 1 2  1 1 2
1 1 2  1 1 2  1 1 2  1 1 2  1 1 2  1 1 2
1 1 2  1 1 2  1 1 2  1 1 2  1 1 2  1 1 2
1 2 3  1 2 4  2 4 7  3 6 12  4 10 20  7 18 34
12 29 55  19 46 86  26 65 122  32 79 149  33 81 153  33 81 153
33 81 153  33 81 153  33 81 153  33 81 153  33 81 153  33 81 153
33 81 153  33 81 153  33 81 153  33 81 153  33 81 153  33 81 153
33 81 153  33 81 153  33 81 153  33 81 153  33 81 153  33 81 153
33 81 153  33 81 153  33 81 153  33 81 153  33 81 153  33 81 153
33 81 153  27 66 125  3 8 16  0 0 0  0 0 0  0 0 0
0 0 0  0 0 0  0 0 0  0 0 0  0 0 0  0 0 0
0 0 0  0 0 0  0 0 0  0 0 0  0 0 0  0 0 0
0 0 0  0 0 0  0 0 0  0 0 0  0 0 0  0 0 0
0 0 0  0 0 0  0 0 0  0 0 0  0 0 0  0 0 0
0 0 0  0 0 0  0 0 0  0 0 0  0 0 0  0 0 0
0 0 0  0 0 0  0 0 0  0 0 0  0 0 0  0 0 0
0 0 0  0 0 0  0 0 0  0 0 0  11 27 50  32 79 149
33 81 153  33 81 153  33 81 153  33 81 153  33 81 153  33 81 153
33 81 153  33 81 153  33 81 153  33 81 153  33 81 153  31 77 146
10 24 44  0 0 0  0 0 0  0 0 0  0 0 0  0 0 0
0 0 0  1 2 4  24 59 111  33 81 153  33 81 153  33 81 153
33 81 153  33 81 153  33 81 153  33 81 153  33 81 153  33 81 153
33 81 153  33 81 153  21 51 95  0 0 0  0 0 0  0 0 0
0 0 0  0 0 0  0 0 0  0 0 0  7 17 33  30 75 141
33 81 153  33 81 153  33 81 153  33 81 153  33 81 153  33 81 153
33 81 153  33 81 153  33 81 153  33 81 153  33 81 153  27 67 126
3 8 16  0 0 0  0 0 0  0 0 0  0 0 0  0 0 0
0 0 0  0 0 0  0 0 0  0 0 0  0 0 0  0 0 0
0 0 0  0 0 0  0 0 0  0 0 0  0 0 0  0 0 0
0 0 0  0 0 0  0 0 0  0 0 0  0 0 0  0 0 0
0 0 0  0 0 0  0 0 0  0 0 0  1 2 4  23 57 108
33 81 153  33 81 153  33 81 153  33 81 153  33 81 153  33 81 153
33 81 153  33 81 153  33 81 153  33 81 153  33 81 153  24 59 112
1 3 5  0 0 0  0 0 0  0 0 0  0 0 0  0 0 0
0 0 0  0 0 0  0 0 0  0 0 0  3 8 16  28 70 131
33 81 153  33 81 153  33 81 153  33 81 153  33 81 153  33 81 153
33 81 153  33 81 153  33 81 153  33 81 153  33 81 153  32 80 151
10 24 46  0 0 0  0 0 0  0 0 0  0 0 0  0 0 0
0 0 0  0 0 0  0 0 0  0 0 0  8 19 35  31 77 145
33 81 153  33 81 153  33 81 153  33 81 153  33 81 153  33 81 153
33 81 153  33 81 153  33 81 153  33 81 153  32 78 146  8 20 38
0 0 0  0 0 0  0 0 0  0 0 0  0 0 0  0 0 0
0 0 0  0 0 0  0 0 0  0 0 0  0 0 0  0 0 0
0 0 0  0 0 0  0 0 0  4 10 18  29 71 134  33 81 153
33 81 153  33 81 153  33 81 153  33 81 153  33 81 153  33 81 153
33 81 153  33 81 153  33 81 153  33 81 153  33 81 153  33 81 153
33 81 153  33 81 153  33 81 153  33 81 153  33 81 153  33 81 153
33 81 153  33 81 153  33 81 153  33 81 153  33 81 153  33 81 153
33 81 153  33 81 153  33 81 153  33 81 153  33 81 153  33 81 153
33 81 153  33 81 153  33 81 153  33 81 153  33 81 153  33 81 153
33 81 153  33 81 153  33 81 153  33 81 153  33 81 153  33 81 153
33 81 153  33 81 153  33 81 153  33 81 153  33 81 153  33 81 153
33 81 153  33 81 153  33 81 153  33 81 153  33 81 153  33 81 153
33 81 153  33 81 153  33 81 153  33 81 153  33 81 153  33 81 153
33 81 153  33 81 153  33 81 153  33 81 153  33 81 153  33 81 153
33 81 153  33 81 153  33 81 153  33 81 153  33 81 153  33 80 152
11 27 51  0 0 0  0 0 0  0 0 0  0 0 0  0 0 0
0 0 0  0 0 0  0 0 0  0 0 0  0 0 0  0 0 0
0 0 0  0 0 0  0 0 0  0 0 0  0 0 0  0 0 0
0 0 0  0 0 0  0 0 0  0 0 0  0 0 0  0 0 0
0 0 0  0 0 0  0 0 0  0 0 0  0 0 0  0 0 0
0 0 0  0 0 0  0 0 0  0 0 0  0 0 0  0 0 0
0 0 0  0 0 0  0 0 0  0 0 0  0 0 0  0 0 0
0 0 0  0 0 0  0 0 0  0 0 0  0 0 0  0 0 0
0 0 0  0 0 0  0 0 0  0 0 0  0 0 0  0 0 0
6 15 28  31 75 142  33 81 153  33 81 153  33 81 153  33 81 153
33 81 153  33 81 153  33 81 153  33 81 153  33 81 153  33 81 153
33 80 151  11 27 50  0 0 0  0 0 0  0 0 0  0 0 0
0 0 0  0 0 0  0 0 0  0 0 0  0 0 0  0 0 0
0 0 0  0 0 0  0 0 0  0 0 0  0 0 0  0 0 0
0 0 0  0 0 0  0 0 0  0 0 0
0 0 0  0 0 0  0 0 0  0 0 0  4 9 17  29 71 133
33 81 153  33 81 153  33 81 153  33 81 153  33 81 153  33 81 153
33 81 153  33 81 153  33 81 153  33 81 153  33 81 153  33 81 153
33 81 153  33 81 153  33 81 153  33 81 153  33 81 153  33 81 153
33 81 153  33 81 153  33 81 153  33 81 153  33 81 153  33 81 153
33 81 153  33 81 153  33 81 153  33 81 153  33 81 153  33 81 153
33 81 153  33 81 153  33 81 153  33 81 153  33 81 153  33 81 153
33 81 153  33 81 153  33 81 153  28 68 128  7 18 34  0 0 0
0 0 0  0 0 0  0 0 0  0 0 0  0 0 0  0 0 0
0 0 0  0 0 0  0 0 0  0 0 0  0 0 0  0 0 0
0 0 0  0 0 0  0 0 0  0 0 0  0 0 0  0 0 0
0 0 0  0 0 0  0 0 0  0 1 1  14 35 67  32 78 147
33 81 153  33 81 153  33 81 153  33 81 153  33 81 153  33 81 153
33 81 153  33 81 153  33 81 153  33 81 153  33 81 153  33 81 153
33 81 153  33 81 153  33 81 153  33 81 153  33 81 153  33 81 153
33 81 153  33 81 153  33 81 153  33 81 153  33 81 153  33 81 153
33 81 153  33 81 153  33 81 153  33 81 153  33 81 153  33 81 153
33 81 153  33 81 153  33 81 153  33 81 153  33 81 153  33 81 153
33 81 153  33 81 153  33 81 153  29 72 136  4 11 20  0 0 0
0 0 0  0 0 0  0 0 0  0 0 0  0 0 0  0 0 0
0 0 0  0 0 0  0 0 0  0 0 0  0 0 0  0 0 0
0 0 0  0 0 0  0 0 0  0 0 0  0 0 0  0 0 0
0 0 0  0 0 0  0 0 0  0 0 0  0 0 0  0 0 0
0 0 0  0 0 0  0 0 0  0 0 0  0 0 0  0 0 0
0 0 0  0 0 0  0 0 0  0 0 0  0 0 0  0 0 0
0 0 0  0 0 0  0 0 0  0 0 0  0 1 1  16 40 75
33 80 152  33 81 153  33 81 153  33 81 153  33 81 153  33 81 153
33 81 153  33 81 153  33 81 153  33 81 153  33 81 153  33 81 153
33 81 153  33 81 153  33 81 153  33 81 153  33 81 153  33 81 153
33 81 153  33 81 153  33 81 153  33 81 153  33 81 153  33 81 153
33 81 153  33 81 153  33 81 153  33 81 153  33 81 153  33 81 153
33 81 153  33 81 153  33 81 153  33 81 153  33 81 153  31 76 144
11 27 50  0 0 0  0 0 0  0 0 0  0 0 0  0 0 0
0 0 0  0 0 0  0 0 0  0 0 0  0 0 0  0 0 0
0 0 0  0 0 0  0 0 0  0 0 0  0 0 0  0 0 0
0 0 0  0 0 0  0 0 0  0 0 0  0 0 0  0 0 0
0 0 0  0 0 0  0 0 0  0 0 0  0 0 0  0 0 0
0 0 0  0 0 0  0 0 0  0 0 0  0 0 0  0 0 0
0 0 0  0 0 0  0 0 0  0 0 0  0 0 0  0 0 0
0 0 0  0 0 0  0 0 0  0 0 0  0 0 0  0 0 0
0 0 0  0 0 0  6 15 28  31 75 142  33 81 153  33 81 153
33 81 153  33 81 153  33 81 153  33 81 153  33 81 153  33 81 153
33 81 153  33 81 153  33 81 153  33 81 153  33 81 153  33 81 153
33 81 153  33 81 153  33 81 153  33 81 153  33 81 153  33 81 153
33 81 153  31 77 145  7 17 32  0 0 0  0 0 0  0 0 0
0 0 0  0 0 0  0 0 0  0 0 0  0 0 0  0 0 0
0 0 0  0 0 0  0 0 0  0 0 0  0 0 0  0 0 0
2 5 9  26 64 121  33 81 153  33 81 153  33 81 153  33 81 153
33 81 153  33 81 153  33 81 153  33 81 153  33 81 153  33 81 153
33 81 153  33 81 153  33 81 153  33 81 153  33 81 153  33 81 153
33 81 153  33 81 153  33 81 153  33 81 153  33 81 153  32 78 148
24 59 112  23 55 104  23 56 105  23 56 105  23 56 105  23 56 105
23 56 105  23 56 105  23 56 105  23 56 105  23 56 105  23 56 105
23 56 105  23 56 105  23 56 105  23 56 105  23 56 105  23 56 105
23 56 105  23 56 105  23 56 105  23 56 105  23 56 105  23 56 105
23 56 105  23 56 105  23 56 105  23 56 105  23 56 105  23 56 105
23 56 105  23 56 105  23 56 105  23 56 105  23 56 105  23 56 106
23 57 108  24 59 112  25 62 118  27 67 126  29 72 136  31 77 145
33 80 152  33 81 153  33 81 153  33 81 153  33 81 153  33 81 153
33 81 153  33 81 153  33 81 153  33 81 153  33 81 153  33 81 153
33 81 153  33 81 153  33 81 153  33 81 153  33 81 153  33 81 153
33 81 153  33 81 153  33 81 153  33 81 153  33 81 153  33 81 153
33 81 153  33 81 153  33 81 153  33 81 153  33 81 153  33 81 153
33 80 152  14 34 64  0 0 0  0 0 0  0 0 0  0 0 0
0 0 0  0 0 0  0 0 0  0 0 0  0 0 0  0 0 0
0 0 0  0 0 0  0 0 0  0 0 0  0 0 0  0 0 0
0 0 0  0 0 0  0 0 0  0 0 0  0 0 0  0 0 0
0 0 0  0 0 0  0 0 0  0 0 0  0 0 0  0 0 0
0 0 0  0 0 0  0 0 0  0 0 0  0 0 0  0 0 0
0 0 0  0 0 0  0 0 0  0 0 0  0 0 0  0 0 0
0 0 0  0 0 0  0 0 0  2 4 7  24 58 110  33 81 153
33 81 153  33 81 153  33 81 153  33 81 153  33 81 153  33 81 153
33 81 153  33 81 153  33 81 153  33 81 153  33 81 153  22 54 101
1 2 4  0 0 0  0 0 0  0 0 0  0 0 0  0 0 0
0 0 0  1 2 4  24 59 111  33 81 153  33 81 153  33 81 153
33 81 153  33 81 153  33 81 153  33 81 153  33 81 153  33 81 153
33 81 153  33 81 153  21 51 95  0 0 0  0 0 0  0 0 0
0 0 0  0 0 0  0 0 0  0 0 0  0 1 2  21 51 95
33 81 153  33 81 153  33 81 153  33 81 153  33 81 153  33 81 153
33 81 153  33 81 153  33 81 153  33 81 153  33 81 153  33 81 152
14 33 63  0 0 0  0 0 0  0 0 0  0 0 0  0 0 0
0 0 0  0 0 0  0 0 0  0 0 0  0 0 0  0 0 0
0 0 0  0 0 0  0 0 0  0 0 0  0 0 0  0 0 0
0 0 0  0 0 0  0 0 0  0 0 0  0 0 0  0 0 0
0 0 0  0 0 0  0 0 0  0 0 0  5 11 21  29 71 135
33 81 153  33 81 153  33 81 153  33 81 153  33 81 153  33 81 153
33 81 153  33 81 153  33 81 153  33 81 153  33 81 153  17 42 79
0 0 0  0 0 0  0 0 0  0 0 0  0 0 0  0 0 0
0 0 0  0 0 0  0 0 0  0 0 0  3 8 16  28 70 131
33 81 153  33 81 153  33 81 153  33 81 153  33 81 153  33 81 153
33 81 153  33 81 153  33 81 153  33 81 153  33 81 153  32 80 151
10 24 46  0 0 0  0 0 0  0 0 0  0 0 0  0 0 0
0 0 0  0 0 0  0 0 0  0 0 0  3 6 12  27 66 124
33 81 153  33 81 153  33 81 153  33 81 153  33 81 153  33 81 153
33 81 153  33 81 153  33 81 153  33 81 153  33 81 153  15 36 68
0 0 0  0 0 0  0 0 0  0 0 0  0 0 0  0 0 0
0 0 0  0 0 0  0 0 0  0 0 0  0 0 0  0 0 0
0 0 0  0 0 0  0 0 0  4 10 18  29 71 134  33 81 153
33 81 153  33 81 153  33 81 153  33 81 153  33 81 153  33 81 153
33 81 153  33 81 153  33 81 153  33 81 153  33 81 153  33 81 153
33 81 153  33 81 153  33 81 153  33 81 153  33 81 153  33 81 153
33 81 153  33 81 153  33 81 153  33 81 153  33 81 153  33 81 153
33 81 153  33 81 153  33 81 153  33 81 153  33 81 153  33 81 153
33 81 153  33 81 153  33 81 153  33 81 153  33 81 153  33 81 153
33 81 153  33 81 153  33 81 153  33 81 153  33 81 153  33 81 153
33 81 153  33 81 153  33 81 153  33 81 153  33 81 153  33 81 153
33 81 153  33 81 153  33 81 153  33 81 153  33 81 153  33 81 153
33 81 153  33 81 153  33 81 153  33 81 153  33 81 153  33 81 153
33 81 153  33 81 153  33 81 153  33 81 153  33 81 153  33 81 153
33 81 153  33 81 153  33 81 153  33 81 153  33 81 153  32 79 149
9 23 44  0 0 0  0 0 0  0 0 0  0 0 0  0 0 0
0 0 0  0 0 0  0 0 0  0 0 0  0 0 0  0 0 0
0 0 0  0 0 0  0 0 0  0 0 0  0 0 0  0 0 0
0 0 0  0 0 0  0 0 0  0 0 0  0 0 0  0 0 0
0 0 0  0 0 0  0 0 0  0 0 0  0 0 0  0 0 0
0 0 0  0 0 0  0 0 0  0 0 0  0 0 0  0 0 0
0 0 0  0 0 0  0 0 0  0 0 0  0 0 0  0 0 0
0 0 0  0 0 0  0 0 0  0 0 0  0 0 0  0 0 0
0 0 0  0 0 0  0 0 0  0 0 0  0 0 0  0 0 0
6 15 28  31 75 142  33 81 153  33 81 153  33 81 153  33 81 153
33 81 153  33 81 153  33 81 153  33 81 153  33 81 153  33 81 153
33 80 151  11 27 50  0 0 0  0 0 0  0 0 0  0 0 0
0 0 0  0 0 0  0 0 0  0 0 0  0 0 0  0 0 0
0 0 0  0 0 0  0 0 0  0 0 0  0 0 0  0 0 0
0 0 0  0 0 0  0 0 0  0 0 0
0 0 0  0 0 0  0 0 0  0 0 0  6 14 26  30 74 140
33 81 153  33 81 153  33 81 153  33 81 153  33 81 153  33 81 153
33 81 153  33 81 153  33 81 153  33 81 153  33 81 153  33 81 153
33 81 153  33 81 153  33 81 153  33 81 153  33 81 153  33 81 153
33 81 153  33 81 153  33 81 153  33 81 153  33 81 153  33 81 153
33 81 153  33 81 153  33 81 153  33 81 153  33 81 153  33 81 153
33 81 153  33 81 153  33 81 153  33 81 153  33 81 153  33 81 153
33 81 153  33 81 153  33 81 153  33 81 153  28 68 128  8 20 38
0 0 0  0 0 0  0 0 0  0 0 0  0 0 0  0 0 0
0 0 0  0 0 0  0 0 0  0 0 0  0 0 0  0 0 0
0 0 0  0 0 0  0 0 0  0 0 0  0 0 0  0 0 0
0 0 0  0 0 0  1 2 3  15 37 70  32 78 146  33 81 153
33 81 153  33 81 153  33 81 153  33 81 153  33 81 153  33 81 153
33 81 153  33 81 153  33 81 153  33 81 153  33 81 153  33 81 153
33 81 153  33 81 153  33 81 153  33 81 153  33 81 153  33 81 153
33 81 153  33 81 153  33 81 153  33 81 153  33 81 153  33 81 153
33 81 153  33 81 153  33 81 153  33 81 153  33 81 153  33 81 153
33 81 153  33 81 153  33 81 153  33 81 153  33 81 153  33 81 153
33 81 153  33 81 153  33 81 153  31 75 142  6 15 29  0 0 0
0 0 0  0 0 0  0 0 0  0 0 0  0 0 0  0 0 0
0 0 0  0 0 0  0 0 0  0 0 0  0 0 0  0 0 0
0 0 0  0 0 0  0 0 0  0 0 0  0 0 0  0 0 0
0 0 0  0 0 0  0 0 0  0 0 0  0 0 0  0 0 0
0 0 0  0 0 0  0 0 0  0 0 0  0 0 0  0 0 0
0 0 0  0 0 0  0 0 0  0 0 0  0 0 0  0 0 0
0 0 0  0 0 0  0 0 0  0 0 0  0 0 0  2 4 8
22 54 102  33 81 153  33 81 153  33 81 153  33 81 153  33 81 153
33 81 153  33 81 153  33 81 153  33 81 153  33 81 153  33 81 153
33 81 153  33 81 153  33 81 153  33 81 153  33 81 153  33 81 153
33 81 153  33 81 153  33 81 153  33 81 153  33 81 153  33 81 153
33 81 153  33 81 153  33 81 153  33 81 153  33 81 153  33 81 153
33 81 153  33 81 153  33 81 153  33 81 153  33 80 152  16 40 75
0 0 1  0 0 0  0 0 0  0 0 0  0 0 0  0 0 0
0 0 0  0 0 0  0 0 0  0 0 0  0 0 0  0 0 0
0 0 0  0 0 0  0 0 0  0 0 0  0 0 0  0 0 0
0 0 0  0 0 0  0 0 0  0 0 0  0 0 0  0 0 0
0 0 0  0 0 0  0 0 0  0 0 0  0 0 0  0 0 0
0 0 0  0 0 0  0 0 0  0 0 0  0 0 0  0 0 0
0 0 0  0 0 0  0 0 0  0 0 0  0 0 0  0 0 0
0 0 0  0 0 0  0 0 0  0 0 0  0 0 0  0 0 0
0 0 0  0 0 0  6 14 27  31 75 142  33 81 153  33 81 153
33 81 153  33 81 153  33 81 153  33 81 153  33 81 153  33 81 153
33 81 153  33 81 153  33 81 153  33 81 153  33 81 153  33 81 153
33 81 153  33 81 153  33 81 153  33 81 153  33 81 153  33 81 153
33 81 153  31 77 145  7 17 32  0 0 0  0 0 0  0 0 0
0 0 0  0 0 0  0 0 0  0 0 0  0 0 0  0 0 0
0 0 0  0 0 0  0 0 0  0 0 0  0 0 0  0 0 0
2 5 9  26 64 121  33 81 153  33 81 153  33 81 153  33 81 153
33 81 153  33 81 153  33 81 153  33 81 153  33 81 153  33 81 153
33 81 153  33 81 153  33 81 153  33 81 153  33 81 153  33 81 153
33 81 153  33 81 153  33 81 153  33 81 153  33 81 153  33 81 153
33 81 153  33 81 153  33 81 153  33 81 153  33 81 153  33 81 153
33 81 153  33 81 153  33 81 153  33 81 153  33 81 153  33 81 153
33 81 153  33 81 153  33 81 153  33 81 153  33 81 153  33 81 153
33 81 153  33 81 153  33 81 153  33 81 153  33 81 153  33 81 153
33 81 153  33 81 153  33 81 153  33 81 153  33 81 153  33 81 153
33 81 153  33 81 153  33 81 153  33 81 153  33 81 153  33 81 153
33 81 153  33 81 153  33 81 153  33 81 153  33 81 153  33 81 153
33 81 153  33 81 153  33 81 153  33 81 153  33 81 153  33 81 153
33 81 153  33 81 153  33 81 153  33 81 153  33 81 153  33 81 153
33 81 153  33 81 153  33 81 153  33 81 153  33 81 153  33 81 153
33 81 153  33 81 153  33 81 153  33 81 153  33 81 153  33 81 153
33 81 153  33 81 153  33 81 153  33 81 153  33 81 153  33 81 153
24 59 112  2 5 10  0 0 0  0 0 0  0 0 0  0 0 0
0 0 0  0 0 0  0 0 0  0 0 0  0 0 0  0 0 0
0 0 0  0 0 0  0 0 0  0 0 0  0 0 0  0 0 0
0 0 0  0 0 0  0 0 0  0 0 0  0 0 0  0 0 0
0 0 0  0 0 0  0 0 0  0 0 0  0 0 0  0 0 0
0 0 0  0 0 0  0 0 0  0 0 0  0 0 0  0 0 0
0 0 0  0 0 0  0 0 0  0 0 0  0 0 0  0 0 0
0 0 0  0 0 0  0 0 0  10 25 48  32 78 148  33 81 153
33 81 153  33 81 153  33 81 153  33 81 153  33 81 153  33 81 153
33 81 153  33 81 153  33 81 153  33 81 153  31 75 142  8 19 37
0 0 0  0 0 0  0 0 0  0 0 0  0 0 0  0 0 0
0 0 0  1 2 4  24 59 111  33 81 153  33 81 153  33 81 153
33 81 153  33 81 153  33 81 153  33 81 153  33 81 153  33 81 153
33 81 153  33 81 153  21 51 95  0 0 0  0 0 0  0 0 0
0 0 0  0 0 0  0 0 0  0 0 0  0 0 0  8 19 37
31 76 143  33 81 153  33 81 153  33 81 153  33 81 153  33 81 153
33 81 153  33 81 153  33 81 153  33 81 153  33 81 153  33 81 153
26 63 119  2 6 11  0 0 0  0 0 0  0 0 0  0 0 0
0 0 0  0 0 0  0 0 0  0 0 0  0 0 0  0 0 0
0 0 0  0 0 0  0 0 0  0 0 0  0 0 0  0 0 0
0 0 0  0 0 0  0 0 0  0 0 0  0 0 0  0 0 0
0 0 0  0 0 0  0 0 0  0 0 0  11 26 49  32 79 150
33 81 153  33 81 153  33 81 153  33 81 153  33 81 153  33 81 153
33 81 153  33 81 153  33 81 153  33 81 153  32 79 149  10 24 44
0 0 0  0 0 0  0 0 0  0 0 0  0 0 0  0 0 0
0 0 0  0 0 0  0 0 0  0 0 0  3 8 16  28 70 131
33 81 153  33 81 153  33 81 153  33 81 153  33 81 153  33 81 153
33 81 153  33 81 153  33 81 153  33 81 153  33 81 153  32 80 151
10 24 46  0 0 0  0 0 0  0 0 0  0 0 0  0 0 0
0 0 0  0 0 0  0 0 0  0 0 0  0 0 0  20 49 93
33 81 153  33 81 153  33 81 153  33 81 153  33 81 153  33 81 153
33 81 153  33 81 153  33 81 153  33 81 153  33 81 153  22 54 101
0 1 2  0 0 0  0 0 0  0 0 0  0 0 0  0 0 0
0 0 0  0 0 0  0 0 0  0 0 0  0 0 0  0 0 0
0 0 0  0 0 0  0 0 0  4 10 18  29 71 134  33 81 153
33 81 153  33 81 153  33 81 153  33 81 153  33 81 153  33 81 153
33 81 153  33 81 153  33 81 153  33 81 153  33 81 153  33 81 153
33 81 153  33 81 153  33 81 153  33 81 153  33 81 153  33 81 153
33 81 153  33 81 153  33 81 153  33 81 153  33 81 153  33 81 153
33 81 153  33 81 153  33 81 153  33 81 153  33 81 153  33 81 153
33 81 153  33 81 153  33 81 153  33 81 153  33 81 153  33 81 153
33 81 153  33 81 153  33 81 153  33 81 153  33 81 153  33 81 153
33 81 153  33 81 153  33 81 153  33 81 153  33 81 153  33 81 153
33 81 153  33 81 153  33 81 153  33 81 153  33 81 153  33 81 153
33 81 153  33 81 153  33 81 153  33 81 153  33 81 153  33 81 153
33 81 153  33 81 153  33 81 153  33 81 153  33 81 153  33 81 153
33 81 153  33 81 153  33 81 153  33 81 153  33 81 153  30 74 140
6 14 26  0 0 0  0 0 0  0 0 0  0 0 0  0 0 0
0 0 0  0 0 0  0 0 0  0 0 0  0 0 0  0 0 0
0 0 0  0 0 0  0 0 0  0 0 0  0 0 0  0 0 0
0 0 0  0 0 0  0 0 0  0 0 0  0 0 0  0 0 0
0 0 0  0 0 0  0 0 0  0 0 0  0 0 0  0 0 0
0 0 0  0 0 0  0 0 0  0 0 0  0 0 0  0 0 0
0 0 0  0 0 0  0 0 0  0 0 0  0 0 0  0 0 0
0 0 0  0 0 0  0 0 0  0 0 0  0 0 0  0 0 0
0 0 0  0 0 0  0 0 0  0 0 0  0 0 0  0 0 0
6 15 28  31 75 142  33 81 153  33 81 153  33 81 153  33 81 153
33 81 153  33 81 153  33 81 153  33 81 153  33 81 153  33 81 153
33 80 151  11 27 50  0 0 0  0 0 0  0 0 0  0 0 0
0 0 0  0 0 0  0 0 0  0 0 0  0 0 0  0 0 0
0 0 0  0 0 0  0 0 0  0 0 0  0 0 0  0 0 0
0 0 0  0 0 0  0 0 0  0 0 0
0 0 0  0 0 0  0 0 0  0 0 0  8 18 35  31 77 146
33 81 153  33 81 153  33 81 153  33 81 153  33 81 153  33 81 153
33 81 153  33 81 153  33 81 153  33 81 153  33 81 153  33 81 153
33 81 153  33 81 153  33 81 153  33 81 153  33 81 153  33 81 153
33 81 153  33 81 153  33 81 153  33 81 153  33 81 153  33 81 153
33 81 153  33 81 153  33 81 153  33 81 153  33 81 153  33 81 153
33 81 153  33 81 153  33 81 153  33 81 153  33 81 153  33 81 153
33 81 153  33 81 153  33 81 153  33 81 153  33 81 153  29 71 135
11 28 53  0 1 1  0 0 0  0 0 0  0 0 0  0 0 0
0 0 0  0 0 0  0 0 0  0 0 0  0 0 0  0 0 0
0 0 0  0 0 0  0 0 0  0 0 0  0 0 0  0 0 0
0 0 0  2 6 11  18 44 84  32 79 149  33 81 153  33 81 153
33 81 153  33 81 153  33 81 153  33 81 153  33 81 153  33 81 153
33 81 153  33 81 153  33 81 153  33 81 153  33 81 153  33 81 153
33 81 153  33 81 153  33 81 153  33 81 153  33 81 153  33 81 153
33 81 153  33 81 153  33 81 153  33 81 153  33 81 153  33 81 153
33 81 153  33 81 153  33 81 153  33 81 153  33 81 153  33 81 153
33 81 153  33 81 153  33 81 153  33 81 153  33 81 153  33 81 153
33 81 153  33 81 153  33 81 153  32 78 148  8 20 38  0 0 0
0 0 0  0 0 0  0 0 0  0 0 0  0 0 0  0 0 0
0 0 0  0 0 0  0 0 0  0 0 0  0 0 0  0 0 0
0 0 0  0 0 0  0 0 0  0 0 0  0 0 0  0 0 0
0 0 0  0 0 0  0 0 0  0 0 0  0 0 0  0 0 0
0 0 0  0 0 0  0 0 0  0 0 0  0 0 0  0 0 0
0 0 0  0 0 0  0 0 0  0 0 0  0 0 0  0 0 0
0 0 0  0 0 0  0 0 0  0 0 0  0 0 0  0 0 0
5 13 25  28 69 130  33 81 153  33 81 153  33 81 153  33 81 153
33 81 153  33 81 153  33 81 153  33 81 153  33 81 153  33 81 153
33 81 153  33 81 153  33 81 153  33 81 153  33 81 153  33 81 153
33 81 153  33 81 153  33 81 153  33 81 153  33 81 153  33 81 153
33 81 153  33 81 153  33 81 153  33 81 153  33 81 153  33 81 153
33 81 153  33 81 153  33 81 153  33 81 153  23 57 109  2 5 10
0 0 0  0 0 0  0 0 0  0 0 0  0 0 0  0 0 0
0 0 0  0 0 0  0 0 0  0 0 0  0 0 0  0 0 0
0 0 0  0 0 0  0 0 0  0 0 0  0 0 0  0 0 0
0 0 0  0 0 0  0 0 0  0 0 0  0 0 0  0 0 0
0 0 0  0 0 0  0 0 0  0 0 0  0 0 0  0 0 0
0 0 0  0 0 0  0 0 0  0 0 0  0 0 0  0 0 0
0 0 0  0 0 0  0 0 0  0 0 0  0 0 0  0 0 0
0 0 0  0 0 0  0 0 0  0 0 0  0 0 0  0 0 0
0 0 0  0 0 0  6 14 27  31 75 142  33 81 153  33 81 153
33 81 153  33 81 153  33 81 153  33 81 153  33 81 153  33 81 153
33 81 153  33 81 153  33 81 153  33 81 153  33 81 153  33 81 153
33 81 153  33 81 153  33 81 153  33 81 153  33 81 153  33 81 153
33 81 153  31 77 145  7 17 32  0 0 0  0 0 0  0 0 0
0 0 0  0 0 0  0 0 0  0 0 0  0 0 0  0 0 0
0 0 0  0 0 0  0 0 0  0 0 0  0 0 0  0 0 0
2 5 9  26 64 121  33 81 153  33 81 153  33 81 153  33 81 153
33 81 153  33 81 153  33 81 153  33 81 153  33 81 153  33 81 153
33 81 153  33 81 153  33 81 153  33 81 153  33 81 153  33 81 153
33 81 153  33 81 153  33 81 153  33 81 153  33 81 153  33 81 153
33 81 153  33 81 153  33 81 153  33 81 153  33 81 153  33 81 153
33 81 153  33 81 153  33 81 153  33 81 153  33 81 153  33 81 153
33 81 153  33 81 153  33 81 153  33 81 153  33 81 153  33 81 153
33 81 153  33 81 153  33 81 153  33 81 153  33 81 153  33 81 153
33 81 153  33 81 153  33 81 153  33 81 153  33 81 153  33 81 153
33 81 153  33 81 153  33 81 153  33 81 153  33 81 153  33 81 153
33 81 153  33 81 153  33 81 153  33 81 153  33 81 153  33 81 153
33 81 153  33 81 153  33 81 153  33 81 153  33 81 153  33 81 153
33 81 153  33 81 153  33 81 153  33 81 153  33 81 153  33 81 153
33 81 153  33 81 153  33 81 153  33 81 153  33 81 153  33 81 153
33 81 153  33 81 153  33 81 153  33 81 153  33 81 153  33 81 153
33 81 153  33 81 153  33 81 153  33 81 153  33 81 153  30 73 139
8 19 37  0 0 0  0 0 0  0 0 0  0 0 0  0 0 0
0 0 0  0 0 0  0 0 0  0 0 0  0 0 0  0 0 0
0 0 0  0 0 0  0 0 0  0 0 0  0 0 0  0 0 0
0 0 0  0 0 0  0 0 0  0 0 0  0 0 0  0 0 0
0 0 0  0 0 0  0 0 0  0 0 0  0 0 0  0 0 0
0 0 0  0 0 0  0 0 0  0 0 0  0 0 0  0 0 0
0 0 0  0 0 0  0 0 0  0 0 0  0 0 0  0 0 0
0 0 0  0 0 0  1 3 6  23 57 108  33 81 153  33 81 153
33 81 153  33 81 153  33 81 153  33 81 153  33 81 153  33 81 153
33 81 153  33 81 153  33 81 153  33 81 153  20 49 92  0 1 2
0 0 0  0 0 0  0 0 0  0 0 0  0 0 0  0 0 0
0 0 0  1 2 4  24 59 111  33 81 153  33 81 153  33 81 153
33 81 153  33 81 153  33 81 153  33 81 153  33 81 153  33 81 153
33 81 153  33 81 153  21 51 95  0 0 0  0 0 0  0 0 0
0 0 0  0 0 0  0 0 0  0 0 0  0 0 0  1 2 3
21 53 100  33 81 153  33 81 153  33 81 153  33 81 153  33 81 153
33 81 153  33 81 153  33 81 153  33 81 153  33 81 153  33 81 153
32 79 150  12 29 54  0 0 0  0 0 0  0 0 0  0 0 0
0 0 0  0 0 0  0 0 0  0 0 0  0 0 0  0 0 0
0 0 0  0 0 0  0 0 0  0 0 0  0 0 0  0 0 0
0 0 0  0 0 0  0 0 0  0 0 0  0 0 0  0 0 0
0 0 0  0 0 0  0 0 0  0 0 0  18 45 85  33 81 153
33 81 153  33 81 153  33 81 153  33 81 153  33 81 153  33 81 153
33 81 153  33 81 153  33 81 153  33 81 153  29 70 133  4 10 18
0 0 0  0 0 0  0 0 0  0 0 0  0 0 0  0 0 0
0 0 0  0 0 0  0 0 0  0 0 0  3 8 16  28 70 131
33 81 153  33 81 153  33 81 153  33 81 153  33 81 153  33 81 153
33 81 153  33 81 153  33 81 153  33 81 153  33 81 153  32 80 151
10 24 46  0 0 0  0 0 0  0 0 0  0 0 0  0 0 0
0 0 0  0 0 0  0 0 0  0 0 0  0 0 0  12 30 57
33 81 152  33 81 153  33 81 153  33 81 153  33 81 153  33 81 153
33 81 153  33 81 153  33 81 153  33 81 153  33 81 153  28 68 128
3 7 14  0 0 0  0 0 0  0 0 0  0 0 0  0 0 0
0 0 0  0 0 0  0 0 0  0 0 0  0 0 0  0 0 0
0 0 0  0 0 0  0 0 0  4 10 18  29 71 134  33 81 153
33 81 153  33 81 153  33 81 153  33 81 153  33 81 153  33 81 153
33 81 153  33 81 153  33 81 153  33 81 153  33 81 153  33 81 153
33 81 153  33 81 153  33 81 153  33 81 153  33 81 153  33 81 153
33 81 153  33 81 153  33 81 153  33 81 153  33 81 153  33 81 153
33 81 153  33 81 153  33 81 153  33 81 153  33 81 153  33 81 153
33 81 153  33 81 153  33 81 153  33 81 153  33 81 153  33 81 153
33 81 153  33 81 153  33 81 153  33 81 153  33 81 153  33 81 153
33 81 153  33 81 153  33 81 153  33 81 153  33 81 153  33 81 153
33 81 153  33 81 153  33 81 153  33 81 153  33 81 153  33 81 153
33 81 153  33 81 153  33 81 153  33 81 153  33 81 153  33 81 153
33 81 153  33 81 153  33 81 153  33 81 153  33 81 153  33 81 153
33 81 153  33 81 153  33 81 153  33 81 153  33 81 153  23 57 107
1 3 5  0 0 0  0 0 0  0 0 0  0 0 0  0 0 0
0 0 0  0 0 0  0 0 0  0 0 0  0 0 0  0 0 0
0 0 0  0 0 0  0 0 0  0 0 0  0 0 0  0 0 0
0 0 0  0 0 0  0 0 0  0 0 0  0 0 0  0 0 0
0 0 0  0 0 0  0 0 0  0 0 0  0 0 0  0 0 0
0 0 0  0 0 0  0 0 0  0 0 0  0 0 0  0 0 0
0 0 0  0 0 0  0 0 0  0 0 0  0 0 0  0 0 0
0 0 0  0 0 0  0 0 0  0 0 0  0 0 0  0 0 0
0 0 0  0 0 0  0 0 0  0 0 0  0 0 0  0 0 0
6 15 28  31 75 142  33 81 153  33 81 153  33 81 153  33 81 153
33 81 153  33 81 153  33 81 153  33 81 153  33 81 153  33 81 153
33 80 151  11 27 50  0 0 0  0 0 0  0 0 0  0 0 0
0 0 0  0 0 0  0 0 0  0 0 0  0 0 0  0 0 0
0 0 0  0 0 0  0 0 0  0 0 0  0 0 0  0 0 0
0 0 0  0 0 0  0 0 0  0 0 0
0 0 0  0 0 0  0 0 0  0 0 0  10 24 46  32 79 150
33 81 153  33 81 153  33 81 153  33 81 153  33 81 153  33 81 153
33 81 153  33 81 153  33 81 153  33 81 153  33 81 153  33 81 153
33 81 153  33 81 153  33 81 153  33 81 153  33 81 153  33 81 153
33 81 153  33 81 153  33 81 153  33 81 153  33 81 153  33 81 153
33 81 153  33 81 153  33 81 153  33 81 153  33 81 153  33 81 153
33 81 153  33 81 153  33 81 153  33 81 153  33 81 153  33 81 153
33 81 153  33 81 153  33 81 153  33 81 153  33 81 153  33 81 153
31 77 145  17 43 81  3 7 14  0 0 0  0 0 0  0 0 0
0 0 0  0 0 0  0 0 0  0 0 0  0 0 0  0 0 0
0 0 0  0 0 0  0 0 0  0 0 0  0 0 0  0 0 0
7 17 32  24 58 110  33 81 153  33 81 153  33 81 153  33 81 153
33 81 153  33 81 153  33 81 153  33 81 153  33 81 153  33 81 153
33 81 153  33 81 153  33 81 153  33 81 153  33 81 153  33 81 153
33 81 153  33 81 153  33 81 153  33 81 153  33 81 153  33 81 153
33 81 153  33 81 153  33 81 153  33 81 153  33 81 153  33 81 153
33 81 153  33 81 153  33 81 153  33 81 153  33 81 153  33 81 153
33 81 153  33 81 153  33 81 153  33 81 153  33 81 153  33 81 153
33 81 153  33 81 153  33 81 153  33 80 151  11 26 49  0 0 0
0 0 0  0 0 0  0 0 0  0 0 0  0 0 0  0 0 0
0 0 0  0 0 0  0 0 0  0 0 0  0 0 0  0 0 0
0 0 0  0 0 0  0 0 0  0 0 0  0 0 0  0 0 0
0 0 0  0 0 0  0 0 0  0 0 0  0 0 0  0 0 0
0 0 0  0 0 0  0 0 0  0 0 0  0 0 0  0 0 0
0 0 0  0 0 0  0 0 0  0 0 0  0 0 0  0 0 0
0 0 0  0 0 0  0 0 0  0 0 0  0 0 0  0 0 0
0 0 0  13 31 59  32 79 149  33 81 153  33 81 153  33 81 153
33 81 153  33 81 153  33 81 153  33 81 153  33 81 153  33 81 153
33 81 153  33 81 153  33 81 153  33 81 153  33 81 153  33 81 153
33 81 153  33 81 153  33 81 153  33 81 153  33 81 153  33 81 153
33 81 153  33 81 153  33 81 153  33 81 153  33 81 153  33 81 153
33 81 153  33 81 153  33 81 153  30 73 139  7 17 33  0 0 0
0 0 0  0 0 0  0 0 0  0 0 0  0 0 0  0 0 0
0 0 0  0 0 0  0 0 0  0 0 0  0 0 0  0 0 0
0 0 0  0 0 0  0 0 0  0 0 0  0 0 0  0 0 0
0 0 0  0 0 0  0 0 0  0 0 0  0 0 0  0 0 0
0 0 0  0 0 0  0 0 0  0 0 0  0 0 0  0 0 0
0 0 0  0 0 0  0 0 0  0 0 0  0 0 0  0 0 0
0 0 0  0 0 0  0 0 0  0 0 0  0 0 0  0 0 0
0 0 0  0 0 0  0 0 0  0 0 0  0 0 0  0 0 0
0 0 0  0 0 0  6 14 27  31 75 142  33 81 153  33 81 153
33 81 153  33 81 153  33 81 153  33 81 153  33 81 153  33 81 153
33 81 153  33 81 153  33 81 153  33 81 153  33 81 153  33 81 153
33 81 153  33 81 153  33 81 153  33 81 153  33 81 153  33 81 153
33 81 153  31 77 145  7 17 32  0 0 0  0 0 0  0 0 0
0 0 0  0 0 0  0 0 0  0 0 0  0 0 0  0 0 0
0 0 0  0 0 0  0 0 0  0 0 0  0 0 0  0 0 0
2 5 9  26 64 121  33 81 153  33 81 153  33 81 153  33 81 153
33 81 153  33 81 153  33 81 153  33 81 153  33 81 153  33 81 153
33 81 153  33 81 153  33 81 153  33 81 153  33 81 153  33 81 153
33 81 153  33 81 153  33 81 153  33 81 153  33 81 153  33 81 153
33 81 153  33 81 153  33 81 153  33 81 153  33 81 153  33 81 153
33 81 153  33 81 153  33 81 153  33 81 153  33 81 153  33 81 153
33 81 153  33 81 153  33 81 153  33 81 153  33 81 153  33 81 153
33 81 153  33 81 153  33 81 153  33 81 153  33 81 153  33 81 153
33 81 153  33 81 153  33 81 153  33 81 153  33 81 153  33 81 153
33 81 153  33 81 153  33 81 153  33 81 153  33 81 153  33 81 153
33 81 153  33 81 153  33 81 153  33 81 153  33 81 153  33 81 153
33 81 153  33 81 153  33 81 153  33 81 153  33 81 153  33 81 153
33 81 153  33 81 153  33 81 153  33 81 153  33 81 153  33 81 153
33 81 153  33 81 153  33 81 153  33 81 153  33 81 153  33 81 153
33 81 153  33 81 153  33 81 153  33 81 153  33 81 153  33 81 153
33 81 153  33 81 153  33 81 153  33 81 153  32 79 149  14 34 65
0 0 0  0 0 0  0 0 0  0 0 0  0 0 0  0 0 0
0 0 0  0 0 0  0 0 0  0 0 0  0 0 0  0 0 0
0 0 0  0 0 0  0 0 0  0 0 0  0 0 0  0 0 0
0 0 0  0 0 0  0 0 0  0 0 0  0 0 0  0 0 0
0 0 0  0 0 0  0 0 0  0 0 0  0 0 0  0 0 0
0 0 0  0 0 0  0 0 0  0 0 0  0 0 0  0 0 0
0 0 0  0 0 0  0 0 0  0 0 0  0 0 0  0 0 0
0 0 0  0 0 0  10 24 45  32 78 147  33 81 153  33 81 153
33 81 153  33 81 153  33 81 153  33 81 153  33 81 153  33 81 153
33 81 153  33 81 153  33 81 153  30 73 137  6 15 29  0 0 0
0 0 0  0 0 0  0 0 0  0 0 0  0 0 0  0 0 0
0 0 0  1 2 4  24 59 111  33 81 153  33 81 153  33 81 153
33 81 153  33 81 153  33 81 153  33 81 153  33 81 153  33 81 153
33 81 153  33 81 153  21 51 95  0 0 0  0 0 0  0 0 0
0 0 0  0 0 0  0 0 0  0 0 0  0 0 0  0 0 0
9 21 40  31 77 145  33 81 153  33 81 153  33 81 153  33 81 153
33 81 153  33 81 153  33 81 153  33 81 153  33 81 153  33 81 153
33 81 153  24 59 112  2 4 7  0 0 0  0 0 0  0 0 0
0 0 0  0 0 0  0 0 0  0 0 0  0 0 0  0 0 0
0 0 0  0 0 0  0 0 0  0 0 0  0 0 0  0 0 0
0 0 0  0 0 0  0 0 0  0 0 0  0 0 0  0 0 0
0 0 0  0 0 0  0 0 0  2 4 8  25 62 118  33 81 153
33 81 153  33 81 153  33 81 153  33 81 153  33 81 153  33 81 153
33 81 153  33 81 153  33 81 153  33 81 153  23 56 105  1 2 3
0 0 0  0 0 0  0 0 0  0 0 0  0 0 0  0 0 0
0 0 0  0 0 0  0 0 0  0 0 0  3 8 16  28 70 131
33 81 153  33 81 153  33 81 153  33 81 153  33 81 153  33 81 153
33 81 153  33 81 153  33 81 153  33 81 153  33 81 153  32 80 151
10 24 46  0 0 0  0 0 0  0 0 0  0 0 0  0 0 0
0 0 0  0 0 0  0 0 0  0 0 0  0 0 0  6 14 26
30 74 140  33 81 153  33 81 153  33 81 153  33 81 153  33 81 153
33 81 153  33 81 153  33 81 153  33 81 153  33 81 153  31 77 146
8 19 37  0 0 0  0 0 0  0 0 0  0 0 0  0 0 0
0 0 0  0 0 0  0 0 0  0 0 0  0 0 0  0 0 0
0 0 0  0 0 0  0 0 0  4 10 18  29 71 134  33 81 153
33 81 153  33 81 153  33 81 153  33 81 153  33 81 153  33 81 153
33 81 153  33 81 153  33 81 153  33 81 153  33 81 153  33 81 153
33 81 153  33 81 153  33 81 153  33 81 153  33 81 153  33 81 153
33 81 153  33 81 153  33 81 153  33 81 153  33 81 153  33 81 153
33 81 153  33 81 153  33 81 153  33 81 153  33 81 153  33 81 153
33 81 153  33 81 153  33 81 153  33 81 153  33 81 153  33 81 153
33 81 153  33 81 153  33 81 153  33 81 153  33 81 153  33 81 153
33 81 153  33 81 153  33 81 153  33 81 153  33 81 153  33 81 153
33 81 153  33 81 153  33 81 153  33 81 153  33 81 153  33 81 153
33 81 153  33 81 153  33 81 153  33 81 153  33 81 153  33 81 153
33 81 153  33 81 153  33 81 153  33 81 153  33 81 153  33 81 153
33 81 153  33 81 153  33 81 153  33 81 153  30 74 139  9 21 40
0 0 0  0 0 0  0 0 0  0 0 0  0 0 0  0 0 0
0 0 0  0 0 0  0 0 0  0 0 0  0 0 0  0 0 0
0 0 0  0 0 0  0 0 0  0 0 0  0 0 0  0 0 0
0 0 0  0 0 0  0 0 0  0 0 0  0 0 0  0 0 0
0 0 0  0 0 0  0 0 0  0 0 0  0 0 0  0 0 0
0 0 0  0 0 0  0 0 0  0 0 0  0 0 0  0 0 0
0 0 0  0 0 0  0 0 0  0 0 0  0 0 0  0 0 0
0 0 0  0 0 0  0 0 0  0 0 0  0 0 0  0 0 0
0 0 0  0 0 0  0 0 0  0 0 0  0 0 0  0 0 0
6 15 28  31 75 142  33 81 153  33 81 153  33 81 153  33 81 153
33 81 153  33 81 153  33 81 153  33 81 153  33 81 153  33 81 153
33 80 151  11 27 50  0 0 0  0 0 0  0 0 0  0 0 0
0 0 0  0 0 0  0 0 0  0 0 0  0 0 0  0 0 0
0 0 0  0 0 0  0 0 0  0 0 0  0 0 0  0 0 0
0 0 0  0 0 0  0 0 0  0 0 0
0 0 0  0 0 0  0 0 0  0 0 0  12 30 57  33 81 153
33 81 153  33 81 153  33 81 153  33 81 153  33 81 153  33 81 153
33 81 153  33 81 153  33 81 153  33 81 153  33 81 153  33 81 153
33 81 153  33 81 153  33 81 153  33 81 153  33 81 153  33 81 153
33 81 153  33 81 153  33 81 153  33 81 153  33 81 153  33 81 153
33 81 153  33 81 153  33 81 153  33 81 153  33 81 153  33 81 153
33 81 153  33 81 153  33 81 153  33 81 153  33 81 153  33 81 153
33 81 153  33 81 153  33 81 153  33 81 153  33 81 153  33 81 153
33 81 153  33 81 153  26 63 119  11 28 52  2 4 8  0 0 0
0 0 0  0 0 0  0 0 0  0 0 0  0 0 0  0 0 0
0 0 0  0 0 0  0 0 0  0 0 0  4 10 18  16 40 75
30 72 137  33 81 153  33 81 153  33 81 153  33 81 153  33 81 153
33 81 153  33 81 153  33 81 153  33 81 153  33 81 153  33 81 153
33 81 153  33 81 153  33 81 153  33 81 153  33 81 153  33 81 153
33 81 153  33 81 153  33 81 153  33 81 153  33 81 153  33 81 153
33 81 153  33 81 153  33 81 153  33 81 153  33 81 153  33 81 153
33 81 153  33 81 153  33 81 153  33 81 153  33 81 153  33 81 153
33 81 153  33 81 153  33 81 153  33 81 153  33 81 153  33 81 153
33 81 153  33 81 153  33 81 153  33 81 153  13 32 61  0 0 0
0 0 0  0 0 0  0 0 0  0 0 0  0 0 0  0 0 0
0 0 0  0 0 0  0 0 0  0 0 0  0 0 0  0 0 0
0 0 0  0 0 0  0 0 0  0 0 0  0 0 0  0 0 0
0 0 0  0 0 0  0 0 0  0 0 0  0 0 0  0 0 0
0 0 0  0 0 0  0 0 0  0 0 0  0 0 0  0 0 0
0 0 0  0 0 0  0 0 0  0 0 0  0 0 0  0 0 0
0 0 0  0 0 0  0 0 0  0 0 0  0 0 0  0 0 0
0 0 0  1 3 7  23 56 106  33 81 153  33 81 153  33 81 153
33 81 153  33 81 153  33 81 153  33 81 153  33 81 153  33 81 153
33 81 153  33 81 153  33 81 153  33 81 153  33 81 153  33 81 153
33 81 153  33 81 153  33 81 153  33 81 153  33 81 153  33 81 153
33 81 153  33 81 153  33 81 153  33 81 153  33 81 153  33 81 153
33 81 153  33 81 153  33 81 153  17 41 77  0 0 0  0 0 0
0 0 0  0 0 0  0 0 0  0 0 0  0 0 0  0 0 0
0 0 0  0 0 0  0 0 0  0 0 0  0 0 0  0 0 0
0 0 0  0 0 0  0 0 0  0 0 0  0 0 0  0 0 0
0 0 0  0 0 0  0 0 0  0 0 0  0 0 0  0 0 0
0 0 0  0 0 0  0 0 0  0 0 0  0 0 0  0 0 0
0 0 0  0 0 0  0 0 0  0 0 0  0 0 0  0 0 0
0 0 0  0 0 0  0 0 0  0 0 0  0 0 0  0 0 0
0 0 0  0 0 0  0 0 0  0 0 0  0 0 0  0 0 0
0 0 0  0 0 0  6 14 27  31 75 142  33 81 153  33 81 153
33 81 153  33 81 153  33 81 153  33 81 153  33 81 153  33 81 153
33 81 153  33 81 153  33 81 153  33 81 153  33 81 153  33 81 153
33 81 153  33 81 153  33 81 153  33 81 153  33 81 153  33 81 153
33 81 153  31 77 145  7 17 32  0 0 0  0 0 0  0 0 0
0 0 0  0 0 0  0 0 0  0 0 0  0 0 0  0 0 0
0 0 0  0 0 0  0 0 0  0 0 0  0 0 0  0 0 0
2 5 9  26 64 121  33 81 153  33 81 153  33 81 153  33 81 153
33 81 153  33 81 153  33 81 153  33 81 153  33 81 153  33 81 153
33 81 153  33 81 153  33 81 153  33 81 153  33 81 153  33 81 153
33 81 153  33 81 153  33 81 153  33 81 153  33 81 153  33 81 153
33 81 153  33 81 153  33 81 153  33 81 153  33 81 153  33 81 153
33 81 153  33 81 153  33 81 153  33 81 153  33 81 153  33 81 153
33 81 153  33 81 153  33 81 153  33 81 153  33 81 153  33 81 153
33 81 153  33 81 153  33 81 153  33 81 153  33 81 153  33 81 153
33 81 153  33 81 153  33 81 153  33 81 153  33 81 153  33 81 153
33 81 153  33 81 153  33 81 153  33 81 153  33 81 153  33 81 153
33 81 153  33 81 153  33 81 153  33 81 153  33 81 153  33 81 153
33 81 153  33 81 153  33 81 153  33 81 153  33 81 153  33 81 153
33 81 153  33 81 153  33 81 153  33 81 153  33 81 153  33 81 153
33 81 153  33 81 153  33 81 153  33 81 153  33 81 153  33 81 153
33 81 153  33 81 153  33 81 153  33 81 153  33 81 153  33 81 153
33 81 153  33 81 153  33 81 153  33 81 152  18 44 84  1 2 4
0 0 0  0 0 0  0 0 0  0 0 0  0 0 0  0 0 0
0 0 0  0 0 0  0 0 0  0 0 0  0 0 0  0 0 0
0 0 0  0 0 0  0 0 0  0 0 0  0 0 0  0 0 0
0 0 0  0 0 0  0 0 0  0 0 0  0 0 0  0 0 0
0 0 0  0 0 0  0 0 0  0 0 0  0 0 0  0 0 0
0 0 0  0 0 0  0 0 0  0 0 0  0 0 0  0 0 0
0 0 0  0 0 0  0 0 0  0 0 0  0 0 0  0 0 0
0 0 0  1 3 5  23 56 106  33 81 153  33 81 153  33 81 153
33 81 153  33 81 153  33 81 153  33 81 153  33 81 153  33 81 153
33 81 153  33 81 153  33 81 153  18 44 82  0 0 0  0 0 0
0 0 0  0 0 0  0 0 0  0 0 0  0 0 0  0 0 0
0 0 0  1 2 4  24 59 111  33 81 153  33 81 153  33 81 153
33 81 153  33 81 153  33 81 153  33 81 153  33 81 153  33 81 153
33 81 153  33 81 153  21 51 95  0 0 0  0 0 0  0 0 0
0 0 0  0 0 0  0 0 0  0 0 0  0 0 0  0 0 0
1 2 4  22 55 104  33 81 153  33 81 153  33 81 153  33 81 153
33 81 153  33 81 153  33 81 153  33 81 153  33 81 153  33 81 153
33 81 153  32 78 148  10 24 46  0 0 0  0 0 0  0 0 0
0 0 0  0 0 0  0 0 0  0 0 0  0 0 0  0 0 0
0 0 0  0 0 0  0 0 0  0 0 0  0 0 0  0 0 0
0 0 0  0 0 0  0 0 0  0 0 0  0 0 0  0 0 0
0 0 0  0 0 0  0 0 0  6 15 29  30 75 141  33 81 153
33 81 153  33 81 153  33 81 153  33 81 153  33 81 153  33 81 153
33 81 153  33 81 153  33 81 153  33 81 153  15 37 70  0 0 0
0 0 0  0 0 0  0 0 0  0 0 0  0 0 0  0 0 0
0 0 0  0 0 0  0 0 0  0 0 0  3 8 16  28 70 131
33 81 153  33 81 153  33 81 153  33 81 153  33 81 153  33 81 153
33 81 153  33 81 153  33 81 153  33 81 153  33 81 153  32 80 151
10 24 46  0 0 0  0 0 0  0 0 0  0 0 0  0 0 0
0 0 0  0 0 0  0 0 0  0 0 0  0 0 0  1 3 7
25 61 115  33 81 153  33 81 153  33 81 153  33 81 153  33 81 153
33 81 153  33 81 153  33 81 153  33 81 153  33 81 153  33 81 153
14 35 66  0 0 0  0 0 0  0 0 0  0 0 0  0 0 0
0 0 0  0 0 0  0 0 0  0 0 0  0 0 0  0 0 0
0 0 0  0 0 0  0 0 0  4 10 18  29 72 136  33 81 153
33 81 153  33 81 153  33 81 153  33 81 153  33 81 153  33 81 153
33 81 153  33 81 153  33 81 153  33 81 153  33 81 153  33 81 153
33 81 153  33 81 153  33 81 153  33 81 153  33 81 153  33 81 153
33 81 153  33 81 153  33 81 153  33 81 153  33 81 153  33 81 153
33 81 153  33 81 153  33 81 153  33 81 153  33 81 153  33 81 153
33 81 153  33 81 153  33 81 153  33 81 153  33 81 153  33 81 153
33 81 153  33 81 153  33 81 153  33 81 153  33 81 153  33 81 153
33 81 153  33 81 153  33 81 153  33 81 153  33 81 153  33 81 153
33 81 153  33 81 153  33 81 153  33 81 153  33 81 153  33 81 153
33 81 153  33 81 153  33 81 153  33 81 153  33 81 153  33 81 153
33 81 153  33 81 153  33 81 153  33 81 153  33 81 153  33 81 153
33 81 153  33 81 153  33 80 151  27 66 124  10 25 47  0 0 0
0 0 0  0 0 0  0 0 0  0 0 0  0 0 0  0 0 0
0 0 0  0 0 0  0 0 0  0 0 0  0 0 0  0 0 0
0 0 0  0 0 0  0 0 0  0 0 0  0 0 0  0 0 0
0 0 0  0 0 0  0 0 0  0 0 0  0 0 0  0 0 0
0 0 0  0 0 0  0 0 0  0 0 0  0 0 0  0 0 0
0 0 0  0 0 0  0 0 0  0 0 0  0 0 0  0 0 0
0 0 0  0 0 0  0 0 0  0 0 0  0 0 0  0 0 0
0 0 0  0 0 0  0 0 0  0 0 0  0 0 0  0 0 0
0 0 0  0 0 0  0 0 0  0 0 0  0 0 0  0 0 0
6 15 28  31 75 142  33 81 153  33 81 153  33 81 153  33 81 153
33 81 153  33 81 153  33 81 153  33 81 153  33 81 153  33 81 153
33 80 151  11 27 50  0 0 0  0 0 0  0 0 0  0 0 0
0 0 0  0 0 0  0 0 0  0 0 0  0 0 0  0 0 0
0 0 0  0 0 0  0 0 0  0 0 0  0 0 0  0 0 0
0 0 0  0 0 0  0 0 0  0 0 0
0 0 0  0 0 0  0 0 0  0 0 0  15 37 70  33 81 153
33 81 153  33 81 153  33 81 153  33 81 153  33 81 153  33 81 153
33 81 153  33 81 153  33 81 153  33 81 153  33 81 153  33 81 153
33 81 153  33 81 153  33 81 153  33 81 153  33 81 153  33 81 153
33 81 153  33 81 153  33 81 153  33 81 153  33 81 153  33 81 153
33 81 153  33 81 153  33 81 153  33 81 153  33 81 153  33 81 153
33 81 153  33 81 153  33 81 153  33 81 153  33 81 153  33 81 153
33 81 153  33 81 153  33 81 153  33 81 153  33 81 153  33 81 153
33 81 153  33 81 153  33 81 153  32 79 149  24 60 113  13 33 62
5 12 23  1 3 5  0 0 0  0 0 0  0 0 0  0 0 0
0 0 1  2 5 10  7 18 34  17 42 79  28 68 129  33 81 153
33 81 153  33 81 153  33 81 153  33 81 153  33 81 153  33 81 153
33 81 153  33 81 153  33 81 153  33 81 153  33 81 153  33 81 153
33 81 153  33 81 153  33 81 153  33 81 153  33 81 153  33 81 153
33 81 153  33 81 153  33 81 153  33 81 153  33 81 153  33 81 153
33 81 153  33 81 153  33 81 153  33 81 153  33 81 153  33 81 153
33 81 153  33 81 153  33 81 153  33 81 153  33 81 153  33 81 153
33 81 153  33 81 153  33 81 153  33 81 153  33 81 153  33 81 153
33 81 153  33 81 153  33 81 153  33 81 153  16 39 74  0 0 0
0 0 0  0 0 0  0 0 0  0 0 0  0 0 0  0 0 0
0 0 0  0 0 0  0 0 0  0 0 0  0 0 0  0 0 0
0 0 0  0 0 0  0 0 0  0 0 0  0 0 0  0 0 0
0 0 0  0 0 0  0 0 0  0 0 0  0 0 0  0 0 0
0 0 0  0 0 0  0 0 0  0 0 0  0 0 0  0 0 0
0 0 0  0 0 0  0 0 0  0 0 0  0 0 0  0 0 0
0 0 0  0 0 0  0 0 0  0 0 0  0 0 0  0 0 0
0 0 0  0 0 0  8 21 39  31 76 144  33 81 153  33 81 153
33 81 153  33 81 153  33 81 153  33 81 153  33 81 153  33 81 153
33 81 153  33 81 153  33 81 153  33 81 153  33 81 153  33 81 153
33 81 153  33 81 153  33 81 153  33 81 153  33 81 153  33 81 153
33 81 153  33 81 153  33 81 153  33 81 153  33 81 153  33 81 153
33 81 153  33 81 153  27 67 127  4 9 17  0 0 0  0 0 0
0 0 0  0 0 0  0 0 0  0 0 0  0 0 0  0 0 0
0 0 0  0 0 0  0 0 0  0 0 0  0 0 0  0 0 0
0 0 0  0 0 0  0 0 0  0 0 0  0 0 0  0 0 0
0 0 0  0 0 0  0 0 0  0 0 0  0 0 0  0 0 0
0 0 0  0 0 0  0 0 0  0 0 0  0 0 0  0 0 0
0 0 0  0 0 0  0 0 0  0 0 0  0 0 0  0 0 0
0 0 0  0 0 0  0 0 0  0 0 0  0 0 0  0 0 0
0 0 0  0 0 0  0 0 0  0 0 0  0 0 0  0 0 0
0 0 0  0 0 0  6 14 27  31 75 142  33 81 153  33 81 153
33 81 153  33 81 153  33 81 153  33 81 153  33 81 153  33 81 153
33 81 153  33 81 153  33 81 153  33 81 153  33 81 153  33 81 153
33 81 153  33 81 153  33 81 153  33 81 153  33 81 153  33 81 153
33 81 153  31 77 145  7 17 32  0 0 0  0 0 0  0 0 0
0 0 0  0 0 0  0 0 0  0 0 0  0 0 0  0 0 0
0 0 0  0 0 0  0 0 0  0 0 0  0 0 0  0 0 0
2 5 9  26 64 121  33 81 153  33 81 153  33 81 153  33 81 153
33 81 153  33 81 153  33 81 153  33 81 153  33 81 153  33 81 153
33 81 153  33 81 153  33 81 153  33 81 153  33 81 153  33 81 153
33 81 153  33 81 153  33 81 153  33 81 153  33 81 153  33 81 153
33 81 153  33 81 153  33 81 153  33 81 153  33 81 153  33 81 153
33 81 153  33 81 153  33 81 153  33 81 153  33 81 153  33 81 153
33 81 153  33 81 153  33 81 153  33 81 153  33 81 153  33 81 153
33 81 153  33 81 153  33 81 153  33 81 153  33 81 153  33 81 153
33 81 153  33 81 153  33 81 153  33 81 153  33 81 153  33 81 153
33 81 153  33 81 153  33 81 153  33 81 153  33 81 153  33 81 153
33 81 153  33 81 153  33 81 153  33 81 153  33 81 153  33 81 153
33 81 153  33 81 153  33 81 153  33 81 153  33 81 153  33 81 153
33 81 153  33 81 153  33 81 153  33 81 153  33 81 153  33 81 153
33 81 153  33 81 153  33 81 153  33 81 153  33 81 153  33 81 153
33 81 153  33 81 153  33 81 153  33 81 153  33 81 153  33 81 153
33 81 153  33 81 153  33 81 152  20 48 91  2 4 8  0 0 0
0 0 0  0 0 0  0 0 0  0 0 0  0 0 0  0 0 0
0 0 0  0 0 0  0 0 0  0 0 0  0 0 0  0 0 0
0 0 0  0 0 0  0 0 0  0 0 0  0 0 0  0 0 0
0 0 0  0 0 0  0 0 0  0 0 0  0 0 0  0 0 0
0 0 0  0 0 0  0 0 0  0 0 0  0 0 0  0 0 0
0 0 0  0 0 0  0 0 0  0 0 0  0 0 0  0 0 0
0 0 0  0 0 0  0 0 0  0 0 0  0 0 0  0 0 0
0 0 0  9 23 43  31 77 146  33 81 153  33 81 153  33 81 153
33 81 153  33 81 153  33 81 153  33 81 153  33 81 153  33 81 153
33 81 153  33 81 153  28 70 132  5 12 23  0 0 0  0 0 0
0 0 0  0 0 0  0 0 0  0 0 0  0 0 0  0 0 0
0 0 0  1 2 4  24 59 111  33 81 153  33 81 153  33 81 153
33 81 153  33 81 153  33 81 153  33 81 153  33 81 153  33 81 153
33 81 153  33 81 153  21 51 95  0 0 0  0 0 0  0 0 0
0 0 0  0 0 0  0 0 0  0 0 0  0 0 0  0 0 0
0 0 0  10 24 44  32 78 147  33 81 153  33 81 153  33 81 153
33 81 153  33 81 153  33 81 153  33 81 153  33 81 153  33 81 153
33 81 153  33 81 153  22 55 104  1 2 4  0 0 0  0 0 0
0 0 0  0 0 0  0 0 0  0 0 0  0 0 0  0 0 0
0 0 0  0 0 0  0 0 0  0 0 0  0 0 0  0 0 0
0 0 0  0 0 0  0 0 0  0 0 0  0 0 0  0 0 0
0 0 0  0 0 0  0 0 0  13 31 59  33 81 153  33 81 153
33 81 153  33 81 153  33 81 153  33 81 153  33 81 153  33 81 153
33 81 153  33 81 153  33 81 153  32 78 146  8 20 38  0 0 0
0 0 0  0 0 0  0 0 0  0 0 0  0 0 0  0 0 0
0 0 0  0 0 0  0 0 0  0 0 0  3 8 16  28 70 131
33 81 153  33 81 153  33 81 153  33 81 153  33 81 153  33 81 153
33 81 153  33 81 153  33 81 153  33 81 153  33 81 153  32 80 151
10 24 46  0 0 0  0 0 0  0 0 0  0 0 0  0 0 0
0 0 0  0 0 0  0 0 0  0 0 0  0 0 0  0 0 0
18 43 82  33 81 153  33 81 153  33 81 153  33 81 153  33 81 153
33 81 153  33 81 153  33 81 153  33 81 153  33 81 153  33 81 153
23 55 104  1 2 3  0 0 0  0 0 0  0 0 0  0 0 0
0 0 0  0 0 0  0 0 0  0 0 0  0 0 0  0 0 0
0 0 0  0 0 0  0 0 0  3 6 12  19 47 89  22 55 103
22 54 103  22 54 103  22 54 103  22 54 103  22 54 103  22 54 103
22 54 103  22 54 103  22 54 103  22 54 103  22 54 103  22 54 103
22 54 103  22 54 103  22 54 103  22 54 103  22 54 103  22 54 103
22 54 103  22 54 103  22 54 103  22 54 103  22 54 103  22 54 103
22 54 103  22 54 103  22 54 103  22 54 101  27 67 126  33 81 153
33 81 153  33 81 153  33 81 153  33 81 153  33 81 153  33 81 153
33 81 153  33 81 153  33 81 153  33 81 153  33 81 153  26 64 122
22 54 101  22 54 103  22 54 103  22 54 103  22 54 103  22 54 103
22 54 103  22 54 103  22 54 103  22 54 103  22 54 103  22 54 103
22 54 103  22 54 103  22 54 103  22 54 103  22 54 103  22 54 103
22 54 103  22 54 103  22 54 103  22 54 103  22 54 103  22 54 103
21 53 100  18 45 85  12 28 53  3 8 16  0 0 0  0 0 0
0 0 0  0 0 0  0 0 0  0 0 0  0 0 0  0 0 0
0 0 0  0 0 0  0 0 0  0 0 0  0 0 0  0 0 0
0 0 0  0 0 0  0 0 0  0 0 0  0 0 0  0 0 0
0 0 0  0 0 0  0 0 0  0 0 0  0 0 0  0 0 0
0 0 0  0 0 0  0 0 0  0 0 0  0 0 0  0 0 0
0 0 0  0 0 0  0 0 0  0 0 0  0 0 0  0 0 0
0 0 0  0 0 0  0 0 0  0 0 0  0 0 0  0 0 0
0 0 0  0 0 0  0 0 0  0 0 0  0 0 0  0 0 0
0 0 0  0 0 0  0 0 0  0 0 0  0 0 0  0 0 0
6 15 28  31 75 142  33 81 153  33 81 153  33 81 153  33 81 153
33 81 153  33 81 153  33 81 153  33 81 153  33 81 153  33 81 153
33 80 151  11 27 50  0 0 0  0 0 0  0 0 0  0 0 0
0 0 0  0 0 0  0 0 0  0 0 0  0 0 0  0 0 0
0 0 0  0 0 0  0 0 0  0 0 0  0 0 0  0 0 0
0 0 0  0 0 0  0 0 0  0 0 0
0 0 0  0 0 0  0 0 0  0 0 0  18 44 82  33 81 153
33 81 153  33 81 153  33 81 153  33 81 153  33 81 153  33 81 153
33 81 153  33 81 153  33 81 153  33 81 153  33 81 153  33 81 153
33 81 153  33 81 153  33 81 153  33 81 153  33 81 153  33 81 153
33 81 153  33 81 153  33 81 153  33 81 153  33 81 153  33 81 153
33 81 153  33 81 153  33 81 153  33 81 153  33 81 153  33 81 153
33 81 153  33 81 153  33 81 153  33 81 153  33 81 153  33 81 153
33 81 153  33 81 153  33 81 153  33 81 153  33 81 153  33 81 153
33 81 153  33 81 153  33 81 153  33 81 153  33 81 153  33 81 152
30 73 137  24 60 113  20 48 91  17 41 77  16 39 73  17 43 80
21 52 98  26 64 122  31 76 144  33 81 153  33 81 153  33 81 153
33 81 153  33 81 153  33 81 153  33 81 153  33 81 153  33 81 153
33 81 153  33 81 153  33 81 153  33 81 153  33 81 153  33 81 153
33 81 153  33 81 153  33 81 153  33 81 153  33 81 153  33 81 153
33 81 153  33 81 153  33 81 153  33 81 153  33 81 153  33 81 153
33 81 153  33 81 153  33 81 153  33 81 153  33 81 153  33 81 153
33 81 153  33 81 153  33 81 153  33 81 153  33 81 153  33 81 153
33 81 153  33 81 153  33 81 153  33 81 153  33 81 153  33 81 153
33 81 153  33 81 153  33 81 153  33 81 153  19 46 86  0 0 0
0 0 0  0 0 0  0 0 0  0 0 0  0 0 0  0 0 0
0 0 0  0 0 0  0 0 0  0 0 0  0 0 0  0 0 0
0 0 0  0 0 0  0 0 0  0 0 0  0 0 0  0 0 0
0 0 0  0 0 0  0 0 0  0 0 0  0 0 0  0 0 0
0 0 0  0 0 0  0 0 0  0 0 0  0 0 0  0 0 0
0 0 0  0 0 0  0 0 0  0 0 0  0 0 0  0 0 0
0 0 0  0 0 0  0 0 0  0 0 0  0 0 0  0 0 0
0 0 0  0 0 0  1 2 3  21 52 98  33 81 153  33 81 153
33 81 153  33 81 153  33 81 153  33 81 153  33 81 153  33 81 153
33 81 153  33 81 153  33 81 153  33 81 153  33 81 153  33 81 153
33 81 153  33 81 153  33 81 153  33 81 153  33 81 153  33 81 153
33 81 153  33 81 153  33 81 153  33 81 153  33 81 153  33 81 153
33 81 153  33 81 153  15 36 68  0 0 0  0 0 0  0 0 0
0 0 0  0 0 0  0 0 0  0 0 0  0 0 0  0 0 0
0 0 0  0 0 0  0 0 0  0 0 0  0 0 0  0 0 0
0 0 0  0 0 0  0 0 0  0 0 0  0 0 0  0 0 0
0 0 0  0 0 0  0 0 0  0 0 0  0 0 0  0 0 0
0 0 0  0 0 0  0 0 0  0 0 0  0 0 0  0 0 0
0 0 0  0 0 0  0 0 0  0 0 0  0 0 0  0 0 0
0 0 0  0 0 0  0 0 0  0 0 0  0 0 0  0 0 0
0 0 0  0 0 0  0 0 0  0 0 0  0 0 0  0 0 0
0 0 0  0 0 0  6 14 27  31 75 142  33 81 153  33 81 153
33 81 153  33 81 153  33 81 153  33 81 153  33 81 153  33 81 153
33 81 153  33 81 153  33 81 153  33 81 153  33 81 153  33 81 153
33 81 153  33 81 153  33 81 153  33 81 153  33 81 153  33 81 153
33 81 153  31 77 145  7 17 32  0 0 0  0 0 0  0 0 0
0 0 0  0 0 0  0 0 0  0 0 0  0 0 0  0 0 0
0 0 0  0 0 0  0 0 0  0 0 0  0 0 0  0 0 0
2 5 9  26 64 121  33 81 153  33 81 153  33 81 153  33 81 153
33 81 153  33 81 153  33 81 153  33 81 153  33 81 153  33 81 153
33 81 153  33 81 153  33 81 153  33 81 153  33 81 153  33 81 153
33 81 153  33 81 153  33 81 153  33 81 153  33 81 153  33 81 153
33 81 153  33 81 153  33 81 153  33 81 153  33 81 153  33 81 153
33 81 153  33 81 153  33 81 153  33 81 153  33 81 153  33 81 153
33 81 153  33 81 153  33 81 153  33 81 153  33 81 153  33 81 153
33 81 153  33 81 153  33 81 153  33 81 153  33 81 153  33 81 153
33 81 153  33 81 153  33 81 153  33 81 153  33 81 153  33 81 153
33 81 153  33 81 153  33 81 153  33 81 153  33 81 153  33 81 153
33 81 153  33 81 153  33 81 153  33 81 153  33 81 153  33 81 153
33 81 153  33 81 153  33 81 153  33 81 153  33 81 153  33 81 153
33 81 153  33 81 153  33 81 153  33 81 153  33 81 153  33 81 153
33 81 153  33 81 153  33 81 153  33 81 153  33 81 153  33 81 153
33 81 153  33 81 153  33 81 153  33 81 153  33 81 153  33 81 153
33 81 153  32 79 149  18 44 84  2 4 8  0 0 0  0 0 0
0 0 0  0 0 0  0 0 0  0 0 0  0 0 0  0 0 0
0 0 0  0 0 0  0 0 0  0 0 0  0 0 0  0 0 0
0 0 0  0 0 0  0 0 0  0 0 0  0 0 0  0 0 0
0 0 0  0 0 0  0 0 0  0 0 0  0 0 0  0 0 0
0 0 0  0 0 0  0 0 0  0 0 0  0 0 0  0 0 0
0 0 0  0 0 0  0 0 0  0 0 0  0 0 0  0 0 0
0 0 0  0 0 0  0 0 0  0 0 0  0 0 0  0 0 0
3 8 15  24 60 113  33 81 153  33 81 153  33 81 153  33 81 153
33 81 153  33 81 153  33 81 153  33 81 153  33 81 153  33 81 153
33 81 153  33 81 153  16 39 73  0 0 0  0 0 0  0 0 0
0 0 0  0 0 0  0 0 0  0 0 0  0 0 0  0 0 0
0 0 0  1 2 4  24 59 111  33 81 153  33 81 153  33 81 153
33 81 153  33 81 153  33 81 153  33 81 153  33 81 153  33 81 153
33 81 153  33 81 153  21 51 95  0 0 0  0 0 0  0 0 0
0 0 0  0 0 0  0 0 0  0 0 0  0 0 0  0 0 0
0 0 0  1 3 6  23 57 108  33 81 153  33 81 153  33 81 153
33 81 153  33 81 153  33 81 153  33 81 153  33 81 153  33 81 153
33 81 153  33 81 153  31 77 145  10 24 44  0 0 0  0 0 0
0 0 0  0 0 0  0 0 0  0 0 0  0 0 0  0 0 0
0 0 0  0 0 0  0 0 0  0 0 0  0 0 0  0 0 0
0 0 0  0 0 0  0 0 0  0 0 0  0 0 0  0 1 2
0 1 2  0 0 0  1 2 3  20 50 95  33 81 153  33 81 153
33 81 153  33 81 153  33 81 153  33 81 153  33 81 153  33 81 153
33 81 153  33 81 153  33 81 153  27 67 127  3 7 14  0 0 0
0 0 0  0 0 0  0 0 0  0 0 0  0 0 0  0 0 0
0 0 0  0 0 0  0 0 0  0 0 0  3 8 16  28 70 131
33 81 153  33 81 153  33 81 153  33 81 153  33 81 153  33 81 153
33 81 153  33 81 153  33 81 153  33 81 153  33 81 153  32 80 151
10 24 46  0 0 0  0 0 0  0 0 0  0 0 0  0 0 0
0 0 0  0 0 0  0 0 0  0 0 0  0 0 0  0 0 0
10 25 47  32 79 149  33 81 153  33 81 153  33 81 153  33 81 153
33 81 153  33 81 153  33 81 153  33 81 153  33 81 153  33 81 153
31 77 146  13 31 58  1 2 4  0 0 1  0 1 2  0 1 2
0 0 0  0 0 0  0 0 0  0 0 0  0 0 0  0 0 0
0 0 0  0 0 0  0 0 0  0 0 0  0 1 1  0 1 2
0 1 2  0 1 2  0 1 2  0 1 2  0 1 2  0 1 2
0 1 2  0 1 2  0 1 2  0 1 2  0 1 2  0 1 2
0 1 2  0 1 2  0 1 2  0 1 2  0 1 2  0 1 2
0 1 2  0 1 2  0 1 2  0 1 2  0 1 2  0 1 2
0 1 2  0 1 2  0 1 2  0 0 0  15 38 71  33 81 153
33 81 153  33 81 153  33 81 153  33 81 153  33 81 153  33 81 153
33 81 153  33 81 153  33 81 153  33 81 153  33 81 153  13 32 60
0 0 0  0 1 2  0 1 2  0 1 2  0 1 2  0 1 2
0 1 2  0 1 2  0 1 2  0 1 2  0 1 2  0 1 2
0 1 2  0 1 2  0 1 2  0 1 2  0 1 2  0 1 2
0 1 2  0 1 2  0 1 2  0 1 2  0 1 2  0 1 2
0 1 1  0 0 0  0 0 0  0 0 0  0 0 0  0 0 0
0 0 0  0 0 0  0 0 0  0 0 0  0 0 0  0 0 0
0 0 0  0 0 0  0 0 0  0 0 0  0 0 0  0 0 0
0 0 0  0 0 0  0 0 0  0 0 0  0 0 0  0 0 0
0 0 0  0 0 0  0 0 0  0 0 0  0 0 0  0 0 0
0 0 0  0 0 0  0 0 0  0 0 0  0 0 0  0 0 0
0 0 0  0 0 0  0 0 0  0 0 0  0 0 0  0 0 0
0 0 0  0 0 0  0 0 0  0 0 0  0 0 0  0 0 0
0 0 0  0 0 0  0 0 0  0 0 0  0 0 0  0 0 0
0 0 0  0 0 0  0 0 0  0 0 0  0 0 0  0 0 0
6 15 28  31 75 142  33 81 153  33 81 153  33 81 153  33 81 153
33 81 153  33 81 153  33 81 153  33 81 153  33 81 153  33 81 153
33 80 151  11 27 50  0 0 0  0 0 0  0 0 0  0 0 0
0 0 0  0 0 0  0 0 0  0 0 0  0 0 0  0 0 0
0 0 0  0 0 0  0 0 0  0 0 0  0 0 0  0 0 0
0 0 0  0 0 0  0 0 0  0 0 0
0 0 0  0 0 0  0 0 0  0 0 0  20 50 94  33 81 153
33 81 153  33 81 153  33 81 153  33 81 153  33 81 153  33 81 153
33 81 153  33 81 153  33 81 153  33 81 153  33 81 153  33 81 153
33 81 153  33 81 153  33 81 153  33 81 153  33 81 153  33 81 153
33 81 153  33 81 153  33 81 153  33 81 153  33 81 153  33 81 153
33 81 153  33 81 153  33 81 153  33 81 153  33 81 153  33 81 153
33 81 153  33 81 153  33 81 153  33 81 153  33 81 153  33 81 153
33 81 153  33 81 153  33 81 153  33 81 153  33 81 153  33 81 153
33 81 153  33 81 153  33 81 153  33 81 153  33 81 153  33 81 153
33 81 153  33 81 153  33 81 153  33 81 153  33 81 153  33 81 153
33 81 153  33 81 153  33 81 153  33 81 153  33 81 153  33 81 153
33 81 153  33 81 153  33 81 153  33 81 153  33 81 153  33 81 153
33 81 153  33 81 153  33 81 153  33 81 153  33 81 153  33 81 153
33 81 153  33 81 153  33 81 153  33 81 153  33 81 153  33 81 153
33 81 153  33 81 153  33 81 153  33 81 153  33 81 153  33 81 153
33 81 153  33 81 153  33 81 153  33 81 153  33 81 153  33 81 153
33 81 153  33 81 153  33 81 153  33 81 153  33 81 153  33 81 153
33 81 153  33 81 153  33 81 153  33 81 153  33 81 153  33 81 153
33 81 153  33 81 153  33 81 153  33 81 153  21 52 98  0 0 1
0 0 0  0 0 0  0 0 0  0 0 0  0 0 0  0 0 0
0 0 0  0 0 0  0 0 0  0 0 0  0 0 0  0 0 0
0 0 0  0 0 0  0 0 0  0 0 0  0 0 0  0 0 0
0 0 0  0 0 0  0 0 0  0 0 0  0 0 0  0 0 0
0 0 0  0 0 0  0 0 0  0 0 0  0 0 0  0 0 0
0 0 0  0 0 0  0 0 0  0 0 0  0 0 0  0 0 0
0 0 0  0 0 0  0 0 0  0 0 0  0 0 0  0 0 0
0 0 0  0 0 0  0 0 0  9 22 41  31 77 146  33 81 153
33 81 153  33 81 153  33 81 153  33 81 153  33 81 153  33 81 153
33 81 153  33 81 153  33 81 153  33 81 153  33 81 153  33 81 153
33 81 153  33 81 153  33 81 153  33 81 153  33 81 153  33 81 153
33 81 153  33 81 153  33 81 153  33 81 153  33 81 153  33 81 153
33 81 153  28 69 130  4 10 18  0 0 0  0 0 0  0 0 0
0 0 0  0 0 0  0 0 0  0 0 0  0 0 0  0 0 0
0 0 0  0 0 0  0 0 0  0 0 0  0 0 0  0 0 0
0 0 0  0 0 0  0 0 0  0 0 0  0 0 0  0 0 0
0 0 0  0 0 0  0 0 0  0 0 0  0 0 0  0 0 0
0 0 0  0 0 0  0 0 0  0 0 0  0 0 0  0 0 0
0 0 0  0 0 0  0 0 0  0 0 0  0 0 0  0 0 0
0 0 0  0 0 0  0 0 0  0 0 0  0 0 0  0 0 0
0 0 0  0 0 0  0 0 0  0 0 0  0 0 0  0 0 0
0 0 0  0 0 0  6 14 27  31 75 142  33 81 153  33 81 153
33 81 153  33 81 153  33 81 153  33 81 153  33 81 153  33 81 153
33 81 153  33 81 153  33 81 153  33 81 153  33 81 153  33 81 153
33 81 153  33 81 153  33 81 153  33 81 153  33 81 153  33 81 153
33 81 153  31 77 145  7 17 32  0 0 0  0 0 0  0 0 0
0 0 0  0 0 0  0 0 0  0 0 0  0 0 0  0 0 0
0 0 0  0 0 0  0 0 0  0 0 0  0 0 0  0 0 0
2 5 9  26 64 121  33 81 153  33 81 153  33 81 153  33 81 153
33 81 153  33 81 153  33 81 153  33 81 153  33 81 153  33 81 153
33 81 153  33 81 153  33 81 153  33 81 153  33 81 153  33 81 153
33 81 153  33 81 153  33 81 153  33 81 153  33 81 153  33 81 153
33 81 153  33 81 153  33 81 153  33 81 153  33 81 153  33 81 153
33 81 153  33 81 153  33 81 153  33 81 153  33 81 153  33 81 153
33 81 153  33 81 153  33 81 153  33 81 153  33 81 153  33 81 153
33 81 153  33 81 153  33 81 153  33 81 153  33 81 153  33 81 153
33 81 153  33 81 153  33 81 153  33 81 153  33 81 153  33 81 153
33 81 153  33 81 153  33 81 153  33 81 153  33 81 153  33 81 153
33 81 153  33 81 153  33 81 153  33 81 153  33 81 153  33 81 153
33 81 153  33 81 153  33 81 153  33 81 153  33 81 153  33 81 153
33 81 153  33 81 153  33 81 153  33 81 153  33 81 153  33 81 153
33 81 153  33 81 153  33 81 153  33 81 153  33 81 153  33 81 153
33 81 153  33 81 153  33 81 153  33 81 153  33 81 153  33 81 153
30 74 139  14 34 65  1 2 4  0 0 0  0 0 0  0 0 0
0 0 0  0 0 0  0 0 0  0 0 0  0 0 0  0 0 0
0 0 0  0 0 0  0 0 0  0 0 0  0 0 0  0 0 0
0 0 0  0 0 0  0 0 0  0 0 0  0 0 0  0 0 0
0 0 0  0 0 0  0 0 0  0 0 0  0 0 0  0 0 0
0 0 0  0 0 0  0 0 0  0 0 0  0 0 0  0 0 0
0 0 0  0 0 0  0 0 0  0 0 0  0 0 0  0 0 0
0 0 0  0 0 0  0 0 0  0 0 0  0 1 1  6 15 29
23 57 107  33 81 153  33 81 153  33 81 153  33 81 153  33 81 153
33 81 153  33 81 153  33 81 153  33 81 153  33 81 153  33 81 153
33 81 153  27 67 126  4 9 17  0 0 0  0 0 0  0 0 0
0 0 0  0 0 0  0 0 0  0 0 0  0 0 0  0 0 0
0 0 0  1 2 4  24 59 111  33 81 153  33 81 153  33 81 153
33 81 153  33 81 153  33 81 153  33 81 153  33 81 153  33 81 153
33 81 153  33 81 153  21 51 95  0 0 0  0 0 0  0 0 0
0 0 0  0 0 0  0 0 0  0 0 0  0 0 0  0 0 0
0 0 0  0 0 0  10 26 49  32 78 148  33 81 153  33 81 153
33 81 153  33 81 153  33 81 153  33 81 153  33 81 153  33 81 153
33 81 153  33 81 153  33 81 153  26 64 122  5 13 24  0 0 0
0 0 0  0 0 0  0 0 0  0 0 0  0 0 0  0 0 0
0 0 0  0 0 0  0 0 0  0 0 0  0 0 0  0 0 0
0 0 0  0 0 0  0 0 0  0 0 0  3 8 16  20 50 94
22 55 103  21 51 95  23 55 104  31 77 145  33 81 153  33 81 153
33 81 153  33 81 153  33 81 153  33 81 153  33 81 153  33 81 153
33 81 153  33 81 153  33 81 153  21 51 97  0 1 1  0 0 0
0 0 0  0 0 0  0 0 0  0 0 0  0 0 0  0 0 0
0 0 0  0 0 0  0 0 0  0 0 0  3 9 16  28 70 131
33 81 153  33 81 153  33 81 153  33 81 153  33 81 153  33 81 153
33 81 153  33 81 153  33 81 153  33 81 153  33 81 153  32 80 151
10 24 46  0 0 0  0 0 0  0 0 0  0 0 0  0 0 0
0 0 0  0 0 0  0 0 0  0 0 0  0 0 0  0 0 0
4 10 19  29 71 133  33 81 153  33 81 153  33 81 153  33 81 153
33 81 153  33 81 153  33 81 153  33 81 153  33 81 153  33 81 153
33 81 153  31 77 145  24 58 110  21 52 98  22 55 104  19 47 89
2 6 11  0 0 0  0 0 0  0 0 0  0 0 0  0 0 0
0 0 0  0 0 0  0 0 0  0 0 0  0 0 0  0 0 0
0 0 0  0 0 0  0 0 0  0 0 0  0 0 0  0 0 0
0 0 0  0 0 0  0 0 0  0 0 0  0 0 0  0 0 0
0 0 0  0 0 0  0 0 0  0 0 0  0 0 0  0 0 0
0 0 0  0 0 0  0 0 0  0 0 0  0 0 0  0 0 0
0 0 0  0 0 0  0 0 0  0 0 0  15 37 70  33 81 153
33 81 153  33 81 153  33 81 153  33 81 153  33 81 153  33 81 153
33 81 153  33 81 153  33 81 153  33 81 153  33 81 153  12 30 58
0 0 0  0 0 0  0 0 0  0 0 0  0 0 0  0 0 0
0 0 0  0 0 0  0 0 0  0 0 0  0 0 0  0 0 0
0 0 0  0 0 0  0 0 0  0 0 0  0 0 0  0 0 0
0 0 0  0 0 0  0 0 0  0 0 0  0 0 0  0 0 0
0 0 0  0 0 0  0 0 0  0 0 0  0 0 0  0 0 0
0 0 0  0 0 0  0 0 0  0 0 0  0 0 0  0 0 0
0 0 0  0 0 0  0 0 0  0 0 0  0 0 0  0 0 0
0 0 0  0 0 0  0 0 0  0 0 0  0 0 0  0 0 0
0 0 0  0 0 0  0 0 0  0 0 0  0 0 0  0 0 0
0 0 0  0 0 0  0 0 0  0 0 0  0 0 0  0 0 0
0 0 0  0 0 0  0 0 0  0 0 0  0 0 0  0 0 0
0 0 0  0 0 0  0 0 0  0 0 0  0 0 0  0 0 0
0 0 0  0 0 0  0 0 0  0 0 0  0 0 0  0 0 0
0 0 0  0 0 0  0 0 0  0 0 0  0 0 0  0 0 0
8 21 39  32 78 146  33 81 153  33 81 153  33 81 153  33 81 153
33 81 153  33 81 153  33 81 153  33 81 153  33 81 153  33 81 153
33 80 152  12 28 53  0 0 0  0 0 0  0 0 0  0 0 0
0 0 0  0 0 0  0 0 0  0 0 0  0 0 0  0 0 0
0 0 0  0 0 0  0 0 0  0 0 0  0 0 0  0 0 0
0 0 0  0 0 0  0 0 0  0 0 0
0 0 0  0 0 0  0 0 0  1 1 2  23 56 106  33 81 153
33 81 153  33 81 153  33 81 153  33 81 153  33 81 153  33 81 153
33 81 153  33 81 153  33 81 153  33 81 153  33 81 153  33 81 153
33 81 153  33 81 153  33 81 153  33 81 153  33 81 153  33 81 153
33 81 153  33 81 153  33 81 153  33 81 153  33 81 153  33 81 153
33 81 153  33 81 153  33 81 153  33 81 153  33 81 153  33 81 153
33 81 153  33 81 153  33 81 153  33 81 153  33 81 153  33 81 153
33 81 153  33 81 153  33 81 153  33 81 153  33 81 153  33 81 153
33 81 153  33 81 153  33 81 153  33 81 153  33 81 153  33 81 153
33 81 153  33 81 153  33 81 153  33 81 153  33 81 153  33 81 153
33 81 153  33 81 153  33 81 153  33 81 153  33 81 153  33 81 153
33 81 153  33 81 153  33 81 153  33 81 153  33 81 153  33 81 153
33 81 153  33 81 153  33 81 153  33 81 153  33 81 153  33 81 153
33 81 153  33 81 153  33 81 153  33 81 153  33 81 153  33 81 153
33 81 153  33 81 153  33 81 153  33 81 153  33 81 153  33 81 153
33 81 153  33 81 153  33 81 153  33 81 153  33 81 153  33 81 153
33 81 153  33 81 153  33 81 153  33 81 153  33 81 153  33 81 153
33 81 153  33 81 153  33 81 153  33 81 153  33 81 153  33 81 153
33 81 153  33 81 153  33 81 153  33 81 153  24 58 110  1 2 4
0 0 0  0 0 0  0 0 0  0 0 0  0 0 0  0 0 0
0 0 0  0 0 0  0 0 0  0 0 0  0 0 0  0 0 0
0 0 0  0 0 0  0 0 0  0 0 0  0 0 0  0 0 0
0 0 0  0 0 0  0 0 0  0 0 0  0 0 0  0 0 0
0 0 0  0 0 0  0 0 0  0 0 0  0 0 0  0 0 0
0 0 0  0 0 0  0 0 0  0 0 0  0 0 0  0 0 0
0 0 0  0 0 0  0 0 0  0 0 0  0 0 0  0 0 0
0 0 0  0 0 0  0 0 0  1 3 7  24 59 112  33 81 153
33 81 153  33 81 153  33 81 153  33 81 153  33 81 153  33 81 153
33 81 153  33 81 153  33 81 153  33 81 153  33 81 153  33 81 153
33 81 153  33 81 153  33 81 153  33 81 153  33 81 153  33 81 153
33 81 153  33 81 153  33 81 153  33 81 153  33 81 153  33 81 153
33 81 153  18 44 82  0 0 0  0 0 0  0 0 0  0 0 0
0 0 0  0 0 0  0 0 0  0 0 0  0 0 0  0 0 0
0 0 0  0 0 0  0 0 0  0 0 0  0 0 0  0 0 0
0 0 0  0 0 0  0 0 0  0 0 0  0 0 0  0 0 0
0 0 0  0 0 0  0 0 0  0 0 0  0 0 0  0 0 0
0 0 0  0 0 0  0 0 0  0 0 0  0 0 0  0 0 0
0 0 0  0 0 0  0 0 0  0 0 0  0 0 0  0 0 0
0 0 0  0 0 0  0 0 0  0 0 0  0 0 0  0 0 0
0 0 0  0 0 0  0 0 0  0 0 0  0 0 0  0 0 0
0 0 0  0 0 0  6 14 27  31 75 142  33 81 153  33 81 153
33 81 153  33 81 153  33 81 153  33 81 153  33 81 153  33 81 153
33 81 153  33 81 153  33 81 153  33 81 153  33 81 153  33 81 153
33 81 153  33 81 153  33 81 153  33 81 153  33 81 153  33 81 153
33 81 153  31 77 145  7 17 32  0 0 0  0 0 0  0 0 0
0 0 0  0 0 0  0 0 0  0 0 0  0 0 0  0 0 0
0 0 0  0 0 0  0 0 0  0 0 0  0 0 0  0 0 0
2 5 9  26 64 121  33 81 153  33 81 153  33 81 153  33 81 153
33 81 153  33 81 153  33 81 153  33 81 153  33 81 153  33 81 153
33 81 153  33 81 153  33 81 153  33 81 153  33 81 153  33 81 153
33 81 153  33 81 153  33 81 153  33 81 153  33 81 153  33 81 153
33 81 153  33 81 153  33 81 153  33 81 153  33 81 153  33 81 153
33 81 153  33 81 153  33 81 153  33 81 153  33 81 153  33 81 153
33 81 153  33 81 153  33 81 153  33 81 153  33 81 153  33 81 153
33 81 153  33 81 153  33 81 153  33 81 153  33 81 153  33 81 153
33 81 153  33 81 153  33 81 153  33 81 153  33 81 153  33 81 153
33 81 153  33 81 153  33 81 153  33 81 153  33 81 153  33 81 153
33 81 153  33 81 153  33 81 153  33 81 153  33 81 153  33 81 153
33 81 153  33 81 153  33 81 153  33 81 153  33 81 153  33 81 153
33 81 153  33 81 153  33 81 153  33 81 153  33 81 153  33 81 153
33 81 153  33 81 153  33 81 153  33 81 153  33 81 153  33 81 153
33 81 153  33 81 153  33 81 153  33 81 153  33 81 152  25 60 114
8 20 37  0 0 0  0 0 0  0 0 0  0 0 0  0 0 0
0 0 0  0 0 0  0 0 0  0 0 0  0 0 0  0 0 0
0 0 0  0 0 0  0 0 0  0 0 0  0 0 0  0 0 0
0 0 0  0 0 0  0 0 0  0 0 0  0 0 0  0 0 0
0 0 0  0 0 0  0 0 0  0 0 0  0 0 0  0 0 0
0 0 0  0 0 0  0 0 0  0 0 0  0 0 0  0 0 0
0 0 0  0 0 0  0 0 0  0 0 0  0 0 0  0 0 0
8 19 37  16 38 72  15 37 71  16 40 75  21 52 99  30 72 137
33 81 153  33 81 153  33 81 153  33 81 153  33 81 153  33 81 153
33 81 153  33 81 153  33 81 153  33 81 153  33 81 153  33 81 153
33 80 152  14 34 64  0 0 0  0 0 0  0 0 0  0 0 0
0 0 0  0 0 0  0 0 0  0 0 0  0 0 0  0 0 0
0 0 0  1 2 4  24 59 111  33 81 153  33 81 153  33 81 153
33 81 153  33 81 153  33 81 153  33 81 153  33 81 153  33 81 153
33 81 153  33 81 153  21 51 95  0 0 0  0 0 0  0 0 0
0 0 0  0 0 0  0 0 0  0 0 0  0 0 0  0 0 0
0 0 0  0 0 0  2 4 8  24 59 112  33 81 153  33 81 153
33 81 153  33 81 153  33 81 153  33 81 153  33 81 153  33 81 153
33 81 153  33 81 153  33 81 153  33 81 153  27 66 124  12 30 58
5 13 24  4 10 20  5 12 23  4 10 20  1 2 3  0 0 0
0 0 0  0 0 0  0 0 0  0 0 0  0 0 0  0 0 0
0 0 0  0 0 0  0 0 0  0 0 0  5 13 24  31 75 142
33 81 153  33 81 153  33 81 153  33 81 153  33 81 153  33 81 153
33 81 153  33 81 153  33 81 153  33 81 153  33 81 153  33 81 153
33 81 153  33 81 153  33 81 153  13 33 62  0 0 0  0 0 0
0 0 0  0 0 0  0 0 0  0 0 0  0 0 0  0 0 0
0 0 0  0 0 0  0 0 0  0 0 0  3 7 14  28 69 130
33 81 153  33 81 153  33 81 153  33 81 153  33 81 153  33 81 153
33 81 153  33 81 153  33 81 153  33 81 153  33 81 153  32 80 151
10 24 46  0 0 0  0 0 0  0 0 0  0 0 0  0 0 0
0 0 0  0 0 0  0 0 0  0 0 0  0 0 0  0 0 0
1 2 3  23 56 106  33 81 153  33 81 153  33 81 153  33 81 153
33 81 153  33 81 153  33 81 153  33 81 153  33 81 153  33 81 153
33 81 153  33 81 153  33 81 153  33 81 153  33 81 153  29 71 135
4 9 17  0 0 0  0 0 0  0 0 0  0 0 0  0 0 0
0 0 0  0 0 0  0 0 0  0 0 0  0 0 0  0 0 0
0 0 0  0 0 0  0 0 0  0 0 0  0 0 0  0 0 0
0 0 0  0 0 0  0 0 0  0 0 0  0 0 0  0 0 0
0 0 0  0 0 0  0 0 0  0 0 0  0 0 0  0 0 0
0 0 0  0 0 0  0 0 0  0 0 0  0 0 0  0 0 0
0 0 0  0 0 0  0 0 0  0 0 0  15 37 70  33 81 153
33 81 153  33 81 153  33 81 153  33 81 153  33 81 153  33 81 153
33 81 153  33 81 153  33 81 153  33 81 153  33 81 153  16 39 74
0 0 1  0 0 0  0 0 0  0 0 0  0 0 0  0 0 0
0 0 0  0 0 0  0 0 0  0 0 0  0 0 0  0 0 0
0 0 0  0 0 0  0 0 0  0 0 0  0 0 0  0 0 0
0 0 0  0 0 0  0 0 0  0 0 0  0 0 0  0 0 0
0 0 0  0 0 0  0 0 0  0 0 0  0 0 0  0 0 0
0 0 0  0 0 0  0 0 0  0 0 0  0 0 0  0 0 0
0 0 0  0 0 0  0 0 0  0 0 0  0 0 0  0 0 0
0 0 0  0 0 0  3 7 14  14 35 66  15 38 71  15 37 71
15 37 71  15 37 71  15 37 71  15 37 71  15 37 71  15 37 71
15 37 71  15 37 71  15 37 71  15 37 71  15 37 71  15 37 71
15 37 71  15 37 71  15 37 71  15 37 71  15 37 71  15 37 71
15 37 71  15 37 71  15 37 71  15 37 71  15 37 71  15 37 71
15 37 71  15 37 71  15 37 71  15 37 71  15 37 71  15 37 71
15 37 71  15 37 71  15 37 71  15 37 71  15 37 70  14 35 66
25 60 114  33 81 153  33 81 153  33 81 153  33 81 153  33 81 153
33 81 153  33 81 153  33 81 153  33 81 153  33 81 153  33 81 153
33 81 153  13 33 62  0 0 0  0 0 0  0 0 0  0 0 0
0 0 0  0 0 0  0 0 0  0 0 0  0 0 0  0 0 0
0 0 0  0 0 0  0 0 0  0 0 0  0 0 0  0 0 0
0 0 0  0 0 0  0 0 0  0 0 0
0 0 0  0 0 0  0 0 0  1 3 7  25 62 116  33 81 153
33 81 153  33 81 153  33 81 153  33 81 153  33 81 153  33 81 153
33 81 153  33 81 153  33 81 153  33 81 153  33 81 153  33 81 153
33 81 153  33 81 153  33 81 153  33 81 153  33 81 153  33 81 153
33 81 153  33 81 153  33 81 153  33 81 153  33 81 153  33 81 153
33 81 153  33 81 153  33 81 153  33 81 153  33 81 153  33 81 153
33 81 153  33 81 153  33 81 153  33 81 153  33 81 153  33 81 153
33 81 153  33 81 153  33 81 153  33 81 153  33 81 153  33 81 153
33 81 153  33 81 153  33 81 153  33 81 153  33 81 153  33 81 153
33 81 153  33 81 153  33 81 153  33 81 153  33 81 153  33 81 153
33 81 153  33 81 153  33 81 153  33 81 153  33 81 153  33 81 153
33 81 153  33 81 153  33 81 153  33 81 153  33 81 153  33 81 153
33 81 153  33 81 153  33 81 153  33 81 153  33 81 153  33 81 153
33 81 153  33 81 153  33 81 153  33 81 153  33 81 153  33 81 153
33 81 153  33 81 153  33 81 153  33 81 153  33 81 153  33 81 153
33 81 153  33 81 153  33 81 153  33 81 153  33 81 153  33 81 153
33 81 153  33 81 153  33 81 153  33 81 153  33 81 153  33 81 153
33 81 153  33 81 153  33 81 153  33 81 153  33 81 153  33 81 153
33 81 153  33 81 153  33 81 153  33 81 153  26 64 120  2 4 8
0 0 0  0 0 0  0 0 0  0 0 0  0 0 0  0 0 0
0 0 0  0 0 0  0 0 0  0 0 0  0 0 0  0 0 0
0 0 0  0 0 0  0 0 0  0 0 0  0 0 0  0 0 0
0 0 0  0 0 0  0 0 0  0 0 0  0 0 0  0 0 0
0 0 0  0 0 0  0 0 0  0 0 0  0 0 0  0 0 0
0 0 0  0 0 0  0 0 0  0 0 0  0 0 0  0 0 0
0 0 0  0 0 0  0 0 0  0 0 0  0 0 0  0 0 0
0 0 0  0 0 0  0 0 0  0 0 0  14 34 65  33 81 153
33 81 153  33 81 153  33 81 153  33 81 153  33 81 153  33 81 153
33 81 153  33 81 153  33 81 153  33 81 153  33 81 153  33 81 153
33 81 153  33 81 153  33 81 153  33 81 153  33 81 153  33 81 153
33 81 153  33 81 153  33 81 153  33 81 153  33 81 153  33 81 153
31 77 145  8 19 35  0 0 0  0 0 0  0 0 0  0 0 0
0 0 0  0 0 0  0 0 0  0 0 0  0 0 0  0 0 0
0 0 0  0 0 0  0 0 0  0 0 0  0 0 0  0 0 0
0 0 0  0 0 0  0 0 0  0 0 0  0 0 0  0 0 0
0 0 0  0 0 0  0 0 0  0 0 0  0 0 0  0 0 0
0 0 0  0 0 0  0 0 0  0 0 0  0 0 0  0 0 0
0 0 0  0 0 0  0 0 0  0 0 0  0 0 0  0 0 0
0 0 0  0 0 0  0 0 0  0 0 0  0 0 0  0 0 0
0 0 0  0 0 0  0 0 0  0 0 0  0 0 0  0 0 0
0 0 0  0 0 0  6 14 27  31 75 142  33 81 153  33 81 153
33 81 153  33 81 153  33 81 153  33 81 153  33 81 153  33 81 153
33 81 153  33 81 153  33 81 153  33 81 153  33 81 153  33 81 153
33 81 153  33 81 153  33 81 153  33 81 153  33 81 153  33 81 153
33 81 153  31 77 145  7 17 32  0 0 0  0 0 0  0 0 0
0 0 0  0 0 0  0 0 0  0 0 0  0 0 0  0 0 0
0 0 0  0 0 0  0 0 0  0 0 0  0 0 0  0 0 0
2 5 9  26 64 121  33 81 153  33 81 153  33 81 153  33 81 153
33 81 153  33 81 153  33 81 153  33 81 153  33 81 153  33 81 153
33 81 153  33 81 153  33 81 153  33 81 153  33 81 153  33 81 153
33 81 153  33 81 153  33 81 153  33 81 153  33 81 153  33 81 153
33 81 153  33 81 153  33 81 153  33 81 153  33 81 153  33 81 153
33 81 153  33 81 153  33 81 153  33 81 153  33 81 153  33 81 153
33 81 153  33 81 153  33 81 153  33 81 153  33 81 153  33 81 153
33 81 153  33 81 153  33 81 153  33 81 153  33 81 153  33 81 153
33 81 153  33 81 153  33 81 153  33 81 153  33 81 153  33 81 153
33 81 153  33 81 153  33 81 153  33 81 153  33 81 153  33 81 153
33 81 153  33 81 153  33 81 153  33 81 153  33 81 153  33 81 153
33 81 153  33 81 153  33 81 153  33 81 153  33 81 153  33 81 153
33 81 153  33 81 153  33 81 153  33 81 153  33 81 153  33 81 153
33 81 153  33 81 153  33 81 153  33 81 153  33 81 153  33 81 153
33 81 153  33 81 153  33 81 153  28 70 131  15 37 69  2 6 11
0 0 0  0 0 0  0 0 0  0 0 0  0 0 0  0 0 0
0 0 0  0 0 0  0 0 0  0 0 0  0 0 0  0 0 0
0 0 0  0 0 0  0 0 0  0 0 0  0 0 0  0 0 0
0 0 0  0 0 0  0 0 0  0 0 0  0 0 0  0 0 0
0 0 0  0 0 0  0 0 0  0 0 0  0 0 0  0 0 0
0 0 0  0 0 0  0 0 0  0 0 0  0 0 0  0 0 0
0 0 0  0 0 0  0 0 0  0 0 0  0 0 0  0 0 0
17 42 80  33 81 153  33 81 153  33 81 153  33 81 153  33 81 153
33 81 153  33 81 153  33 81 153  33 81 153  33 81 153  33 81 153
33 81 153  33 81 153  33 81 153  33 81 153  33 81 153  33 81 153
26 63 119  3 6 12  0 0 0  0 0 0  0 0 0  0 0 0
0 0 0  0 0 0  0 0 0  0 0 0  0 0 0  0 0 0
0 0 0  1 2 4  24 59 111  33 81 153  33 81 153  33 81 153
33 81 153  33 81 153  33 81 153  33 81 153  33 81 153  33 81 153
33 81 153  33 81 153  21 51 95  0 0 0  0 0 0  0 0 0
0 0 0  0 0 0  0 0 0  0 0 0  0 0 0  0 0 0
0 0 0  0 0 0  0 0 0  11 28 53  32 79 150  33 81 153
33 81 153  33 81 153  33 81 153  33 81 153  33 81 153  33 81 153
33 81 153  33 81 153  33 81 153  33 81 153  33 81 153  33 80 151
30 74 139  29 72 136  30 74 139  26 64 122  4 9 17  0 0 0
0 0 0  0 0 0  0 0 0  0 0 0  0 0 0  0 0 0
0 0 0  0 0 0  0 0 0  0 0 0  5 12 23  30 74 139
33 81 153  33 81 153  33 81 153  33 81 153  33 81 153  33 81 153
33 81 153  33 81 153  33 81 153  33 81 153  33 81 153  33 81 153
33 81 153  33 81 153  31 76 143  7 17 31  0 0 0  0 0 0
0 0 0  0 0 0  0 0 0  0 0 0  0 0 0  0 0 0
0 0 0  0 0 0  0 0 0  0 0 0  5 13 25  29 72 136
33 81 153  33 81 153  33 81 153  33 81 153  33 81 153  33 81 153
33 81 153  33 81 153  33 81 153  33 81 153  33 81 153  32 80 151
10 24 46  0 0 0  0 0 0  0 0 0  0 0 0  0 0 0
0 0 0  0 0 0  0 0 0  0 0 0  0 0 0  0 0 0
0 0 0  15 37 70  33 81 153  33 81 153  33 81 153  33 81 153
33 81 153  33 81 153  33 81 153  33 81 153  33 81 153  33 81 153
33 81 153  33 81 153  33 81 153  33 81 153  33 81 153  29 70 133
4 9 17  0 0 0  0 0 0  0 0 0  0 0 0  0 0 0
0 0 0  0 0 0  0 0 0  0 0 0  0 0 0  0 0 0
0 0 0  0 0 0  0 0 0  0 0 0  0 0 0  0 0 0
0 0 0  0 0 0  0 0 0  0 0 0  0 0 0  0 0 0
0 0 0  0 0 0  0 0 0  0 0 0  0 0 0  0 0 0
0 0 0  0 0 0  0 0 0  0 0 0  0 0 0  0 0 0
0 0 0  0 0 0  0 0 0  0 0 0  15 37 70  33 81 153
33 81 153  33 81 153  33 81 153  33 81 153  33 81 153  33 81 153
33 81 153  33 81 153  33 81 153  33 81 153  33 81 153  30 74 140
22 54 103  20 50 94  20 50 94  20 50 94  20 50 94  20 50 94
20 50 94  20 50 94  20 50 94  20 50 94  20 50 94  20 50 94
20 50 94  20 50 94  20 50 94  20 50 94  20 50 94  20 50 94
20 50 94  20 50 94  20 50 94  20 50 94  20 50 94  20 50 94
20 50 94  20 50 94  20 50 94  20 50 94  20 50 94  20 50 94
20 50 94  20 50 94  8 19 35  0 0 0  0 0 0  0 0 0
0 0 0  0 0 0  0 0 0  0 0 0  0 0 0  0 0 0
0 0 0  0 0 0  6 16 30  31 77 145  33 81 153  33 81 153
33 81 153  33 81 153  33 81 153  33 81 153  33 81 153  33 81 153
33 81 153  33 81 153  33 81 153  33 81 153  33 81 153  33 81 153
33 81 153  33 81 153  33 81 153  33 81 153  33 81 153  33 81 153
33 81 153  33 81 153  33 81 153  33 81 153  33 81 153  33 81 153
33 81 153  33 81 153  33 81 153  33 81 153  33 81 153  33 81 153
33 81 153  33 81 153  33 81 153  33 81 153  33 81 153  33 81 153
33 81 153  33 81 153  33 81 153  33 81 153  33 81 153  33 81 153
33 81 153  33 81 153  33 81 153  33 81 153  33 81 153  33 81 153
33 81 153  13 33 62  0 0 0  0 0 0  0 0 0  0 0 0
0 0 0  0 0 0  0 0 0  0 0 0  0 0 0  0 0 0
0 0 0  0 0 0  0 0 0  0 0 0  0 0 0  0 0 0
0 0 0  0 0 0  0 0 0  0 0 0
0 0 0  0 0 0  0 0 0  3 6 12  27 67 126  33 81 153
33 81 153  33 81 153  33 81 153  33 81 153  33 81 153  33 81 153
33 81 153  33 81 153  33 81 153  33 81 153  33 81 153  33 81 153
33 81 153  33 81 153  33 81 153  33 81 153  33 81 153  33 81 153
33 81 153  33 81 153  33 81 153  33 81 153  33 81 153  33 81 153
33 81 153  33 81 153  33 81 153  33 81 153  33 81 153  33 81 153
33 81 153  33 81 153  33 81 153  33 81 153  33 81 153  33 81 153
33 81 153  33 81 153  33 81 153  33 81 153  33 81 153  33 81 153
33 81 153  33 81 153  33 81 153  33 81 153  33 81 153  33 81 153
33 81 153  33 81 153  33 81 153  33 81 153  33 81 153  33 81 153
33 81 153  33 81 153  33 81 153  33 81 153  33 81 153  33 81 153
33 81 153  33 81 153  33 81 153  33 81 153  33 81 153  33 81 153
33 81 153  33 81 153  33 81 153  33 81 153  33 81 153  33 81 153
33 81 153  33 81 153  33 81 153  33 81 153  33 81 153  33 81 153
33 81 153  33 81 153  33 81 153  33 81 153  33 81 153  31 75 142
33 80 152  33 81 153  33 81 153  33 81 153  33 81 153  33 81 153
33 81 153  33 81 153  33 81 153  33 81 153  33 81 153  33 81 153
33 81 153  33 81 153  33 81 153  33 81 153  33 81 153  33 81 153
33 81 153  33 81 153  33 81 153  33 81 153  28 68 129  3 8 14
0 0 0  0 0 0  0 0 0  0 0 0  0 0 0  0 0 0
0 0 0  0 0 0  0 0 0  0 0 0  0 0 0  0 0 0
0 0 0  0 0 0  0 0 0  0 0 0  0 0 0  0 0 0
0 0 0  0 0 0  0 0 0  0 0 0  0 0 0  0 0 0
0 0 0  0 0 0  0 0 0  0 0 0  0 0 0  0 0 0
0 0 0  0 0 0  0 0 0  0 0 0  0 0 0  0 0 0
0 0 0  0 0 0  0 0 0  0 0 0  0 0 0  0 0 0
0 0 0  0 0 0  0 0 0  0 0 0  6 14 26  30 74 139
33 81 153  33 81 153  33 81 153  33 81 153  33 81 153  33 81 153
33 81 153  33 81 153  33 81 153  33 81 153  33 81 153  33 81 153
33 81 153  33 81 153  33 81 153  33 81 153  33 81 153  33 81 153
33 81 153  33 81 153  33 81 153  33 81 153  33 81 153  33 81 153
25 62 117  2 4 8  0 0 0  0 0 0  0 0 0  0 0 0
0 0 0  0 0 0  0 0 0  0 0 0  0 0 0  0 0 0
0 0 0  0 0 0  0 0 0  0 0 0  0 0 0  0 0 0
0 0 0  0 0 0  0 0 0  0 0 0  0 0 0  0 0 0
0 0 0  0 0 0  0 0 0  0 0 0  0 0 0  0 0 0
0 0 0  0 0 0  0 0 0  0 0 0  0 0 0  0 0 0
0 0 0  0 0 0  0 0 0  0 0 0  0 0 0  0 0 0
0 0 0  0 0 0  0 0 0  0 0 0  0 0 0  0 0 0
0 0 0  0 0 0  0 0 0  0 0 0  0 0 0  0 0 0
0 0 0  0 0 0  6 14 27  31 75 142  33 81 153  33 81 153
33 81 153  33 81 153  33 81 153  33 81 153  33 81 153  33 81 153
33 81 153  33 81 153  33 81 153  33 81 153  33 81 153  33 81 153
33 81 153  33 81 153  33 81 153  33 81 153  33 81 153  33 81 153
33 81 153  31 77 145  7 17 32  0 0 0  0 0 0  0 0 0
0 0 0  0 0 0  0 0 0  0 0 0  0 0 0  0 0 0
0 0 0  0 0 0  0 0 0  0 0 0  0 0 0  0 0 0
2 5 9  26 64 121  33 81 153  33 81 153  33 81 153  33 81 153
33 81 153  33 81 153  33 81 153  33 81 153  33 81 153  33 81 153
33 81 153  33 81 153  33 81 153  33 81 153  33 81 153  33 81 153
33 81 153  33 81 153  33 81 153  33 81 153  33 81 153  33 81 153
33 81 153  33 81 153  33 81 153  33 81 153  33 81 153  33 81 153
33 81 153  33 81 153  33 81 153  33 81 153  33 81 153  33 81 153
33 81 153  33 81 153  33 81 153  33 81 153  33 81 153  33 81 153
33 81 153  33 81 153  33 81 153  33 81 153  33 81 153  33 81 153
33 81 153  33 81 153  33 81 153  33 81 153  33 81 153  33 81 153
33 81 153  33 81 153  33 81 153  33 81 153  33 81 153  33 81 153
33 81 153  33 81 153  33 81 153  33 81 153  33 81 153  33 81 153
33 81 153  33 81 153  33 81 153  33 81 153  33 81 153  33 81 153
33 81 153  33 81 153  33 81 153  33 81 153  33 81 153  33 81 153
33 81 153  33 81 153  33 81 153  33 81 153  33 81 153  33 81 153
33 81 153  28 70 131  17 42 79  5 11 22  0 0 0  0 0 0
0 0 0  0 0 0  0 0 0  0 0 0  0 0 0  0 0 0
0 0 0  0 0 0  0 0 0  0 0 0  0 0 0  0 0 0
0 0 0  0 0 0  0 0 0  0 0 0  0 0 0  0 0 0
0 0 0  0 0 0  0 0 0  0 0 0  0 0 0  0 0 0
0 0 0  0 0 0  0 0 0  0 0 0  0 0 0  0 0 0
0 0 0  0 0 0  0 0 0  0 0 0  0 0 0  0 0 0
0 0 0  0 0 0  0 0 0  0 0 0  0 0 0  0 0 0
17 42 79  33 81 153  33 81 153  33 81 153  33 81 153  33 81 153
33 81 153  33 81 153  33 81 153  33 81 153  33 81 153  33 81 153
33 81 153  33 81 153  33 81 153  33 81 153  33 81 153  32 78 148
11 28 53  0 0 0  0 0 0  0 0 0  0 0 0  0 0 0
0 0 0  0 0 0  0 0 0  0 0 0  0 0 0  0 0 0
0 0 0  1 2 4  24 59 111  33 81 153  33 81 153  33 81 153
33 81 153  33 81 153  33 81 153  33 81 153  33 81 153  33 81 153
33 81 153  33 81 153  21 51 95  0 0 0  0 0 0  0 0 0
0 0 0  0 0 0  0 0 0  0 0 0  0 0 0  0 0 0
0 0 0  0 0 0  0 0 0  2 5 10  25 62 116  33 81 153
33 81 153  33 81 153  33 81 153  33 81 153  33 81 153  33 81 153
33 81 153  33 81 153  33 81 153  33 81 153  33 81 153  33 81 153
33 81 153  33 81 153  33 81 153  29 72 136  4 10 19  0 0 0
0 0 0  0 0 0  0 0 0  0 0 0  0 0 0  0 0 0
0 0 0  0 0 0  0 0 0  0 0 0  5 12 23  30 74 139
33 81 153  33 81 153  33 81 153  33 81 153  33 81 153  33 81 153
33 81 153  33 81 153  33 81 153  33 81 153  33 81 153  33 81 153
33 81 153  33 81 153  24 60 113  2 4 7  0 0 0  0 0 0
0 0 0  0 0 0  0 0 0  0 0 0  7 17 33  13 33 62
13 32 61  13 32 61  13 33 62  16 39 74  25 63 118  33 81 152
33 81 153  33 81 153  33 81 153  33 81 153  33 81 153  33 81 153
33 81 153  33 81 153  33 81 153  33 81 153  33 81 153  32 80 151
10 24 46  0 0 0  0 0 0  0 0 0  0 0 0  0 0 0
0 0 0  0 0 0  0 0 0  0 0 0  0 0 0  0 0 0
0 0 0  8 19 37  31 77 146  33 81 153  33 81 153  33 81 153
33 81 153  33 81 153  33 81 153  33 81 153  33 81 153  33 81 153
33 81 153  33 81 153  33 81 153  33 81 153  33 81 153  29 70 133
4 9 17  0 0 0  0 0 0  0 0 0  0 0 0  0 0 0
0 0 0  0 0 0  0 0 0  0 0 0  0 0 0  0 0 0
0 0 0  0 0 0  0 0 0  0 0 0  0 0 0  0 0 0
0 0 0  0 0 0  0 0 0  0 0 0  0 0 0  0 0 0
0 0 0  0 0 0  0 0 0  0 0 0  0 0 0  0 0 0
0 0 0  0 0 0  0 0 0  0 0 0  0 0 0  0 0 0
0 0 0  0 0 0  0 0 0  0 0 0  16 39 73  33 81 153
33 81 153  33 81 153  33 81 153  33 81 153  33 81 153  33 81 153
33 81 153  33 81 153  33 81 153  33 81 153  33 81 153  33 81 153
33 81 153  33 81 153  33 81 153  33 81 153  33 81 153  33 81 153
33 81 153  33 81 153  33 81 153  33 81 153  33 81 153  33 81 153
33 81 153  33 81 153  33 81 153  33 81 153  33 81 153  33 81 153
33 81 153  33 81 153  33 81 153  33 81 153  33 81 153  33 81 153
33 81 153  33 81 153  33 81 153  33 81 153  33 81 153  33 81 153
33 81 153  33 81 153  13 31 59  0 0 0  0 0 0  0 0 0
0 0 0  0 0 0  0 0 0  0 0 0  0 0 0  0 0 0
0 0 0  0 0 0  6 16 29  31 76 143  33 81 153  33 81 153
33 81 153  33 81 153  33 81 153  33 81 153  33 81 153  33 81 153
33 81 153  33 81 153  33 81 153  33 81 153  33 81 153  33 81 153
33 81 153  33 81 153  33 81 153  33 81 153  33 81 153  33 81 153
33 81 153  33 81 153  33 81 153  33 81 153  33 81 153  33 81 153
33 81 153  33 81 153  33 81 153  33 81 153  33 81 153  33 81 153
33 81 153  33 81 153  33 81 153  33 81 153  33 81 153  33 81 153
33 81 153  33 81 153  33 81 153  33 81 153  33 81 153  33 81 153
33 81 153  33 81 153  33 81 153  33 81 153  33 81 153  33 81 153
32 80 151  10 26 49  0 0 0  0 0 0  0 0 0  0 0 0
0 0 0  0 0 0  0 0 0  0 0 0  0 0 0  0 0 0
0 0 0  0 0 0  0 0 0  0 0 0  0 0 0  0 0 0
0 0 0  0 0 0  0 0 0  0 0 0
0 0 0  0 0 0  0 0 0  4 10 19  29 71 134  33 81 153
33 81 153  33 81 153  33 81 153  33 81 153  33 81 153  33 81 153
33 81 153  33 81 153  33 81 153  33 81 153  33 81 153  33 81 153
33 81 153  33 81 153  33 81 153  33 81 153  33 81 153  33 81 153
33 81 153  33 81 153  32 79 149  24 59 112  32 78 148  33 81 153
33 81 153  33 81 153  33 81 153  33 81 153  33 81 153  33 81 153
33 81 153  33 81 153  33 81 153  33 81 153  33 81 153  33 81 153
33 81 153  33 81 153  33 81 153  33 81 153  33 81 153  33 81 153
33 81 153  33 81 153  33 81 153  33 81 153  33 81 153  33 81 153
33 81 153  33 81 153  33 81 153  33 81 153  33 81 153  33 81 153
33 81 153  33 81 153  33 81 153  33 81 153  33 81 153  33 81 153
33 81 153  33 81 153  33 81 153  33 81 153  33 81 153  33 81 153
33 81 153  33 81 153  33 81 153  33 81 153  33 81 153  33 81 153
33 81 153  33 81 153  33 81 153  33 81 153  33 81 153  33 81 153
33 81 153  33 81 153  33 81 153  33 81 153  28 70 132  16 39 74
32 78 148  33 81 153  33 81 153  33 81 153  33 81 153  33 81 153
33 81 153  33 81 153  33 81 153  33 81 153  33 81 153  33 81 153
33 81 153  33 81 153  33 81 153  33 81 153  33 81 153  33 81 153
33 81 153  33 81 153  33 81 153  33 81 153  30 72 137  5 11 22
0 0 0  0 0 0  0 0 0  0 0 0  0 0 0  0 0 0
0 0 0  0 0 0  0 0 0  0 0 0  0 0 0  0 0 0
0 0 0  0 0 0  0 0 0  0 0 0  0 0 0  0 0 0
0 0 0  0 0 0  0 0 0  0 0 0  0 0 0  0 0 0
0 0 0  0 0 0  0 0 0  0 0 0  0 0 0  0 0 0
0 0 0  0 0 0  0 0 0  0 0 0  0 0 0  0 0 0
0 0 0  0 0 0  0 0 0  0 0 0  0 0 0  0 0 0
0 0 0  0 0 0  0 0 0  0 0 0  1 3 5  24 59 112
33 81 153  33 81 153  33 81 153  33 81 153  33 81 153  33 81 153
33 81 153  33 81 153  33 81 153  33 81 153  33 81 153  33 81 153
33 81 153  33 81 153  33 81 153  33 81 153  33 81 153  33 81 153
33 81 153  33 81 153  33 81 153  33 81 153  33 81 153  33 81 153
17 43 81  0 0 0  0 0 0  0 0 0  0 0 0  0 0 0
0 0 0  0 0 0  0 0 0  0 0 0  0 0 0  0 0 0
0 0 0  0 0 0  0 0 0  0 0 0  0 0 0  0 0 0
0 0 0  0 0 0  0 0 0  0 0 0  0 0 0  0 0 0
0 0 0  0 0 0  0 0 0  0 0 0  0 0 0  0 0 0
0 0 0  0 0 0  0 0 0  0 0 0  0 0 0  0 0 0
0 0 0  0 0 0  0 0 0  0 0 0  0 0 0  0 0 0
0 0 0  0 0 0  0 0 0  0 0 0  0 0 0  0 0 0
0 0 0  0 0 0  0 0 0  0 0 0  0 0 0  0 0 0
0 0 0  0 0 0  6 14 27  31 75 142  33 81 153  33 81 153
33 81 153  33 81 153  33 81 153  33 81 153  33 81 153  33 81 153
33 81 153  33 81 153  33 81 153  33 81 153  33 81 153  33 81 153
33 81 153  33 81 153  33 81 153  33 81 153  33 81 153  33 81 153
33 81 153  31 77 145  7 17 32  0 0 0  0 0 0  0 0 0
0 0 0  0 0 0  0 0 0  0 0 0  0 0 0  0 0 0
0 0 0  0 0 0  0 0 0  0 0 0  0 0 0  0 0 0
2 5 9  26 64 121  33 81 153  33 81 153  33 81 153  33 81 153
33 81 153  33 81 153  33 81 153  33 81 153  33 81 153  33 81 153
33 81 153  33 81 153  33 81 153  33 81 153  33 81 153  33 81 153
33 81 153  33 81 153  33 81 153  33 81 153  33 81 153  33 81 153
33 81 153  33 81 153  33 81 153  33 81 153  33 81 153  33 81 153
33 81 153  33 81 153  33 81 153  33 81 153  33 81 153  33 81 153
33 81 153  33 81 153  33 81 153  33 81 153  33 81 153  33 81 153
33 81 153  33 81 153  33 81 153  33 81 153  33 81 153  33 81 153
33 81 153  33 81 153  33 81 153  33 81 153  33 81 153  33 81 153
33 81 153  33 81 153  33 81 153  33 81 153  33 81 153  33 81 153
33 81 153  33 81 153  33 81 153  33 81 153  33 81 153  33 81 153
33 81 153  33 81 153  33 81 153  33 81 153  33 81 153  33 81 153
33 81 153  33 81 153  33 81 153  33 81 153  33 81 153  33 81 153
33 81 153  33 81 153  33 81 153  33 81 153  32 78 146  25 62 117
14 35 67  4 10 20  0 0 0  0 0 0  0 0 0  0 0 0
0 0 0  0 0 0  0 0 0  0 0 0  0 0 0  0 0 0
0 0 0  0 0 0  0 0 0  0 0 0  0 0 0  0 0 0
0 0 0  0 0 0  0 0 0  0 0 0  0 0 0  0 0 0
0 0 0  0 0 0  0 0 0  0 0 0  0 0 0  0 0 0
0 0 0  0 0 0  0 0 0  0 0 0  0 0 0  0 0 0
0 0 0  0 0 0  0 0 0  0 0 0  0 0 0  0 0 0
0 0 0  0 0 0  0 0 0  0 0 0  0 0 0  0 0 0
17 42 79  33 81 153  33 81 153  33 81 153  33 81 153  33 81 153
33 81 153  33 81 153  33 81 153  33 81 153  33 81 153  33 81 153
33 81 153  33 81 153  33 81 153  33 81 153  33 81 153  19 47 88
1 2 4  0 0 0  0 0 0  0 0 0  0 0 0  0 0 0
0 0 0  0 0 0  0 0 0  0 0 0  0 0 0  0 0 0
0 0 0  1 2 4  24 59 111  33 81 153  33 81 153  33 81 153
33 81 153  33 81 153  33 81 153  33 81 153  33 81 153  33 81 153
33 81 153  33 81 153  21 51 95  0 0 0  0 0 0  0 0 0
0 0 0  0 0 0  0 0 0  0 0 0  0 0 0  0 0 0
0 0 0  0 0 0  0 0 0  0 0 0  11 27 52  32 78 148
33 81 153  33 81 153  33 81 153  33 81 153  33 81 153  33 81 153
33 81 153  33 81 153  33 81 153  33 81 153  33 81 153  33 81 153
33 81 153  33 81 153  33 81 153  29 71 135  4 10 19  0 0 0
0 0 0  0 0 0  0 0 0  0 0 0  0 0 0  0 0 0
0 0 0  0 0 0  0 0 0  0 0 0  5 12 23  30 74 139
33 81 153  33 81 153  33 81 153  33 81 153  33 81 153  33 81 153
33 81 153  33 81 153  33 81 153  33 81 153  33 81 153  33 81 153
33 81 153  32 79 150  12 30 56  0 0 0  0 0 0  0 0 0
0 0 0  0 0 0  0 0 0  0 0 0  18 44 83  33 81 153
33 81 153  33 81 153  33 81 153  33 81 153  33 81 153  33 81 153
33 81 153  33 81 153  33 81 153  33 81 153  33 81 153  33 81 153
33 81 153  33 81 153  33 81 153  33 81 153  33 81 153  32 79 149
9 22 41  0 0 0  0 0 0  0 0 0  0 0 0  0 0 0
0 0 0  0 0 0  0 0 0  0 0 0  0 0 0  0 0 0
0 0 0  2 4 8  24 60 113  33 81 153  33 81 153  33 81 153
33 81 153  33 81 153  33 81 153  33 81 153  33 81 153  33 81 153
33 81 153  33 81 153  33 81 153  33 81 153  33 81 153  29 70 133
4 9 17  0 0 0  0 0 0  0 0 0  0 0 0  0 0 0
0 0 0  0 0 0  0 0 0  0 0 0  0 0 0  0 0 0
0 0 0  0 0 0  0 0 0  0 0 0  0 0 0  0 0 0
0 0 0  0 0 0  0 0 0  0 0 0  0 0 0  0 0 0
0 0 0  0 0 0  0 0 0  0 0 0  0 0 0  0 0 0
0 0 0  0 0 0  0 0 0  0 0 0  0 0 0  0 0 0
0 0 0  0 0 0  0 0 0  0 0 0  17 41 77  33 81 153
33 81 153  33 81 153  33 81 153  33 81 153  33 81 153  33 81 153
33 81 153  33 81 153  33 81 153  33 81 153  33 81 153  33 81 153
33 81 153  33 81 153  33 81 153  33 81 153  33 81 153  33 81 153
33 81 153  33 81 153  33 81 153  33 81 153  33 81 153  33 81 153
33 81 153  33 81 153  33 81 153  33 81 153  33 81 153  33 81 153
33 81 153  33 81 153  33 81 153  33 81 153  33 81 153  33 81 153
33 81 153  33 81 153  33 81 153  33 81 153  33 81 153  33 81 153
33 81 153  33 81 153  13 31 58  0 0 0  0 0 0  0 0 0
0 0 0  0 0 0  0 0 0  0 0 0  0 0 0  0 0 0
0 0 0  0 0 0  6 16 29  31 76 143  33 81 153  33 81 153
33 81 153  33 81 153  33 81 153  33 81 153  33 81 153  33 81 153
33 81 153  33 81 153  33 81 153  33 81 153  33 81 153  33 81 153
33 81 153  33 81 153  33 81 153  33 81 153  33 81 153  33 81 153
33 81 153  33 81 153  33 81 153  33 81 153  33 81 153  33 81 153
33 81 153  33 81 153  33 81 153  33 81 153  33 81 153  33 81 153
33 81 153  33 81 153  33 81 153  33 81 153  33 81 153  33 81 153
33 81 153  33 81 153  33 81 153  33 81 153  33 81 153  33 81 153
33 81 153  33 81 153  33 81 153  33 81 153  33 81 153  33 81 153
30 72 137  5 12 23  0 0 0  0 0 0  0 0 0  0 0 0
0 0 0  0 0 0  0 0 0  0 0 0  0 0 0  0 0 0
0 0 0  0 0 0  0 0 0  0 0 0  0 0 0  0 0 0
0 0 0  0 0 0  0 0 0  0 0 0
0 0 0  0 0 0  0 0 0  6 14 27  30 75 141  33 81 153
33 81 153  33 81 153  33 81 153  33 81 153  33 81 153  33 81 153
33 81 153  33 81 153  33 81 153  33 81 153  33 81 153  33 81 153
33 81 153  33 81 153  33 81 153  33 81 153  33 81 153  33 81 153
33 81 153  33 81 153  32 78 147  10 24 46  21 51 97  33 81 153
33 81 153  33 81 153  33 81 153  33 81 153  33 81 153  33 81 153
33 81 153  33 81 153  33 81 153  33 81 153  33 81 153  33 81 153
33 81 153  33 81 153  33 81 153  33 81 153  33 81 153  33 81 153
33 81 153  33 81 153  33 81 153  33 81 153  33 81 153  33 81 153
33 81 153  33 81 153  33 81 153  33 81 153  33 81 153  33 81 153
33 81 153  33 81 153  33 81 153  33 81 153  33 81 153  33 81 153
33 81 153  33 81 153  33 81 153  33 81 153  33 81 153  33 81 153
33 81 153  33 81 153  33 81 153  33 81 153  33 81 153  33 81 153
33 81 153  33 81 153  33 81 153  33 81 153  33 81 153  33 81 153
33 81 153  33 81 153  33 81 153  32 78 148  12 30 57  7 18 34
31 77 146  33 81 153  33 81 153  33 81 153  33 81 153  33 81 153
33 81 153  33 81 153  33 81 153  33 81 153  33 81 153  33 81 153
33 81 153  33 81 153  33 81 153  33 81 153  33 81 153  33 81 153
33 81 153  33 81 153  33 81 153  33 81 153  31 76 143  6 16 30
0 0 0  0 0 0  0 0 0  0 0 0  0 0 0  0 0 0
0 0 0  0 0 0  0 0 0  0 0 0  0 0 0  0 0 0
0 0 0  0 0 0  0 0 0  0 0 0  0 0 0  0 0 0
0 0 0  0 0 0  0 0 0  0 0 0  0 0 0  0 0 0
0 0 0  0 0 0  0 0 0  0 0 0  0 0 0  0 0 0
0 0 0  0 0 0  0 0 0  0 0 0  0 0 0  0 0 0
0 0 0  0 0 0  0 0 0  0 0 0  0 0 0  0 0 0
0 0 0  0 0 0  0 0 0  0 0 0  0 0 0  17 42 79
33 81 153  33 81 153  33 81 153  33 81 153  33 81 153  33 81 153
33 81 153  33 81 153  33 81 153  33 81 153  33 81 153  33 81 153
33 81 153  33 81 153  33 81 153  33 81 153  33 81 153  33 81 153
33 81 153  33 81 153  33 81 153  33 81 153  33 81 153  32 79 150
10 25 47  0 0 0  0 0 0  0 0 0  0 0 0  0 0 0
0 0 0  0 0 0  0 0 0  0 0 0  0 0 0  0 0 0
0 0 0  0 0 0  0 0 0  0 0 0  0 0 0  0 0 0
0 0 0  0 0 0  0 0 0  0 0 0  0 0 0  0 0 0
0 0 0  0 0 0  0 0 0  0 0 0  0 0 0  0 0 0
0 0 0  0 0 0  0 0 0  0 0 0  0 0 0  0 0 0
0 0 0  0 0 0  0 0 0  0 0 0  0 0 0  0 0 0
0 0 0  0 0 0  0 0 0  0 0 0  0 0 0  0 0 0
0 0 0  0 0 0  0 0 0  0 0 0  0 0 0  0 0 0
0 0 0  0 0 0  6 14 27  31 75 142  33 81 153  33 81 153
33 81 153  33 81 153  33 81 153  33 81 153  33 81 153  33 81 153
33 81 153  33 81 153  33 81 153  33 81 153  33 81 153  33 81 153
33 81 153  33 81 153  33 81 153  33 81 153  33 81 153  33 81 153
33 81 153  31 77 145  7 17 32  0 0 0  0 0 0  0 0 0
0 0 0  0 0 0  0 0 0  0 0 0  0 0 0  0 0 0
0 0 0  0 0 0  0 0 0  0 0 0  0 0 0  0 0 0
2 5 9  26 64 121  33 81 153  33 81 153  33 81 153  33 81 153
33 81 153  33 81 153  33 81 153  33 81 153  33 81 153  33 81 153
33 81 153  33 81 153  33 81 153  33 81 153  33 81 153  33 81 153
33 81 153  33 81 153  33 81 153  33 81 153  33 81 153  33 81 153
33 81 153  33 81 153  33 81 153  33 81 153  33 81 153  33 81 153
33 81 153  33 81 153  33 81 153  33 81 153  33 81 153  33 81 153
33 81 153  33 81 153  33 81 153  33 81 153  33 81 153  33 81 153
33 81 153  33 81 153  33 81 153  33 81 153  33 81 153  33 81 153
33 81 153  33 81 153  33 81 153  33 81 153  33 81 153  33 81 153
33 81 153  33 81 153  33 81 153  33 81 153  33 81 153  33 81 153
33 81 153  33 81 153  33 81 153  33 81 153  33 81 153  33 81 153
33 81 153  33 81 153  33 81 153  33 81 153  33 81 153  33 81 153
33 81 153  33 81 153  33 81 153  33 81 153  33 81 153  33 81 153
33 81 153  33 81 153  31 77 145  20 49 93  8 20 38  1 3 7
0 0 0  0 0 0  0 0 0  0 0 0  0 0 0  0 0 0
0 0 0  0 0 0  0 0 0  0 0 0  0 0 0  0 0 0
0 0 0  0 0 0  0 0 0  0 0 0  0 0 0  0 0 0
0 0 0  0 0 0  0 0 0  0 0 0  0 0 0  0 0 0
0 0 0  0 0 0  0 0 0  0 0 0  0 0 0  0 0 0
0 0 0  0 0 0  0 0 0  0 0 0  0 0 0  0 0 0
0 0 0  0 0 0  0 0 0  0 0 0  0 0 0  0 0 0
0 0 0  0 0 0  0 0 0  0 0 0  0 0 0  0 0 0
17 42 79  33 81 153  33 81 153  33 81 153  33 81 153  33 81 153
33 81 153  33 81 153  33 81 153  33 81 153  33 81 153  33 81 153
33 81 153  33 81 153  33 81 153  33 81 152  21 51 96  2 6 11
0 0 0  0 0 0  0 0 0  0 0 0  0 0 0  0 0 0
0 0 0  0 0 0  0 0 0  0 0 0  0 0 0  0 0 0
0 0 0  1 2 4  24 59 111  33 81 153  33 81 153  33 81 153
33 81 153  33 81 153  33 81 153  33 81 153  33 81 153  33 81 153
33 81 153  33 81 153  21 51 95  0 0 0  0 0 0  0 0 0
0 0 0  0 0 0  0 0 0  0 0 0  0 0 0  0 0 0
0 0 0  0 0 0  0 0 0  0 0 0  1 2 4  18 44 84
33 81 152  33 81 153  33 81 153  33 81 153  33 81 153  33 81 153
33 81 153  33 81 153  33 81 153  33 81 153  33 81 153  33 81 153
33 81 153  33 81 153  33 81 153  29 71 135  4 10 19  0 0 0
0 0 0  0 0 0  0 0 0  0 0 0  0 0 0  0 0 0
0 0 0  0 0 0  0 0 0  0 0 0  5 12 23  30 74 139
33 81 153  33 81 153  33 81 153  33 81 153  33 81 153  33 81 153
33 81 153  33 81 153  33 81 153  33 81 153  33 81 153  33 81 153
33 81 153  21 51 95  1 3 6  0 0 0  0 0 0  0 0 0
0 0 0  0 0 0  0 0 0  0 0 0  18 44 82  33 81 153
33 81 153  33 81 153  33 81 153  33 81 153  33 81 153  33 81 153
33 81 153  33 81 153  33 81 153  33 81 153  33 81 153  33 81 153
33 81 153  33 81 153  33 81 153  33 81 153  33 81 153  30 74 140
6 14 26  0 0 0  0 0 0  0 0 0  0 0 0  0 0 0
0 0 0  0 0 0  0 0 0  0 0 0  0 0 0  0 0 0
0 0 0  0 0 0  9 23 43  30 74 140  33 81 153  33 81 153
33 81 153  33 81 153  33 81 153  33 81 153  33 81 153  33 81 153
33 81 153  33 81 153  33 81 153  33 81 153  33 81 153  29 70 133
4 9 17  0 0 0  0 0 0  0 0 0  0 0 0  0 0 0
0 0 0  0 0 0  0 0 0  0 0 0  0 0 0  0 0 0
0 0 0  0 0 0  0 0 0  0 0 0  0 0 0  0 0 0
0 0 0  0 0 0  0 0 0  0 0 0  0 0 0  0 0 0
0 0 0  0 0 0  0 0 0  0 0 0  0 0 0  0 0 0
0 0 0  0 0 0  0 0 0  0 0 0  0 0 0  0 0 0
0 0 0  0 0 0  0 0 0  0 0 0  14 35 67  33 81 153
33 81 153  33 81 153  33 81 153  33 81 153  33 81 153  33 81 153
33 81 153  33 81 153  33 81 153  33 81 153  33 81 153  33 81 153
33 81 153  33 81 153  33 81 153  33 81 153  33 81 153  33 81 153
33 81 153  33 81 153  33 81 153  33 81 153  33 81 153  33 81 153
33 81 153  33 81 153  33 81 153  33 81 153  33 81 153  33 81 153
33 81 153  33 81 153  33 81 153  33 81 153  33 81 153  33 81 153
33 81 153  33 81 153  33 81 153  33 81 153  33 81 153  33 81 153
33 81 153  33 81 153  13 31 58  0 0 0  0 0 0  0 0 0
0 0 0  0 0 0  0 0 0  0 0 0  0 0 0  0 0 0
0 0 0  0 0 0  6 16 29  31 76 143  33 81 153  33 81 153
33 81 153  33 81 153  33 81 153  33 81 153  33 81 153  33 81 153
33 81 153  33 81 153  33 81 153  33 81 153  33 81 153  33 81 153
33 81 153  33 81 153  33 81 153  33 81 153  33 81 153  33 81 153
33 81 153  33 81 153  33 81 153  33 81 153  33 81 153  33 81 153
33 81 153  33 81 153  33 81 153  33 81 153  33 81 153  33 81 153
33 81 153  33 81 153  33 81 153  33 81 153  33 81 153  33 81 153
33 81 153  33 81 153  33 81 153  33 81 153  33 81 153  33 81 153
33 81 153  33 81 153  33 81 153  33 81 153  33 81 153  33 81 153
19 48 90  0 1 2  0 0 0  0 0 0  0 0 0  0 0 0
0 0 0  0 0 0  0 0 0  0 0 0  0 0 0  0 0 0
0 0 0  0 0 0  0 0 0  0 0 0  0 0 0  0 0 0
0 0 0  0 0 0  0 0 0  0 0 0
0 0 0  0 0 0  0 0 0  8 19 37  32 78 146  33 81 153
33 81 153  33 81 153  33 81 153  33 81 153  33 81 153  33 81 153
33 81 153  33 81 153  33 81 153  33 81 153  33 81 153  33 81 153
33 81 153  33 81 153  33 81 153  33 81 153  33 81 153  33 81 153
33 81 153  33 81 153  31 76 144  6 16 30  4 10 19  27 65 124
33 81 153  33 81 153  33 81 153  33 81 153  33 81 153  33 81 153
33 81 153  33 81 153  33 81 153  33 81 153  33 81 153  33 81 153
33 81 153  33 81 153  33 81 153  33 81 153  33 81 153  33 81 153
33 81 153  33 81 153  33 81 153  33 81 153  33 81 153  33 81 153
33 81 153  33 81 153  33 81 153  33 81 153  33 81 153  33 81 153
33 81 153  33 81 153  33 81 153  33 81 153  33 81 153  33 81 153
33 81 153  33 81 153  33 81 153  33 81 153  33 81 153  33 81 153
33 81 153  33 81 153  33 81 153  33 81 153  33 81 153  33 81 153
33 81 153  33 81 153  33 81 153  33 81 153  33 81 153  33 81 153
33 81 153  33 81 153  33 81 153  19 46 88  0 1 2  6 15 28
31 75 142  33 81 153  33 81 153  33 81 153  33 81 153  33 81 153
33 81 153  33 81 153  33 81 153  33 81 153  33 81 153  33 81 153
33 81 153  33 81 153  33 81 153  33 81 153  33 81 153  33 81 153
33 81 153  33 81 153  33 81 153  33 81 153  32 78 148  9 21 40
0 0 0  0 0 0  0 0 0  0 0 0  0 0 0  0 0 0
0 0 0  0 0 0  0 0 0  0 0 0  0 0 0  0 0 0
0 0 0  0 0 0  0 0 0  0 0 0  0 0 0  0 0 0
0 0 0  0 0 0  0 0 0  0 0 0  0 0 0  0 0 0
0 0 0  0 0 0  0 0 0  0 0 0  0 0 0  0 0 0
0 0 0  0 0 0  0 0 0  0 0 0  0 0 0  0 0 0
0 0 0  0 0 0  0 0 0  0 0 0  0 0 0  0 0 0
0 0 0  0 0 0  0 0 0  0 0 0  0 0 0  11 27 50
33 80 151  33 81 153  33 81 153  33 81 153  33 81 153  33 81 153
33 81 153  33 81 153  33 81 153  33 81 153  33 81 153  33 81 153
33 81 153  33 81 153  33 81 153  33 81 153  33 81 153  33 81 153
33 81 153  33 81 153  33 81 153  33 81 153  33 81 153  30 73 138
5 12 23  0 0 0  0 0 0  0 0 0  0 0 0  0 0 0
0 0 0  0 0 0  0 0 0  0 0 0  0 0 0  0 0 0
0 0 0  0 0 0  0 0 0  0 0 0  0 0 0  0 0 0
0 0 0  0 0 0  0 0 0  0 0 0  0 0 0  0 0 0
0 0 0  0 0 0  0 0 0  0 0 0  0 0 0  0 0 0
0 0 0  0 0 0  0 0 0  0 0 0  0 0 0  0 0 0
0 0 0  0 0 0  0 0 0  0 0 0  0 0 0  0 0 0
0 0 0  0 0 0  0 0 0  0 0 0  0 0 0  0 0 0
0 0 0  0 0 0  0 0 0  0 0 0  0 0 0  0 0 0
0 0 0  0 0 0  6 14 27  31 75 142  33 81 153  33 81 153
33 81 153  33 81 153  33 81 153  33 81 153  33 81 153  33 81 153
33 81 153  33 81 153  33 81 153  33 81 153  33 81 153  33 81 153
33 81 153  33 81 153  33 81 153  33 81 153  33 81 153  33 81 153
33 81 153  31 77 145  7 17 32  0 0 0  0 0 0  0 0 0
0 0 0  0 0 0  0 0 0  0 0 0  0 0 0  0 0 0
0 0 0  0 0 0  0 0 0  0 0 0  0 0 0  0 0 0
2 5 9  26 64 121  33 81 153  33 81 153  33 81 153  33 81 153
33 81 153  33 81 153  33 81 153  33 81 153  33 81 153  33 81 153
33 81 153  33 81 153  33 81 153  33 81 153  33 81 153  33 81 153
33 81 153  33 81 153  33 81 153  33 81 153  33 81 153  33 81 153
33 81 153  33 81 153  33 81 153  33 81 153  33 81 153  33 81 153
33 81 153  33 81 153  33 81 153  33 81 153  33 81 153  33 81 153
33 81 153  33 81 153  33 81 153  33 81 153  33 81 153  33 81 153
33 81 153  33 81 153  33 81 153  33 81 153  33 81 153  33 81 153
33 81 153  33 81 153  33 81 153  33 81 153  33 81 153  33 81 153
33 81 153  33 81 153  33 81 153  33 81 153  33 81 153  33 81 153
33 81 153  33 81 153  33 81 153  33 81 153  33 81 153  33 81 153
33 81 153  33 81 153  33 81 153  33 81 153  33 81 153  33 81 153
33 81 153  33 81 153  33 81 153  33 81 153  33 81 153  33 81 153
33 81 153  33 81 153  32 79 149  26 63 119  17 41 77  8 18 35
1 3 7  0 0 0  0 0 0  0 0 0  0 0 0  0 0 0
0 0 0  0 0 0  0 0 0  0 0 0  0 0 0  0 0 0
0 0 0  0 0 0  0 0 0  0 0 0  0 0 0  0 0 0
0 0 0  0 0 0  0 0 0  0 0 0  0 0 0  0 0 0
0 0 0  0 0 0  0 0 0  0 0 0  0 0 0  0 0 0
0 0 0  0 0 0  0 0 0  0 0 0  0 0 0  0 0 0
0 0 0  0 0 0  0 0 0  0 0 0  0 0 0  0 0 0
0 0 0  0 0 0  0 0 0  0 0 0  0 0 0  0 0 0
17 42 79  33 81 153  33 81 153  33 81 153  33 81 153  33 81 153
33 81 153  33 81 153  33 81 153  33 81 153  33 81 153  33 81 153
33 81 153  33 81 153  30 74 140  16 40 75  2 4 8  0 0 0
0 0 0  0 0 0  0 0 0  0 0 0  0 0 0  0 0 0
0 0 0  0 0 0  0 0 0  0 0 0  0 0 0  0 0 0
0 0 0  1 2 4  24 59 111  33 81 153  33 81 153  33 81 153
33 81 153  33 81 153  33 81 153  33 81 153  33 81 153  33 81 153
33 81 153  33 81 153  21 51 95  0 0 0  0 0 0  0 0 0
0 0 0  0 0 0  0 0 0  0 0 0  0 0 0  0 0 0
0 0 0  0 0 0  0 0 0  0 0 0  0 0 0  2 4 7
17 42 80  31 77 145  33 81 153  33 81 153  33 81 153  33 81 153
33 81 153  33 81 153  33 81 153  33 81 153  33 81 153  33 81 153
33 81 153  33 81 153  33 81 153  29 71 135  4 10 19  0 0 0
0 0 0  0 0 0  0 0 0  0 0 0  0 0 0  0 0 0
0 0 0  0 0 0  0 0 0  0 0 0  5 13 24  31 75 142
33 81 153  33 81 153  33 81 153  33 81 153  33 81 153  33 81 153
33 81 153  33 81 153  33 81 153  33 81 153  33 81 153  31 77 145
19 47 89  3 7 13  0 0 0  0 0 0  0 0 0  0 0 0
0 0 0  0 0 0  0 0 0  0 0 0  18 44 82  33 81 153
33 81 153  33 81 153  33 81 153  33 81 153  33 81 153  33 81 153
33 81 153  33 81 153  33 81 153  33 81 153  33 81 153  33 81 153
33 81 153  33 81 153  33 81 153  33 81 153  33 81 153  24 60 113
1 3 7  0 0 0  0 0 0  0 0 0  0 0 0  0 0 0
0 0 0  0 0 0  0 0 0  0 0 0  0 0 0  0 0 0
0 0 0  0 0 0  0 0 0  10 26 49  27 66 125  33 80 152
33 81 153  33 81 153  33 81 153  33 81 153  33 81 153  33 81 153
33 81 153  33 81 153  33 81 153  33 81 153  33 81 153  29 71 134
4 9 17  0 0 0  0 0 0  0 0 0  0 0 0  0 0 0
0 0 0  0 0 0  0 0 0  0 0 0  0 0 0  0 0 0
0 0 0  0 0 0  0 0 0  0 0 0  0 0 0  0 0 0
0 0 0  0 0 0  0 0 0  0 0 0  0 0 0  0 0 0
0 0 0  0 0 0  0 0 0  0 0 0  0 0 0  0 0 0
0 0 0  0 0 0  0 0 0  0 0 0  0 0 0  0 0 0
0 0 0  0 0 0  0 0 0  0 0 0  7 17 31  30 74 140
33 81 153  33 81 153  33 81 153  33 81 153  33 81 153  33 81 153
33 81 153  33 81 153  33 81 153  33 81 153  33 81 153  33 81 153
33 81 153  33 81 153  33 81 153  33 81 153  33 81 153  33 81 153
33 81 153  33 81 153  33 81 153  33 81 153  33 81 153  33 81 153
33 81 153  33 81 153  33 81 153  33 81 153  33 81 153  33 81 153
33 81 153  33 81 153  33 81 153  33 81 153  33 81 153  33 81 153
33 81 153  33 81 153  33 81 153  33 81 153  33 81 153  33 81 153
33 81 153  33 81 153  13 31 58  0 0 0  0 0 0  0 0 0
0 0 0  0 0 0  0 0 0  0 0 0  0 0 0  0 0 0
0 0 0  0 0 0  6 16 29  31 76 143  33 81 153  33 81 153
33 81 153  33 81 153  33 81 153  33 81 153  33 81 153  33 81 153
33 81 153  33 81 153  33 81 153  33 81 153  33 81 153  33 81 153
33 81 153  33 81 153  33 81 153  33 81 153  33 81 153  33 81 153
33 81 153  33 81 153  33 81 153  33 81 153  33 81 153  33 81 153
33 81 153  33 81 153  33 81 153  33 81 153  33 81 153  33 81 153
33 81 153  33 81 153  33 81 153  33 81 153  33 81 153  33 81 153
33 81 153  33 81 153  33 81 153  33 81 153  33 81 153  33 81 153
33 81 153  33 81 153  33 81 153  33 81 153  33 81 153  25 61 115
4 10 19  0 0 0  0 0 0  0 0 0  0 0 0  0 0 0
0 0 0  0 0 0  0 0 0  0 0 0  0 0 0  0 0 0
0 0 0  0 0 0  0 0 0  0 0 0  0 0 0  0 0 0
0 0 0  0 0 0  0 0 0  0 0 0
0 0 0  0 0 0  0 0 0  10 25 47  32 80 151  33 81 153
33 81 153  33 81 153  33 81 153  33 81 153  33 81 153  33 81 153
33 81 153  33 81 153  33 81 153  33 81 153  33 81 153  33 81 153
33 81 153  33 81 153  33 81 153  33 81 153  33 81 153  33 81 153
33 81 153  33 81 153  30 74 139  5 13 24  0 0 0  9 21 40
30 73 139  33 81 153  33 81 153  33 81 153  33 81 153  33 81 153
33 81 153  33 81 153  33 81 153  33 81 153  33 81 153  33 81 153
33 81 153  33 81 153  33 81 153  33 81 153  33 81 153  33 81 153
33 81 153  33 81 153  33 81 153  33 81 153  33 81 153  33 81 153
33 81 153  33 81 153  33 81 153  33 81 153  33 81 153  33 81 153
33 81 153  33 81 153  33 81 153  33 81 153  33 81 153  33 81 153
33 81 153  33 81 153  33 81 153  33 81 153  33 81 153  33 81 153
33 81 153  33 81 153  33 81 153  33 81 153  33 81 153  33 81 153
33 81 153  33 81 153  33 81 153  33 81 153  33 81 153  33 81 153
33 81 153  33 81 153  24 58 110  3 7 13  0 0 0  5 11 21
30 72 137  33 81 153  33 81 153  33 81 153  33 81 153  33 81 153
33 81 153  33 81 153  33 81 153  33 81 153  33 81 153  33 81 153
33 81 153  33 81 153  33 81 153  33 81 153  33 81 153  33 81 153
33 81 153  33 81 153  33 81 153  33 81 153  33 80 152  11 27 52
0 0 0  0 0 0  0 0 0  0 0 0  0 0 0  0 0 0
0 0 0  0 0 0  0 0 0  0 0 0  0 0 0  0 0 0
0 0 0  0 0 0  0 0 0  0 0 0  0 0 0  0 0 0
0 0 0  0 0 0  0 0 0  0 0 0  0 0 0  0 0 0
0 0 0  0 0 0  0 0 0  0 0 0  0 0 0  0 0 0
0 0 0  0 0 0  0 0 0  0 0 0  0 0 0  0 0 0
0 0 0  0 0 0  0 0 0  0 0 0  0 0 0  0 0 0
0 0 0  0 0 0  0 0 0  0 0 0  0 0 0  6 16 30
31 76 143  33 81 153  33 81 153  33 81 153  33 81 153  33 81 153
33 81 153  33 81 153  33 81 153  33 81 153  33 81 153  33 81 153
33 81 153  33 81 153  33 81 153  33 81 153  33 81 153  33 81 153
33 81 153  33 81 153  33 81 153  33 81 153  33 81 153  26 65 122
2 5 10  0 0 0  0 0 0  0 0 0  0 0 0  0 0 0
0 0 0  0 0 0  0 0 0  0 0 0  0 0 0  0 0 0
0 0 0  0 0 0  0 0 0  0 0 0  0 0 0  0 0 0
0 0 0  0 0 0  0 0 0  0 0 0  0 0 0  0 0 0
0 0 0  0 0 0  0 0 0  0 0 0  0 0 0  0 0 0
0 0 0  0 0 0  0 0 0  0 0 0  0 0 0  0 0 0
0 0 0  0 0 0  0 0 0  0 0 0  0 0 0  0 0 0
0 0 0  0 0 0  0 0 0  0 0 0  0 0 0  0 0 0
0 0 0  0 0 0  0 0 0  0 0 0  0 0 0  0 0 0
0 0 0  0 0 0  6 14 27  31 75 142  33 81 153  33 81 153
33 81 153  33 81 153  33 81 153  33 81 153  33 81 153  33 81 153
33 81 153  33 81 153  33 81 153  33 81 153  33 81 153  33 81 153
33 81 153  33 81 153  33 81 153  33 81 153  33 81 153  33 81 153
33 81 153  31 77 145  7 17 32  0 0 0  0 0 0  0 0 0
0 0 0  0 0 0  0 0 0  0 0 0  0 0 0  0 0 0
0 0 0  0 0 0  0 0 0  0 0 0  0 0 0  0 0 0
2 5 9  26 64 121  33 81 153  33 81 153  33 81 153  33 81 153
33 81 153  33 81 153  33 81 153  33 81 153  33 81 153  33 81 153
33 81 153  33 81 153  33 81 153  33 81 153  33 81 153  33 81 153
33 81 153  33 81 153  33 81 153  33 81 153  33 81 153  33 81 153
33 81 153  33 81 153  33 81 153  33 81 153  33 81 153  33 81 153
33 81 153  33 81 153  33 81 153  33 81 153  33 81 153  33 81 153
33 81 153  33 81 153  33 81 153  33 81 153  33 81 153  33 81 153
33 81 153  33 81 153  33 81 153  33 81 153  33 81 153  33 81 153
33 81 153  33 81 153  33 81 153  33 81 153  33 81 153  33 81 153
33 81 153  33 81 153  33 81 153  33 81 153  33 81 153  33 81 153
33 81 153  33 81 153  33 81 153  33 81 153  33 81 153  33 81 153
33 81 153  33 81 153  33 81 153  33 81 153  33 81 153  33 81 153
33 81 153  33 81 153  33 81 153  33 81 153  33 81 153  33 81 153
33 81 153  33 81 153  33 81 153  33 81 153  33 81 153  31 76 144
24 59 112  13 32 60  3 8 16  0 0 0  0 0 0  0 0 0
0 0 0  0 0 0  0 0 0  0 0 0  0 0 0  0 0 0
0 0 0  0 0 0  0 0 0  0 0 0  0 0 0  0 0 0
0 0 0  0 0 0  0 0 0  0 0 0  0 0 0  0 0 0
0 0 0  0 0 0  0 0 0  0 0 0  0 0 0  0 0 0
0 0 0  0 0 0  0 0 0  0 0 0  0 0 0  0 0 0
0 0 0  0 0 0  0 0 0  0 0 0  0 0 0  0 0 0
0 0 0  0 0 0  0 0 0  0 0 0  0 0 0  0 0 0
17 42 80  33 81 153  33 81 153  33 81 153  33 81 153  33 81 153
33 81 153  33 81 153  33 81 153  33 81 153  33 81 153  32 79 149
29 70 133  20 49 92  7 18 34  0 0 1  0 0 0  0 0 0
0 0 0  0 0 0  0 0 0  0 0 0  0 0 0  0 0 0
0 0 0  0 0 0  0 0 0  0 0 0  0 0 0  0 0 0
0 0 0  1 2 4  24 60 113  33 81 153  33 81 153  33 81 153
33 81 153  33 81 153  33 81 153  33 81 153  33 81 153  33 81 153
33 81 153  33 81 153  21 51 97  0 0 0  0 0 0  0 0 0
0 0 0  0 0 0  0 0 0  0 0 0  0 0 0  0 0 0
0 0 0  0 0 0  0 0 0  0 0 0  0 0 0  0 0 0
0 1 2  9 22 41  22 54 101  30 73 137  33 80 151  33 81 153
33 81 153  33 81 153  33 81 153  33 81 153  33 81 153  33 81 153
33 81 153  33 81 153  33 81 153  30 73 137  4 10 19  0 0 0
0 0 0  0 0 0  0 0 0  0 0 0  0 0 0  0 0 0
0 0 0  0 0 0  0 0 0  0 0 0  4 9 17  21 53 100
24 58 110  24 58 110  24 58 110  24 58 110  24 58 110  24 58 110
24 58 110  24 58 110  24 60 113  23 56 105  17 43 80  8 20 38
1 2 3  0 0 0  0 0 0  0 0 0  0 0 0  0 0 0
0 0 0  0 0 0  0 0 0  0 0 0  18 44 82  33 81 153
33 81 153  33 81 153  33 81 153  33 81 153  33 81 153  33 81 153
33 81 153  33 81 153  33 81 153  33 81 153  33 81 153  33 81 153
33 81 153  33 81 153  33 81 153  33 81 153  31 77 146  11 26 49
0 0 0  0 0 0  0 0 0  0 0 0  0 0 0  0 0 0
0 0 0  0 0 0  0 0 0  0 0 0  0 0 0  0 0 0
0 0 0  0 0 0  0 0 0  0 0 0  3 8 16  12 30 56
19 47 88  23 55 104  24 58 110  24 58 110  24 58 110  24 58 110
24 58 110  24 58 110  24 58 110  24 58 110  24 58 110  21 51 95
3 6 12  0 0 0  0 0 0  0 0 0  0 0 0  0 0 0
0 0 0  0 0 0  0 0 0  0 0 0  0 0 0  0 0 0
0 0 0  0 0 0  0 0 0  0 0 0  0 0 0  0 0 0
0 0 0  0 0 0  0 0 0  0 0 0  0 0 0  0 0 0
0 0 0  0 0 0  0 0 0  0 0 0  0 0 0  0 0 0
0 0 0  0 0 0  0 0 0  0 0 0  0 0 0  0 0 0
0 0 0  0 0 0  0 0 0  0 0 0  0 0 1  14 34 65
31 75 142  33 81 153  33 81 153  33 81 153  33 81 153  33 81 153
33 81 153  33 81 153  33 81 153  33 81 153  33 81 153  33 81 153
33 81 153  33 81 153  33 81 153  33 81 153  33 81 153  33 81 153
33 81 153  33 81 153  33 81 153  33 81 153  33 81 153  33 81 153
33 81 153  33 81 153  33 81 153  33 81 153  33 81 153  33 81 153
33 81 153  33 81 153  33 81 153  33 81 153  33 81 153  33 81 153
33 81 153  33 81 153  33 81 153  33 81 153  33 81 153  33 81 153
33 81 153  33 81 153  13 31 58  0 0 0  0 0 0  0 0 0
0 0 0  0 0 0  0 0 0  0 0 0  0 0 0  0 0 0
0 0 0  0 0 0  6 16 30  31 77 145  33 81 153  33 81 153
33 81 153  33 81 153  33 81 153  33 81 153  33 81 153  33 81 153
33 81 153  33 81 153  33 81 153  33 81 153  33 81 153  33 81 153
33 81 153  33 81 153  33 81 153  33 81 153  33 81 153  33 81 153
33 81 153  33 81 153  33 81 153  33 81 153  33 81 153  33 81 153
33 81 153  33 81 153  33 81 153  33 81 153  33 81 153  33 81 153
33 81 153  33 81 153  33 81 153  33 81 153  33 81 153  33 81 153
33 81 153  33 81 153  33 81 153  33 81 153  33 81 153  33 81 153
33 81 153  33 81 153  33 81 152  30 73 137  19 47 89  4 10 19
0 0 0  0 0 0  0 0 0  0 0 0  0 0 0  0 0 0
0 0 0  0 0 0  0 0 0  0 0 0  0 0 0  0 0 0
0 0 0  0 0 0  0 0 0  0 0 0  0 0 0  0 0 0
0 0 0  0 0 0  0 0 0  0 0 0
0 0 0  0 0 0  0 0 0  13 31 59  33 81 153  33 81 153
33 81 153  33 81 153  33 81 153  33 81 153  33 81 153  33 81 153
33 81 153  33 81 153  33 81 153  33 81 153  33 81 153  33 81 153
33 81 153  33 81 153  33 81 153  33 81 153  33 81 153  33 81 153
33 81 153  33 81 153  29 71 134  4 10 18  0 0 0  0 0 0
13 31 59  32 78 146  33 81 153  33 81 153  33 81 153  33 81 153
33 81 153  33 81 153  33 81 153  33 81 153  33 81 153  33 81 153
33 81 153  33 81 153  33 81 153  33 81 153  33 81 153  33 81 153
33 81 153  33 81 153  33 81 153  33 81 153  33 81 153  33 81 153
33 81 153  33 81 153  33 81 153  33 81 153  33 81 153  33 81 153
33 81 153  33 81 153  33 81 153  33 81 153  33 81 153  33 81 153
33 81 153  33 81 153  33 81 153  33 81 153  33 81 153  33 81 153
33 81 153  33 81 153  33 81 153  33 81 153  33 81 153  33 81 153
33 81 153  33 81 153  33 81 153  33 81 153  33 81 153  33 81 153
33 81 153  27 67 126  6 14 26  0 0 0  0 0 0  3 8 16
28 69 131  33 81 153  33 81 153  33 81 153  33 81 153  33 81 153
33 81 153  33 81 153  33 81 153  33 81 153  33 81 153  33 81 153
33 81 153  33 81 153  33 81 153  33 81 153  33 81 153  33 81 153
33 81 153  33 81 153  33 81 153  33 81 153  33 81 153  14 34 64
0 0 0  0 0 0  0 0 0  0 0 0  0 0 0  0 0 0
0 0 0  0 0 0  0 0 0  0 0 0  0 0 0  0 0 0
0 0 0  0 0 0  0 0 0  0 0 0  0 0 0  0 0 0
0 0 0  0 0 0  0 0 0  0 0 0  0 0 0  0 0 0
0 0 0  0 0 0  0 0 0  0 0 0  0 0 0  0 0 0
0 0 0  0 0 0  0 0 0  0 0 0  0 0 0  0 0 0
0 0 0  0 0 0  0 0 0  0 0 0  0 0 0  0 0 0
0 0 0  0 0 0  0 0 0  0 0 0  0 0 0  4 9 17
28 70 132  33 81 153  33 81 153  33 81 153  33 81 153  33 81 153
33 81 153  33 81 153  33 81 153  33 81 153  33 81 153  33 81 153
33 81 153  33 81 153  33 81 153  33 81 153  33 81 153  33 81 153
33 81 153  33 81 153  33 81 153  33 81 153  33 81 153  23 56 106
1 2 3  0 0 0  0 0 0  0 0 0  0 0 0  0 0 0
0 0 0  0 0 0  0 0 0  0 0 0  0 0 0  0 0 0
0 0 0  0 0 0  0 0 0  0 0 0  0 0 0  0 0 0
0 0 0  0 0 0  0 0 0  0 0 0  0 0 0  0 0 0
0 0 0  0 0 0  0 0 0  0 0 0  0 0 0  0 0 0
0 0 0  0 0 0  0 0 0  0 0 0  0 0 0  0 0 0
0 0 0  0 0 0  0 0 0  0 0 0  0 0 0  0 0 0
0 0 0  0 0 0  0 0 0  0 0 0  0 0 0  0 0 0
0 0 0  0 0 0  0 0 0  0 0 0  0 0 0  0 0 0
0 0 0  0 0 0  6 14 27  31 75 142  33 81 153  33 81 153
33 81 153  33 81 153  33 81 153  33 81 153  33 81 153  33 81 153
33 81 153  33 81 153  33 81 153  33 81 153  33 81 153  33 81 153
33 81 153  33 81 153  33 81 153  33 81 153  33 81 153  33 81 153
33 81 153  31 77 145  7 17 32  0 0 0  0 0 0  0 0 0
0 0 0  0 0 0  0 0 0  0 0 0  0 0 0  0 0 0
0 0 0  0 0 0  0 0 0  0 0 0  0 0 0  0 0 0
2 5 9  26 64 121  33 81 153  33 81 153  33 81 153  33 81 153
33 81 153  33 81 153  33 81 153  33 81 153  33 81 153  33 81 153
33 81 153  33 81 153  33 81 153  33 81 153  33 81 153  33 81 153
33 81 153  33 81 153  33 81 153  33 81 153  33 81 153  33 81 153
33 81 153  33 81 153  33 81 153  33 81 153  33 81 153  33 81 153
33 81 153  33 81 153  33 81 153  33 81 153  33 81 153  33 81 153
33 81 153  33 81 153  33 81 153  33 81 153  33 81 153  33 81 153
33 81 153  33 81 153  33 81 153  33 81 153  33 81 153  33 81 153
33 81 153  33 81 153  33 81 153  33 81 153  33 81 153  33 81 153
33 81 153  33 81 153  33 81 153  33 81 153  33 81 153  33 81 153
33 81 153  33 81 153  33 81 153  33 81 153  33 81 153  33 81 153
33 81 153  33 81 153  33 81 153  33 81 153  33 81 153  33 81 153
33 81 153  33 81 153  33 81 153  33 81 153  33 81 153  33 81 153
33 81 153  33 81 153  33 81 153  33 81 153  33 81 153  33 81 153
33 81 153  33 80 152  27 67 126  15 37 69  3 8 15  0 0 0
0 0 0  0 0 0  0 0 0  0 0 0  0 0 0  0 0 0
0 0 0  0 0 0  0 0 0  0 0 0  0 0 0  0 0 0
0 0 0  0 0 0  0 0 0  0 0 0  0 0 0  0 0 0
0 0 0  0 0 0  0 0 0  0 0 0  0 0 0  0 0 0
0 0 0  0 0 0  0 0 0  0 0 0  0 0 0  0 0 0
0 0 0  0 0 0  0 0 0  0 0 0  0 0 0  0 0 0
0 0 0  0 0 0  0 0 0  0 0 0  0 0 0  0 0 0
10 24 45  19 47 89  19 47 88  19 47 88  19 47 88  19 47 88
19 47 88  19 47 88  19 46 86  17 43 81  14 35 67  10 24 44
4 10 19  0 1 1  0 0 0  0 0 0  0 0 0  0 0 0
0 0 0  0 0 0  0 0 0  0 0 0  0 0 0  0 0 0
0 0 0  0 0 0  0 0 0  0 0 0  0 0 0  0 0 0
0 0 0  1 1 2  14 34 64  19 47 89  19 47 88  19 47 88
19 47 88  19 47 88  19 47 88  19 47 88  19 47 88  19 47 88
19 47 88  19 47 89  12 29 55  0 0 0  0 0 0  0 0 0
0 0 0  0 0 0  0 0 0  0 0 0  0 0 0  0 0 0
0 0 0  0 0 0  0 0 0  0 0 0  0 0 0  0 0 0
0 0 0  0 0 0  1 2 3  5 12 23  11 27 50  15 38 71
18 45 85  20 48 91  19 47 89  19 46 88  19 47 88  19 47 88
19 47 88  19 47 88  19 47 89  17 41 78  2 6 11  0 0 0
0 0 0  0 0 0  0 0 0  0 0 0  0 0 0  0 0 0
0 0 0  0 0 0  0 0 0  0 0 0  0 0 1  1 2 4
1 2 4  1 2 4  1 2 4  1 2 4  1 2 4  1 2 4
1 2 4  1 2 4  1 3 5  1 1 2  0 0 0  0 0 0
0 0 0  0 0 0  0 0 0  0 0 0  0 0 0  0 0 0
0 0 0  0 0 0  0 0 0  0 0 0  18 44 83  33 81 153
33 81 153  33 81 153  33 81 153  33 81 153  33 81 153  33 81 153
33 81 153  33 81 153  33 81 153  33 81 153  33 81 153  33 81 153
33 81 153  33 81 153  33 81 153  29 72 136  13 33 62  0 1 2
0 0 0  0 0 0  0 0 0  0 0 0  0 0 0  0 0 0
0 0 0  0 0 0  0 0 0  0 0 0  0 0 0  0 0 0
0 0 0  0 0 0  0 0 0  0 0 0  0 0 0  0 0 0
0 0 0  1 1 2  1 2 4  1 2 4  1 2 4  1 2 4
1 2 4  1 2 4  1 2 4  1 2 4  1 2 4  1 2 3
0 0 1  0 0 0  0 0 0  0 0 0  0 0 0  0 0 0
0 0 0  0 0 0  0 0 0  0 0 0  0 0 0  0 0 0
0 0 0  0 0 0  0 0 0  0 0 0  0 0 0  0 0 0
0 0 0  0 0 0  0 0 0  0 0 0  0 0 0  0 0 0
0 0 0  0 0 0  0 0 0  0 0 0  0 0 0  0 0 0
0 0 0  0 0 0  0 0 0  0 0 0  0 0 0  0 0 0
0 0 0  0 0 0  0 0 0  0 0 0  0 0 0  0 1 1
8 20 37  19 48 90  26 64 121  29 71 135  30 74 140  30 74 140
30 73 138  29 71 135  29 71 134  29 71 134  29 71 134  29 71 134
29 71 134  29 71 134  29 71 134  29 71 134  29 71 134  29 71 134
29 71 134  29 71 134  29 71 134  29 71 134  29 71 134  29 71 134
29 71 134  29 71 134  29 71 134  29 71 134  29 71 134  29 71 134
29 71 134  29 71 134  29 71 134  29 71 134  29 71 134  29 71 134
29 71 134  29 71 134  29 71 134  29 71 134  29 71 134  29 71 134
29 71 134  29 71 134  11 27 51  0 0 0  0 0 0  0 0 0
0 0 0  0 0 0  0 0 0  0 0 0  0 0 0  0 0 0
0 0 0  0 0 0  4 9 17  18 44 82  19 47 88  19 47 88
19 47 88  19 47 88  19 47 88  19 47 88  19 47 88  19 47 88
19 47 88  19 47 88  19 47 88  19 47 88  19 47 88  19 47 88
19 47 88  19 47 88  19 47 88  19 47 88  19 47 88  19 47 88
19 47 88  19 47 88  19 47 88  19 47 88  19 47 88  19 47 88
19 47 88  19 47 88  19 47 88  19 47 88  19 47 88  19 47 88
19 47 88  19 47 88  19 47 88  19 47 88  19 47 88  19 47 88
19 47 88  19 46 88  19 47 89  21 52 98  23 55 104  23 56 105
21 52 99  18 44 84  13 31 58  5 13 25  0 1 1  0 0 0
0 0 0  0 0 0  0 0 0  0 0 0  0 0 0  0 0 0
0 0 0  0 0 0  0 0 0  0 0 0  0 0 0  0 0 0
0 0 0  0 0 0  0 0 0  0 0 0  0 0 0  0 0 0
0 0 0  0 0 0  0 0 0  0 0 0
0 0 0  0 0 0  0 0 0  15 38 71  33 81 153  33 81 153
33 81 153  33 81 153  33 81 153  33 81 153  33 81 153  33 81 153
33 81 153  33 81 153  33 81 153  33 81 153  33 81 153  33 81 153
33 81 153  33 81 153  33 81 153  33 81 153  33 81 153  33 81 153
33 81 153  33 81 153  27 67 127  3 7 13  0 0 0  0 0 0
0 1 2  16 39 74  32 80 151  33 81 153  33 81 153  33 81 153
33 81 153  33 81 153  33 81 153  33 81 153  33 81 153  33 81 153
33 81 153  33 81 153  33 81 153  33 81 153  33 81 153  33 81 153
33 81 153  33 81 153  33 81 153  33 81 153  33 81 153  33 81 153
33 81 153  33 81 153  33 81 153  33 81 153  33 81 153  33 81 153
33 81 153  33 81 153  33 81 153  33 81 153  33 81 153  33 81 153
33 81 153  33 81 153  33 81 153  33 81 153  33 81 153  33 81 153
33 81 153  33 81 153  33 81 153  33 81 153  33 81 153  33 81 153
33 81 153  33 81 153  33 81 153  33 81 153  33 81 153  33 81 153
29 72 136  8 20 38  0 0 0  0 0 0  0 0 0  2 5 10
27 66 124  33 81 153  33 81 153  33 81 153  33 81 153  33 81 153
33 81 153  33 81 153  33 81 153  33 81 153  33 81 153  33 81 153
33 81 153  33 81 153  33 81 153  33 81 153  33 81 153  33 81 153
33 81 153  33 81 153  33 81 153  33 81 153  33 81 153  16 40 75
0 0 0  0 0 0  0 0 0  0 0 0  0 0 0  0 0 0
0 0 0  0 0 0  0 0 0  0 0 0  0 0 0  0 0 0
0 0 0  0 0 0  0 0 0  0 0 0  0 0 0  0 0 0
0 0 0  0 0 0  0 0 0  0 0 0  0 0 0  0 0 0
0 0 0  0 0 0  0 0 0  0 0 0  0 0 0  0 0 0
0 0 0  0 0 0  0 0 0  0 0 0  0 0 0  0 0 0
0 0 0  0 0 0  0 0 0  0 0 0  0 0 0  0 0 0
0 0 0  0 0 0  0 0 0  0 0 0  0 0 0  2 5 9
26 64 122  33 81 153  33 81 153  33 81 153  33 81 153  33 81 153
33 81 153  33 81 153  33 81 153  33 81 153  33 81 153  33 81 153
33 81 153  33 81 153  33 81 153  33 81 153  33 81 153  33 81 153
33 81 153  33 81 153  33 81 153  33 81 153  33 81 153  20 49 92
0 0 0  0 0 0  0 0 0  0 0 0  0 0 0  0 0 0
0 0 0  0 0 0  0 0 0  0 0 0  0 0 0  0 0 0
0 0 0  0 0 0  0 0 0  0 0 0  0 0 0  0 0 0
0 0 0  0 0 0  0 0 0  0 0 0  0 0 0  0 0 0
0 0 0  0 0 0  0 0 0  0 0 0  0 0 0  0 0 0
0 0 0  0 0 0  0 0 0  0 0 0  0 0 0  0 0 0
0 0 0  0 0 0  0 0 0  0 0 0  0 0 0  0 0 0
0 0 0  0 0 0  0 0 0  0 0 0  0 0 0  0 0 0
0 0 0  0 0 0  0 0 0  0 0 0  0 0 0  0 0 0
0 0 0  0 0 0  6 14 27  31 75 142  33 81 153  33 81 153
33 81 153  33 81 153  33 81 153  33 81 153  33 81 153  33 81 153
33 81 153  33 81 153  33 81 153  33 81 153  33 81 153  33 81 153
33 81 153  33 81 153  33 81 153  33 81 153  33 81 153  33 81 153
33 81 153  31 77 145  7 17 32  0 0 0  0 0 0  0 0 0
0 0 0  0 0 0  0 0 0  0 0 0  0 0 0  0 0 0
0 0 0  0 0 0  0 0 0  0 0 0  0 0 0  0 0 0
2 5 9  26 64 121  33 81 153  33 81 153  33 81 153  33 81 153
33 81 153  33 81 153  33 81 153  33 81 153  33 81 153  33 81 153
33 81 153  33 81 153  33 81 153  33 81 153  33 81 153  33 81 153
33 81 153  33 81 153  33 81 153  33 81 153  33 81 153  33 81 153
33 81 153  33 81 153  33 81 153  33 81 153  33 81 153  33 81 153
33 81 153  33 81 153  33 81 153  33 81 153  33 81 153  33 81 153
33 81 153  33 81 153  33 81 153  33 81 153  33 81 153  33 81 153
33 81 153  33 81 153  33 81 153  33 81 153  33 81 153  33 81 153
33 81 153  33 81 153  33 81 153  33 81 153  33 81 153  33 81 153
33 81 153  33 81 153  33 81 153  33 81 153  33 81 153  33 81 153
33 81 153  33 81 153  33 81 153  33 81 153  33 81 153  33 81 153
33 81 153  33 81 153  33 81 153  33 81 153  33 81 153  33 81 153
33 81 153  33 81 153  33 81 153  33 81 153  33 81 153  33 81 153
33 81 153  33 81 153  33 81 153  33 81 153  33 81 153  33 81 153
33 81 153  33 81 153  33 81 153  33 81 153  26 65 122  11 27 52
1 2 3  0 0 0  0 0 0  0 0 0  0 0 0  0 0 0
0 0 0  0 0 0  0 0 0  0 0 0  0 0 0  0 0 0
0 0 0  0 0 0  0 0 0  0 0 0  0 0 0  0 0 0
0 0 0  0 0 0  0 0 0  0 0 0  0 0 0  0 0 0
0 0 0  0 0 0  0 0 0  0 0 0  0 0 0  0 0 0
0 0 0  0 0 0  0 0 0  0 0 0  0 0 0  0 0 0
0 0 0  0 0 0  0 0 0  0 0 0  0 0 0  0 0 0
0 0 0  0 0 0  0 0 0  0 0 0  0 0 0  0 0 0
0 0 0  0 0 0  0 0 0  0 0 0  0 0 0  0 0 0
0 0 0  0 0 0  0 0 0  0 0 0  0 0 0  0 0 0
0 0 0  0 0 0  0 0 0  0 0 0  0 0 0  0 0 0
0 0 0  0 0 0  0 0 0  0 0 0  0 0 0  0 0 0
0 0 0  0 0 0  0 0 0  0 0 0  0 0 0  0 0 0
0 0 0  0 0 0  0 0 0  0 0 0  0 0 0  0 0 0
0 0 0  0 0 0  0 0 0  0 0 0  0 0 0  0 0 0
0 0 0  0 0 0  0 0 0  0 0 0  0 0 0  0 0 0
0 0 0  0 0 0  0 0 0  0 0 0  0 0 0  0 0 0
0 0 0  0 0 0  0 0 0  0 0 0  0 0 0  0 0 0
0 0 0  0 0 0  0 0 0  0 0 0  0 0 0  0 0 0
0 0 0  0 0 0  0 0 0  0 0 0  0 0 0  0 0 0
0 0 0  0 0 0  0 0 0  0 0 0  0 0 0  0 0 0
0 0 0  0 0 0  0 0 0  0 0 0  0 0 0  0 0 0
0 0 0  0 0 0  0 0 0  0 0 0  0 0 0  0 0 0
0 0 0  0 0 0  0 0 0  0 0 0  0 0 0  0 0 0
0 0 0  0 0 0  0 0 0  0 0 0  0 0 0  0 0 0
0 0 0  0 0 0  0 0 0  0 0 0  14 34 64  26 63 119
25 62 118  25 62 118  25 62 118  25 62 118  25 62 118  25 62 118
25 62 118  25 62 118  25 62 118  25 62 118  25 62 118  25 63 118
25 61 116  22 54 103  16 38 72  6 14 26  0 0 0  0 0 0
0 0 0  0 0 0  0 0 0  0 0 0  0 0 0  0 0 0
0 0 0  0 0 0  0 0 0  0 0 0  0 0 0  0 0 0
0 0 0  0 0 0  0 0 0  0 0 0  0 0 0  0 0 0
0 0 0  0 0 0  0 0 0  0 0 0  0 0 0  0 0 0
0 0 0  0 0 0  0 0 0  0 0 0  0 0 0  0 0 0
0 0 0  0 0 0  0 0 0  0 0 0  0 0 0  0 0 0
0 0 0  0 0 0  0 0 0  0 0 0  0 0 0  0 0 0
0 0 0  0 0 0  0 0 0  0 0 0  0 0 0  0 0 0
0 0 0  0 0 0  0 0 0  0 0 0  0 0 0  0 0 0
0 0 0  0 0 0  0 0 0  0 0 0  0 0 0  0 0 0
0 0 0  0 0 0  0 0 0  0 0 0  0 0 0  0 0 0
0 0 0  0 0 0  0 0 0  0 0 0  0 0 0  0 0 0
0 0 0  0 0 0  2 5 9  4 10 19  5 13 25  6 14 26
5 12 23  4 10 19  4 10 18  4 10 18  4 10 18  4 10 18
4 10 18  4 10 18  4 10 18  4 10 18  4 10 18  4 10 18
4 10 18  4 10 18  4 10 18  4 10 18  4 10 18  4 10 18
4 10 18  4 10 18  4 10 18  4 10 18  4 10 18  4 10 18
4 10 18  4 10 18  4 10 18  4 10 18  4 10 18  4 10 18
4 10 18  4 10 18  4 10 18  4 10 18  4 10 18  4 10 18
4 10 18  4 10 18  2 4 7  0 0 0  0 0 0  0 0 0
0 0 0  0 0 0  0 0 0  0 0 0  0 0 0  0 0 0
0 0 0  0 0 0  0 0 0  0 0 0  0 0 0  0 0 0
0 0 0  0 0 0  0 0 0  0 0 0  0 0 0  0 0 0
0 0 0  0 0 0  0 0 0  0 0 0  0 0 0  0 0 0
0 0 0  0 0 0  0 0 0  0 0 0  0 0 0  0 0 0
0 0 0  0 0 0  0 0 0  0 0 0  0 0 0  0 0 0
0 0 0  0 0 0  0 0 0  0 0 0  0 0 0  0 0 0
0 0 0  0 0 0  0 0 0  0 0 0  0 0 0  0 0 0
0 0 0  0 0 0  0 0 0  0 0 1  1 1 2  1 1 2
0 0 1  0 0 0  0 0 0  0 0 0  0 0 0  0 0 0
0 0 0  0 0 0  0 0 0  0 0 0  0 0 0  0 0 0
0 0 0  0 0 0  0 0 0  0 0 0  0 0 0  0 0 0
0 0 0  0 0 0  0 0 0  0 0 0  0 0 0  0 0 0
0 0 0  0 0 0  0 0 0  0 0 0
0 0 0  0 0 0  0 0 0  18 44 84  33 81 153  33 81 153
33 81 153  33 81 153  33 81 153  33 81 153  33 81 153  33 81 153
33 81 153  33 81 153  33 81 153  33 81 153  33 81 153  33 81 153
33 81 153  33 81 153  33 81 153  33 81 153  33 81 153  33 81 153
33 81 153  33 81 153  26 64 120  2 4 8  0 0 0  0 0 0
0 0 0  1 3 5  18 45 85  33 80 152  33 81 153  33 81 153
33 81 153  33 81 153  33 81 153  33 81 153  33 81 153  33 81 153
33 81 153  33 81 153  33 81 153  33 81 153  33 81 153  33 81 153
33 81 153  33 81 153  33 81 153  33 81 153  33 81 153  33 81 153
33 81 153  33 81 153  33 81 153  33 81 153  33 81 153  33 81 153
33 81 153  33 81 153  33 81 153  33 81 153  33 81 153  33 81 153
33 81 153  33 81 153  33 81 153  33 81 153  33 81 153  33 81 153
33 81 153  33 81 153  33 81 153  33 81 153  33 81 153  33 81 153
33 81 153  33 81 153  33 81 153  33 81 153  33 81 153  30 74 140
10 26 49  0 0 0  0 0 0  0 0 0  0 0 0  1 3 7
25 62 116  33 81 153  33 81 153  33 81 153  33 81 153  33 81 153
33 81 153  33 81 153  33 81 153  33 81 153  33 81 153  33 81 153
33 81 153  33 81 153  33 81 153  33 81 153  33 81 153  33 81 153
33 81 153  33 81 153  33 81 153  33 81 153  33 81 153  19 47 88
0 0 0  0 0 0  0 0 0  0 0 0  0 0 0  0 0 0
0 0 0  0 0 0  0 0 0  0 0 0  0 0 0  0 0 0
0 0 0  0 0 0  0 0 0  0 0 0  0 0 0  0 0 0
0 0 0  0 0 0  0 0 0  0 0 0  0 0 0  0 0 0
0 0 0  0 0 0  0 0 0  0 0 0  0 0 0  0 0 0
0 0 0  0 0 0  0 0 0  0 0 0  0 0 0  0 0 0
0 0 0  0 0 0  0 0 0  0 0 0  0 0 0  0 0 0
0 0 0  0 0 0  0 0 0  0 0 0  0 0 0  1 3 5
25 60 114  33 81 153  33 81 153  33 81 153  33 81 153  33 81 153
33 81 153  33 81 153  33 81 153  33 81 153  33 81 153  33 81 153
33 81 153  33 81 153  33 81 153  33 81 153  33 81 153  33 81 153
33 81 153  33 81 153  33 81 153  33 81 153  33 81 153  18 44 82
0 0 0  0 0 0  0 0 0  0 0 0  0 0 0  0 0 0
0 0 0  0 0 0  0 0 0  0 0 0  0 0 0  0 0 0
0 0 0  0 0 0  0 0 0  0 0 0  0 0 0  0 0 0
0 0 0  0 0 0  0 0 0  0 0 0  0 0 0  0 0 0
0 0 0  0 0 0  0 0 0  0 0 0  0 0 0  0 0 0
0 0 0  0 0 0  0 0 0  0 0 0  0 0 0  0 0 0
0 0 0  0 0 0  0 0 0  0 0 0  0 0 0  0 0 0
0 0 0  0 0 0  0 0 0  0 0 0  0 0 0  0 0 0
0 0 0  0 0 0  0 0 0  0 0 0  0 0 0  0 0 0
0 0 0  0 0 0  6 14 27  31 75 142  33 81 153  33 81 153
33 81 153  33 81 153  33 81 153  33 81 153  33 81 153  33 81 153
33 81 153  33 81 153  33 81 153  33 81 153  33 81 153  33 81 153
33 81 153  33 81 153  33 81 153  33 81 153  33 81 153  33 81 153
33 81 153  31 77 145  7 17 32  0 0 0  0 0 0  0 0 0
0 0 0  0 0 0  0 0 0  0 0 0  0 0 0  0 0 0
0 0 0  0 0 0  0 0 0  0 0 0  0 0 0  0 0 0
2 5 9  26 64 121  33 81 153  33 81 153  33 81 153  33 81 153
33 81 153  33 81 153  33 81 153  33 81 153  33 81 153  33 81 153
33 81 153  33 81 153  33 81 153  33 81 153  33 81 153  33 81 153
33 81 153  33 81 153  33 81 153  33 81 153  33 81 153  32 78 148
25 60 114  23 57 107  23 57 108  23 57 108  23 57 108  23 57 108
23 57 108  23 57 108  23 57 108  23 57 108  23 57 108  23 57 108
23 57 108  23 57 108  23 57 108  23 57 108  23 57 108  23 57 108
23 57 108  23 57 108  23 57 108  23 57 107  24 58 110  24 59 112
25 60 114  26 63 119  27 66 124  28 69 130  30 73 137  31 76 144
32 79 149  33 81 153  33 81 153  33 81 153  33 81 153  33 81 153
33 81 153  33 81 153  33 81 153  33 81 153  33 81 153  33 81 153
33 81 153  33 81 153  33 81 153  33 81 153  33 81 153  33 81 153
33 81 153  33 81 153  33 81 153  33 81 153  33 81 153  33 81 153
33 81 153  33 81 153  33 81 153  33 81 153  33 81 153  33 81 153
33 81 153  33 81 153  33 81 153  33 81 153  33 81 153  32 78 147
19 46 86  2 6 11  0 0 0  0 0 0  0 0 0  0 0 0
0 0 0  0 0 0  0 0 0  0 0 0  0 0 0  0 0 0
0 0 0  0 0 0  0 0 0  0 0 0  0 0 0  0 0 0
0 0 0  0 0 0  0 0 0  0 0 0  0 0 0  0 0 0
0 0 0  0 0 0  0 0 0  0 0 0  0 0 0  0 0 0
0 0 0  0 0 0  0 0 0  0 0 0  0 0 0  0 0 0
0 0 0  0 0 0  0 0 0  0 0 0  0 0 0  0 0 0
0 0 0  0 0 0  0 0 0  0 0 0  0 0 0  0 0 0
0 0 0  0 0 0  0 0 0  0 0 0  0 0 0  0 0 0
0 0 0  0 0 0  0 0 0  0 0 0  0 0 0  0 0 0
0 0 0  0 0 0  0 0 0  0 0 0  0 0 0  0 0 0
0 0 0  0 0 0  0 0 0  0 0 0  0 0 0  0 0 0
0 0 0  0 0 0  0 0 0  0 0 0  0 0 0  0 0 0
0 0 0  0 0 0  0 0 0  0 0 0  0 0 0  0 0 0
0 0 0  0 0 0  0 0 0  0 0 0  0 0 0  0 0 0
0 0 0  0 0 0  0 0 0  0 0 0  0 0 0  0 0 0
0 0 0  0 0 0  0 0 0  0 0 0  0 0 0  0 0 0
0 0 0  0 0 0  0 0 0  0 0 0  0 0 0  0 0 0
0 0 0  0 0 0  0 0 0  0 0 0  0 0 0  0 0 0
0 0 0  0 0 0  0 0 0  0 0 0  0 0 0  0 0 0
0 0 0  0 0 0  0 0 0  0 0 0  0 0 0  0 0 0
0 0 0  0 0 0  0 0 0  0 0 0  0 0 0  0 0 0
0 0 0  0 0 0  0 0 0  0 0 0  0 0 0  0 0 0
0 0 0  0 0 0  0 0 0  0 0 0  0 0 0  0 0 0
0 0 0  0 0 0  0 0 0  0 0 0  0 0 0  0 0 0
0 0 0  0 0 0  0 0 0  0 0 0  1 2 4  2 4 7
2 4 7  2 4 7  2 4 7  2 4 7  2 4 7  2 4 7
2 4 7  2 4 7  2 4 7  2 4 7  2 4 7  2 4 7
1 3 6  0 1 2  0 0 0  0 0 0  0 0 0  0 0 0
0 0 0  0 0 0  0 0 0  0 0 0  0 0 0  0 0 0
0 0 0  0 0 0  0 0 0  0 0 0  0 0 0  0 0 0
0 0 0  0 0 0  0 0 0  0 0 0  0 0 0  0 0 0
0 0 0  0 0 0  0 0 0  0 0 0  0 0 0  0 0 0
0 0 0  0 0 0  0 0 0  0 0 0  0 0 0  0 0 0
0 0 0  0 0 0  0 0 0  0 0 0  0 0 0  0 0 0
0 0 0  0 0 0  0 0 0  0 0 0  0 0 0  0 0 0
0 0 0  0 0 0  0 0 0  0 0 0  0 0 0  0 0 0
0 0 0  0 0 0  0 0 0  0 0 0  0 0 0  0 0 0
0 0 0  0 0 0  0 0 0  0 0 0  0 0 0  0 0 0
0 0 0  0 0 0  0 0 0  0 0 0  0 0 0  0 0 0
0 0 0  0 0 0  0 0 0  0 0 0  0 0 0  0 0 0
0 0 0  0 0 0  0 0 0  0 0 0  0 0 0  0 0 0
0 0 0  0 0 0  0 0 0  0 0 0  0 0 0  0 0 0
0 0 0  0 0 0  0 0 0  0 0 0  0 0 0  0 0 0
0 0 0  0 0 0  0 0 0  0 0 0  0 0 0  0 0 0
0 0 0  0 0 0  0 0 0  0 0 0  0 0 0  0 0 0
0 0 0  0 0 0  0 0 0  0 0 0  0 0 0  0 0 0
0 0 0  0 0 0  0 0 0  0 0 0  0 0 0  0 0 0
0 0 0  0 0 0  0 0 0  0 0 0  0 0 0  0 0 0
0 0 0  0 0 0  0 0 0  0 0 0  0 0 0  0 0 0
0 0 0  0 0 0  0 0 0  0 0 0  0 0 0  0 0 0
0 0 0  0 0 0  0 0 0  0 0 0  0 0 0  0 0 0
0 0 0  0 0 0  0 0 0  0 0 0  0 0 0  0 0 0
0 0 0  0 0 0  0 0 0  0 0 0  0 0 0  0 0 0
0 0 0  0 0 0  0 0 0  0 0 0  0 0 0  0 0 0
0 0 0  0 0 0  0 0 0  0 0 0  0 0 0  0 0 0
0 0 0  0 0 0  0 0 0  0 0 0  0 0 0  0 0 0
0 0 0  0 0 0  0 0 0  0 0 0  0 0 0  0 0 0
0 0 0  0 0 0  0 0 0  0 0 0  0 0 0  0 0 0
0 0 0  0 0 0  0 0 0  0 0 0  0 0 0  0 0 0
0 0 0  0 0 0  0 0 0  0 0 0  0 0 0  0 0 0
0 0 0  0 0 0  0 0 0  0 0 0  0 0 0  0 0 0
0 0 0  0 0 0  0 0 0  0 0 0
0 0 0  0 0 0  0 0 1  21 51 96  33 81 153  33 81 153
33 81 153  33 81 153  33 81 153  33 81 153  33 81 153  33 81 153
33 81 153  33 81 153  33 81 153  33 81 153  33 81 153  33 81 153
33 81 153  33 81 153  33 81 153  33 81 153  33 81 153  33 81 153
33 81 153  33 81 153  24 59 112  1 3 5  0 0 0  0 0 0
0 0 0  0 0 0  2 4 7  20 48 91  33 81 152  33 81 153
33 81 153  33 81 153  33 81 153  33 81 153  33 81 153  33 81 153
33 81 153  33 81 153  33 81 153  33 81 153  33 81 153  33 81 153
33 81 153  33 81 153  33 81 153  33 81 153  33 81 153  33 81 153
33 81 153  33 81 153  33 81 153  33 81 153  33 81 153  33 81 153
33 81 153  33 81 153  33 81 153  33 81 153  33 81 153  33 81 153
33 81 153  33 81 153  33 81 153  33 81 153  33 81 153  33 81 153
33 81 153  33 81 153  33 81 153  33 81 153  33 81 153  33 81 153
33 81 153  33 81 153  33 81 153  33 81 153  31 75 142  12 29 54
0 0 0  0 0 0  0 0 0  0 0 0  0 0 0  1 2 4
23 57 108  33 81 153  33 81 153  33 81 153  33 81 153  33 81 153
33 81 153  33 81 153  33 81 153  33 81 153  33 81 153  33 81 153
33 81 153  33 81 153  33 81 153  33 81 153  33 81 153  33 81 153
33 81 153  33 81 153  33 81 153  33 81 153  33 81 153  22 53 100
0 1 1  0 0 0  0 0 0  0 0 0  0 0 0  0 0 0
0 0 0  0 0 0  0 0 0  0 0 0  0 0 0  0 0 0
0 0 0  0 0 0  0 0 0  0 0 0  0 0 0  0 0 0
0 0 0  0 0 0  0 0 0  0 0 0  0 0 0  0 0 0
0 0 0  0 0 0  0 0 0  0 0 0  0 0 0  0 0 0
0 0 0  0 0 0  0 0 0  0 0 0  0 0 0  0 0 0
0 0 0  0 0 0  0 0 0  0 0 0  0 0 0  0 0 0
0 0 0  0 0 0  0 0 0  0 0 0  0 0 0  1 2 4
24 58 110  33 81 153  33 81 153  33 81 153  33 81 153  33 81 153
33 81 153  33 81 153  33 81 153  33 81 153  33 81 153  33 81 153
33 81 153  33 81 153  33 81 153  33 81 153  33 81 153  33 81 153
33 81 153  33 81 153  33 81 153  33 81 153  33 81 153  17 41 78
0 0 0  0 0 0  0 0 0  0 0 0  0 0 0  0 0 0
0 0 0  0 0 0  0 0 0  0 0 0  0 0 0  0 0 0
0 0 0  0 0 0  0 0 0  0 0 0  0 0 0  0 0 0
0 0 0  0 0 0  0 0 0  0 0 0  0 0 0  0 0 0
0 0 0  0 0 0  0 0 0  0 0 0  0 0 0  0 0 0
0 0 0  0 0 0  0 0 0  0 0 0  0 0 0  0 0 0
0 0 0  0 0 0  0 0 0  0 0 0  0 0 0  0 0 0
0 0 0  0 0 0  0 0 0  0 0 0  0 0 0  0 0 0
0 0 0  0 0 0  0 0 0  0 0 0  0 0 0  0 0 0
0 0 0  0 0 0  6 14 27  31 75 142  33 81 153  33 81 153
33 81 153  33 81 153  33 81 153  33 81 153  33 81 153  33 81 153
33 81 153  33 81 153  33 81 153  33 81 153  33 81 153  33 81 153
33 81 153  33 81 153  33 81 153  33 81 153  33 81 153  33 81 153
33 81 153  31 77 145  7 17 32  0 0 0  0 0 0  0 0 0
0 0 0  0 0 0  0 0 0  0 0 0  0 0 0  0 0 0
0 0 0  0 0 0  0 0 0  0 0 0  0 0 0  0 0 0
2 5 9  26 64 121  33 81 153  33 81 153  33 81 153  33 81 153
33 81 153  33 81 153  33 81 153  33 81 153  33 81 153  33 81 153
33 81 153  33 81 153  33 81 153  33 81 153  33 81 153  33 81 153
33 81 153  33 81 153  33 81 153  33 81 153  33 81 153  29 72 136
5 12 23  0 1 2  1 2 3  1 2 3  1 2 3  1 2 3
1 2 3  1 2 3  1 2 3  1 2 3  1 2 3  1 2 3
1 2 3  1 2 3  1 2 3  1 2 3  1 2 3  1 2 3
1 2 3  1 2 3  1 2 3  1 2 3  1 2 4  1 2 4
1 3 5  2 4 7  2 5 10  3 8 15  5 11 22  7 17 32
10 24 45  14 33 63  18 45 85  24 58 110  28 70 131  32 78 148
33 81 153  33 81 153  33 81 153  33 81 153  33 81 153  33 81 153
33 81 153  33 81 153  33 81 153  33 81 153  33 81 153  33 81 153
33 81 153  33 81 153  33 81 153  33 81 153  33 81 153  33 81 153
33 81 153  33 81 153  33 81 153  33 81 153  33 81 153  33 81 153
33 81 153  33 81 153  33 81 153  33 81 153  33 81 153  33 81 153
33 81 153  22 55 104  3 9 16  0 0 0  0 0 0  0 0 0
0 0 0  0 0 0  0 0 0  0 0 0  0 0 0  0 0 0
0 0 0  0 0 0  0 0 0  0 0 0  0 0 0  0 0 0
0 0 0  0 0 0  0 0 0  0 0 0  0 0 0  0 0 0
0 0 0  0 0 0  0 0 0  0 0 0  0 0 0  0 0 0
0 0 0  0 0 0  0 0 0  0 0 0  0 0 0  0 0 0
0 0 0  0 0 0  0 0 0  0 0 0  0 0 0  0 0 0
0 0 0  0 0 0  0 0 0  0 0 0  0 0 0  0 0 0
0 0 0  0 0 0  0 0 0  0 0 0  0 0 0  0 0 0
0 0 0  0 0 0  0 0 0  0 0 0  0 0 0  0 0 0
0 0 0  0 0 0  0 0 0  0 0 0  0 0 0  0 0 0
0 0 0  0 0 0  0 0 0  0 0 0  0 0 0  0 0 0
0 0 0  0 0 0  0 0 0  0 0 0  0 0 0  0 0 0
0 0 0  0 0 0  0 0 0  0 0 0  0 0 0  0 0 0
0 0 0  0 0 0  0 0 0  0 0 0  0 0 0  0 0 0
0 0 0  0 0 0  0 0 0  0 0 0  0 0 0  0 0 0
0 0 0  0 0 0  0 0 0  0 0 0  0 0 0  0 0 0
0 0 0  0 0 0  0 0 0  0 0 0  0 0 0  0 0 0
0 0 0  0 0 0  0 0 0  0 0 0  0 0 0  0 0 0
0 0 0  0 0 0  0 0 0  0 0 0  0 0 0  0 0 0
0 0 0  0 0 0  0 0 0  0 0 0  0 0 0  0 0 0
0 0 0  0 0 0  0 0 0  0 0 0  0 0 0  0 0 0
0 0 0  0 0 0  0 0 0  0 0 0  0 0 0  0 0 0
0 0 0  0 0 0  0 0 0  0 0 0  0 0 0  0 0 0
0 0 0  0 0 0  0 0 0  0 0 0  0 0 0  0 0 0
0 0 0  0 0 0  0 0 0  0 0 0  0 0 0  0 0 0
0 0 0  0 0 0  0 0 0  0 0 0  0 0 0  0 0 0
0 0 0  0 0 0  0 0 0  0 0 0  0 0 0  0 0 0
0 0 0  0 0 0  0 0 0  0 0 0  0 0 0  0 0 0
0 0 0  0 0 0  0 0 0  0 0 0  0 0 0  0 0 0
0 0 0  0 0 0  0 0 0  0 0 0  0 0 0  0 0 0
0 0 0  0 0 0  0 0 0  0 0 0  0 0 0  0 0 0
0 0 0  0 0 0  0 0 0  0 0 0  0 0 0  0 0 0
0 0 0  0 0 0  0 0 0  0 0 0  0 0 0  0 0 0
0 0 0  0 0 0  0 0 0  0 0 0  0 0 0  0 0 0
0 0 0  0 0 0  0 0 0  0 0 0  0 0 0  0 0 0
0 0 0  0 0 0  0 0 0  0 0 0  0 0 0  0 0 0
0 0 0  0 0 0  0 0 0  0 0 0  0 0 0  0 0 0
0 0 0  0 0 0  0 0 0  0 0 0  0 0 0  0 0 0
0 0 0  0 0 0  0 0 0  0 0 0  0 0 0  0 0 0
0 0 0  0 0 0  0 0 0  0 0 0  0 0 0  0 0 0
0 0 0  0 0 0  0 0 0  0 0 0  0 0 0  0 0 0
0 0 0  0 0 0  0 0 0  0 0 0  0 0 0  0 0 0
0 0 0  0 0 0  0 0 0  0 0 0  0 0 0  0 0 0
0 0 0  0 0 0  0 0 0  0 0 0  0 0 0  0 0 0
0 0 0  0 0 0  0 0 0  0 0 0  0 0 0  0 0 0
0 0 0  0 0 0  0 0 0  0 0 0  0 0 0  0 0 0
0 0 0  0 0 0  0 0 0  0 0 0  0 0 0  0 0 0
0 0 0  0 0 0  0 0 0  0 0 0  0 0 0  0 0 0
0 0 0  0 0 0  0 0 0  0 0 0  0 0 0  0 0 0
0 0 0  0 0 0  0 0 0  0 0 0  0 0 0  0 0 0
0 0 0  0 0 0  0 0 0  0 0 0  0 0 0  0 0 0
0 0 0  0 0 0  0 0 0  0 0 0  0 0 0  0 0 0
0 0 0  0 0 0  0 0 0  0 0 0  0 0 0  0 0 0
0 0 0  0 0 0  0 0 0  0 0 0  0 0 0  0 0 0
0 0 0  0 0 0  0 0 0  0 0 0  0 0 0  0 0 0
0 0 0  0 0 0  0 0 0  0 0 0  0 0 0  0 0 0
0 0 0  0 0 0  0 0 0  0 0 0  0 0 0  0 0 0
0 0 0  0 0 0  0 0 0  0 0 0  0 0 0  0 0 0
0 0 0  0 0 0  0 0 0  0 0 0  0 0 0  0 0 0
0 0 0  0 0 0  0 0 0  0 0 0  0 0 0  0 0 0
0 0 0  0 0 0  0 0 0  0 0 0  0 0 0  0 0 0
0 0 0  0 0 0  0 0 0  0 0 0
0 0 0  0 0 0  1 2 3  23 57 108  33 81 153  33 81 153
33 81 153  33 81 153  33 81 153  33 81 153  33 81 153  33 81 153
33 81 153  33 81 153  33 81 153  33 81 153  33 81 153  33 81 153
33 81 153  33 81 153  33 81 153  33 81 153  33 81 153  33 81 153
33 81 153  33 81 153  22 55 104  0 1 2  0 0 0  0 0 0
0 0 0  0 0 0  0 0 0  2 4 8  19 48 90  33 80 152
33 81 153  33 81 153  33 81 153  33 81 153  33 81 153  33 81 153
33 81 153  33 81 153  33 81 153  33 81 153  33 81 153  33 81 153
33 81 153  33 81 153  33 81 153  33 81 153  33 81 153  33 81 153
33 81 153  33 81 153  33 81 153  33 81 153  33 81 153  33 81 153
33 81 153  33 81 153  33 81 153  33 81 153  33 81 153  33 81 153
33 81 153  33 81 153  33 81 153  33 81 153  33 81 153  33 81 153
33 81 153  33 81 153  33 81 153  33 81 153  33 81 153  33 81 153
33 81 153  33 81 153  33 81 153  30 75 141  12 29 55  0 0 0
0 0 0  0 0 0  0 0 0  0 0 0  0 0 0  0 1 1
21 53 100  33 81 153  33 81 153  33 81 153  33 81 153  33 81 153
33 81 153  33 81 153  33 81 153  33 81 153  33 81 153  33 81 153
33 81 153  33 81 153  33 81 153  33 81 153  33 81 153  33 81 153
33 81 153  33 81 153  33 81 153  33 81 153  33 81 153  24 59 112
1 2 4  0 0 0  0 0 0  0 0 0  0 0 0  0 0 0
0 0 0  0 0 0  0 0 0  0 0 0  0 0 0  0 0 0
0 0 0  0 0 0  0 0 0  0 0 0  0 0 0  0 0 0
0 0 0  0 0 0  0 0 0  0 0 0  0 0 0  0 0 0
0 0 0  0 0 0  0 0 0  0 0 0  0 0 0  0 0 0
0 0 0  0 0 0  0 0 0  0 0 0  0 0 0  0 0 0
0 0 0  0 0 0  0 0 0  0 0 0  0 0 0  0 0 0
0 0 0  0 0 0  0 0 0  0 0 0  0 0 0  1 2 3
23 57 107  33 81 153  33 81 153  33 81 153  33 81 153  33 81 153
33 81 153  33 81 153  33 81 153  33 81 153  33 81 153  33 81 153
33 81 153  33 81 153  33 81 153  33 81 153  33 81 153  33 81 153
33 81 153  33 81 153  33 81 153  33 81 153  33 81 153  17 41 77
0 0 0  0 0 0  0 0 0  0 0 0  0 0 0  0 0 0
0 0 0  0 0 0  0 0 0  0 0 0  0 0 0  0 0 0
0 0 0  0 0 0  0 0 0  0 0 0  0 0 0  0 0 0
0 0 0  0 0 0  0 0 0  0 0 0  0 0 0  0 0 0
0 0 0  0 0 0  0 0 0  0 0 0  0 0 0  0 0 0
0 0 0  0 0 0  0 0 0  0 0 0  0 0 0  0 0 0
0 0 0  0 0 0  0 0 0  0 0 0  0 0 0  0 0 0
0 0 0  0 0 0  0 0 0  0 0 0  0 0 0  0 0 0
0 0 0  0 0 0  0 0 0  0 0 0  0 0 0  0 0 0
0 0 0  0 0 0  6 14 27  31 75 142  33 81 153  33 81 153
33 81 153  33 81 153  33 81 153  33 81 153  33 81 153  33 81 153
33 81 153  33 81 153  33 81 153  33 81 153  33 81 153  33 81 153
33 81 153  33 81 153  33 81 153  33 81 153  33 81 153  33 81 153
33 81 153  31 77 145  7 17 32  0 0 0  0 0 0  0 0 0
0 0 0  0 0 0  0 0 0  0 0 0  0 0 0  0 0 0
0 0 0  0 0 0  0 0 0  0 0 0  0 0 0  0 0 0
2 5 9  26 64 121  33 81 153  33 81 153  33 81 153  33 81 153
33 81 153  33 81 153  33 81 153  33 81 153  33 81 153  33 81 153
33 81 153  33 81 153  33 81 153  33 81 153  33 81 153  33 81 153
33 81 153  33 81 153  33 81 153  33 81 153  33 81 153  29 72 136
4 11 20  0 0 0  0 0 0  0 0 0  0 0 0  0 0 0
0 0 0  0 0 0  0 0 0  0 0 0  0 0 0  0 0 0
0 0 0  0 0 0  0 0 0  0 0 0  0 0 0  0 0 0
0 0 0  0 0 0  0 0 0  0 0 0  0 0 0  0 0 0
0 0 0  0 0 0  0 0 0  0 0 0  0 0 0  0 0 0
0 0 0  0 0 0  0 0 0  1 2 4  4 9 17  9 22 41
17 42 79  26 63 119  32 78 148  33 81 153  33 81 153  33 81 153
33 81 153  33 81 153  33 81 153  33 81 153  33 81 153  33 81 153
33 81 153  33 81 153  33 81 153  33 81 153  33 81 153  33 81 153
33 81 153  33 81 153  33 81 153  33 81 153  33 81 153  33 81 153
33 81 153  33 81 153  33 81 153  33 81 153  33 81 153  33 81 153
33 81 153  33 81 153  23 56 105  3 7 13  0 0 0  0 0 0
0 0 0  0 0 0  0 0 0  0 0 0  0 0 0  0 0 0
0 0 0  0 0 0  0 0 0  0 0 0  0 0 0  0 0 0
0 0 0  0 0 0  0 0 0  0 0 0  0 0 0  0 0 0
0 0 0  0 0 0  0 0 0  0 0 0  0 0 0  0 0 0
0 0 0  0 0 0  0 0 0  0 0 0  0 0 0  0 0 0
0 0 0  0 0 0  0 0 0  0 0 0  0 0 0  0 0 0
0 0 0  0 0 0  0 0 0  0 0 0  0 0 0  0 0 0
0 0 0  0 0 0  0 0 0  0 0 0  0 0 0  0 0 0
0 0 0  0 0 0  0 0 0  0 0 0  0 0 0  0 0 0
0 0 0  0 0 0  0 0 0  0 0 0  0 0 0  0 0 0
0 0 0  0 0 0  0 0 0  0 0 0  0 0 0  0 0 0
0 0 0  0 0 0  0 0 0  0 0 0  0 0 0  0 0 0
0 0 0  0 0 0  0 0 0  0 0 0  0 0 0  0 0 0
0 0 0  0 0 0  0 0 0  0 0 0  0 0 0  0 0 0
0 0 0  0 0 0  0 0 0  0 0 0  0 0 0  0 0 0
0 0 0  0 0 0  0 0 0  0 0 0  0 0 0  0 0 0
0 0 0  0 0 0  0 0 0  0 0 0  0 0 0  0 0 0
0 0 0  0 0 0  0 0 0  0 0 0  0 0 0  0 0 0
0 0 0  0 0 0  0 0 0  0 0 0  0 0 0  0 0 0
0 0 0  0 0 0  0 0 0  0 0 0  0 0 0  0 0 0
0 0 0  0 0 0  0 0 0  0 0 0  0 0 0  0 0 0
0 0 0  0 0 0  0 0 0  0 0 0  0 0 0  0 0 0
0 0 0  0 0 0  0 0 0  0 0 0  0 0 0  0 0 0
0 0 0  0 0 0  0 0 0  0 0 0  0 0 0  0 0 0
0 0 0  0 0 0  0 0 0  0 0 0  0 0 0  0 0 0
0 0 0  0 0 0  0 0 0  0 0 0  0 0 0  0 0 0
0 0 0  0 0 0  0 0 0  0 0 0  0 0 0  0 0 0
0 0 0  0 0 0  0 0 0  0 0 0  0 0 0  0 0 0
0 0 0  0 0 0  0 0 0  0 0 0  0 0 0  0 0 0
0 0 0  0 0 0  0 0 0  0 0 0  0 0 0  0 0 0
0 0 0  0 0 0  0 0 0  0 0 0  0 0 0  0 0 0
0 0 0  0 0 0  0 0 0  0 0 0  0 0 0  0 0 0
0 0 0  0 0 0  0 0 0  0 0 0  0 0 0  0 0 0
0 0 0  0 0 0  0 0 0  0 0 0  0 0 0  0 0 0
0 0 0  0 0 0  0 0 0  0 0 0  0 0 0  0 0 0
0 0 0  0 0 0  0 0 0  0 0 0  0 0 0  0 0 0
0 0 0  0 0 0  0 0 0  0 0 0  0 0 0  0 0 0
0 0 0  0 0 0  0 0 0  0 0 0  0 0 0  0 0 0
0 0 0  0 0 0  0 0 0  0 0 0  0 0 0  0 0 0
0 0 0  0 0 0  0 0 0  0 0 0  0 0 0  0 0 0
0 0 0  0 0 0  0 0 0  0 0 0  0 0 0  0 0 0
0 0 0  0 0 0  0 0 0  0 0 0  0 0 0  0 0 0
0 0 0  0 0 0  0 0 0  0 0 0  0 0 0  0 0 0
0 0 0  0 0 0  0 0 0  0 0 0  0 0 0  0 0 0
0 0 0  0 0 0  0 0 0  0 0 0  0 0 0  0 0 0
0 0 0  0 0 0  0 0 0  0 0 0  0 0 0  0 0 0
0 0 0  0 0 0  0 0 0  0 0 0  0 0 0  0 0 0
0 0 0  0 0 0  0 0 0  0 0 0  0 0 0  0 0 0
0 0 0  0 0 0  0 0 0  0 0 0  0 0 0  0 0 0
0 0 0  0 0 0  0 0 0  0 0 0  0 0 0  0 0 0
0 0 0  0 0 0  0 0 0  0 0 0  0 0 0  0 0 0
0 0 0  0 0 0  0 0 0  0 0 0  0 0 0  0 0 0
0 0 0  0 0 0  0 0 0  0 0 0  0 0 0  0 0 0
0 0 0  0 0 0  0 0 0  0 0 0  0 0 0  0 0 0
0 0 0  0 0 0  0 0 0  0 0 0  0 0 0  0 0 0
0 0 0  0 0 0  0 0 0  0 0 0  0 0 0  0 0 0
0 0 0  0 0 0  0 0 0  0 0 0  0 0 0  0 0 0
0 0 0  0 0 0  0 0 0  0 0 0  0 0 0  0 0 0
0 0 0  0 0 0  0 0 0  0 0 0  0 0 0  0 0 0
0 0 0  0 0 0  0 0 0  0 0 0  0 0 0  0 0 0
0 0 0  0 0 0  0 0 0  0 0 0  0 0 0  0 0 0
0 0 0  0 0 0  0 0 0  0 0 0
0 0 0  0 0 0  2 4 7  25 63 118  33 81 153  33 81 153
33 81 153  33 81 153  33 81 153  33 81 153  33 81 153  33 81 153
33 81 153  33 81 153  33 81 153  33 81 153  33 81 153  33 81 153
33 81 153  33 81 153  33 81 153  33 81 153  33 81 153  33 81 153
33 81 153  33 81 153  20 50 95  0 0 0  0 0 0  0 0 0
0 0 0  0 0 0  0 0 0  0 0 0  2 4 7  18 44 84
32 79 150  33 81 153  33 81 153  33 81 153  33 81 153  33 81 153
33 81 153  33 81 153  33 81 153  33 81 153  33 81 153  33 81 153
33 81 153  33 81 153  33 81 153  33 81 153  33 81 153  33 81 153
33 81 153  33 81 153  33 81 153  33 81 153  33 81 153  33 81 153
33 81 153  33 81 153  33 81 153  33 81 153  33 81 153  33 81 153
33 81 153  33 81 153  33 81 153  33 81 153  33 81 153  33 81 153
33 81 153  33 81 153  33 81 153  33 81 153  33 81 153  33 81 153
33 81 153  33 81 153  30 72 137  11 27 50  0 0 0  0 0 0
0 0 0  0 0 0  0 0 0  0 0 0  0 0 0  0 0 0
19 48 90  33 81 153  33 81 153  33 81 153  33 81 153  33 81 153
33 81 153  33 81 153  33 81 153  33 81 153  33 81 153  33 81 153
33 81 153  33 81 153  33 81 153  33 81 153  33 81 153  33 81 153
33 81 153  33 81 153  33 81 153  33 81 153  33 81 153  26 64 122
2 5 9  0 0 0  0 0 0  0 0 0  0 0 0  0 0 0
0 0 0  0 0 0  0 0 0  0 0 0  0 0 0  0 0 0
0 0 0  0 0 0  0 0 0  0 0 0  0 0 0  0 0 0
0 0 0  0 0 0  0 0 0  0 0 0  0 0 0  0 0 0
0 0 0  0 0 0  0 0 0  0 0 0  0 0 0  0 0 0
0 0 0  0 0 0  0 0 0  0 0 0  0 0 0  0 0 0
0 0 0  0 0 0  0 0 0  0 0 0  0 0 0  0 0 0
0 0 0  0 0 0  0 0 0  0 0 0  0 0 0  1 1 2
23 57 107  33 81 153  33 81 153  33 81 153  33 81 153  33 81 153
33 81 153  33 81 153  33 81 153  33 81 153  33 81 153  33 81 153
33 81 153  33 81 153  33 81 153  33 81 153  33 81 153  33 81 153
33 81 153  33 81 153  33 81 153  33 81 153  33 81 153  17 41 77
0 0 0  0 0 0  0 0 0  0 0 0  0 0 0  0 0 0
0 0 0  0 0 0  0 0 0  0 0 0  0 0 0  0 0 0
0 0 0  0 0 0  0 0 0  0 0 0  0 0 0  0 0 0
0 0 0  0 0 0  0 0 0  0 0 0  0 0 0  0 0 0
0 0 0  0 0 0  0 0 0  0 0 0  0 0 0  0 0 0
0 0 0  0 0 0  0 0 0  0 0 0  0 0 0  0 0 0
0 0 0  0 0 0  0 0 0  0 0 0  0 0 0  0 0 0
0 0 0  0 0 0  0 0 0  0 0 0  0 0 0  0 0 0
0 0 0  0 0 0  0 0 0  0 0 0  0 0 0  0 0 0
0 0 0  0 0 0  6 14 27  31 75 142  33 81 153  33 81 153
33 81 153  33 81 153  33 81 153  33 81 153  33 81 153  33 81 153
33 81 153  33 81 153  33 81 153  33 81 153  33 81 153  33 81 153
33 81 153  33 81 153  33 81 153  33 81 153  33 81 153  33 81 153
33 81 153  31 77 145  7 17 32  0 0 0  0 0 0  0 0 0
0 0 0  0 0 0  0 0 0  0 0 0  0 0 0  0 0 0
0 0 0  0 0 0  0 0 0  0 0 0  0 0 0  0 0 0
2 5 9  26 64 121  33 81 153  33 81 153  33 81 153  33 81 153
33 81 153  33 81 153  33 81 153  33 81 153  33 81 153  33 81 153
33 81 153  33 81 153  33 81 153  33 81 153  33 81 153  33 81 153
33 81 153  33 81 153  33 81 153  33 81 153  33 81 153  29 72 136
4 11 20  0 0 0  0 0 0  0 0 0  0 0 0  0 0 0
0 0 0  0 0 0  0 0 0  0 0 0  0 0 0  0 0 0
0 0 0  0 0 0  0 0 0  0 0 0  0 0 0  0 0 0
0 0 0  0 0 0  0 0 0  0 0 0  0 0 0  0 0 0
0 0 0  0 0 0  0 0 0  0 0 0  0 0 0  0 0 0
0 0 0  0 0 0  0 0 0  0 0 0  0 0 0  0 0 0
0 0 0  2 5 10  10 24 45  22 54 102  31 77 146  33 81 153
33 81 153  33 81 153  33 81 153  33 81 153  33 81 153  33 81 153
33 81 153  33 81 153  33 81 153  33 81 153  33 81 153  33 81 153
33 81 153  33 81 153  33 81 153  33 81 153  33 81 153  33 81 153
33 81 153  33 81 153  33 81 153  33 81 153  33 81 153  33 81 153
33 81 153  33 81 153  33 81 153  20 49 92  1 3 5  0 0 0
0 0 0  0 0 0  0 0 0  0 0 0  0 0 0  0 0 0
0 0 0  0 0 0  0 0 0  0 0 0  0 0 0  0 0 0
0 0 0  0 0 0  0 0 0  0 0 0  0 0 0  0 0 0
0 0 0  0 0 0  0 0 0  0 0 0  0 0 0  0 0 0
0 0 0  0 0 0  0 0 0  0 0 0  0 0 0  0 0 0
0 0 0  0 0 0  0 0 0  0 0 0  0 0 0  0 0 0
0 0 0  0 0 0  0 0 0  0 0 0  0 0 0  0 0 0
0 0 0  0 0 0  0 0 0  0 0 0  0 0 0  0 0 0
0 0 0  0 0 0  0 0 0  0 0 0  0 0 0  0 0 0
0 0 0  0 0 0  0 0 0  0 0 0  0 0 0  0 0 0
0 0 0  0 0 0  0 0 0  0 0 0  0 0 0  0 0 0
0 0 0  0 0 0  0 0 0  0 0 0  0 0 0  0 0 0
0 0 0  0 0 0  0 0 0  0 0 0  0 0 0  0 0 0
0 0 0  0 0 0  0 0 0  0 0 0  0 0 0  0 0 0
0 0 0  0 0 0  0 0 0  0 0 0  0 0 0  0 0 0
0 0 0  0 0 0  0 0 0  0 0 0  0 0 0  0 0 0
0 0 0  0 0 0  0 0 0  0 0 0  0 0 0  0 0 0
0 0 0  0 0 0  0 0 0  0 0 0  0 0 0  0 0 0
0 0 0  0 0 0  0 0 0  0 0 0  0 0 0  0 0 0
0 0 0  0 0 0  0 0 0  0 0 0  0 0 0  0 0 0
0 0 0  0 0 0  0 0 0  0 0 0  0 0 0  0 0 0
0 0 0  0 0 0  0 0 0  0 0 0  0 0 0  0 0 0
0 0 0  0 0 0  0 0 0  0 0 0  0 0 0  0 0 0
0 0 0  0 0 0  0 0 0  0 0 0  0 0 0  0 0 0
0 0 0  0 0 0  0 0 0  0 0 0  0 0 0  0 0 0
0 0 0  0 0 0  0 0 0  0 0 0  0 0 0  0 0 0
0 0 0  0 0 0  0 0 0  0 0 0  0 0 0  0 0 0
0 0 0  0 0 0  0 0 0  0 0 0  0 0 0  0 0 0
0 0 0  0 0 0  0 0 0  0 0 0  0 0 0  0 0 0
0 0 0  0 0 0  0 0 0  0 0 0  0 0 0  0 0 0
0 0 0  0 0 0  0 0 0  0 0 0  0 0 0  0 0 0
0 0 0  0 0 0  0 0 0  0 0 0  0 0 0  0 0 0
0 0 0  0 0 0  0 0 0  0 0 0  0 0 0  0 0 0
0 0 0  0 0 0  0 0 0  0 0 0  0 0 0  0 0 0
0 0 0  0 0 0  0 0 0  0 0 0  0 0 0  0 0 0
0 0 0  0 0 0  0 0 0  0 0 0  0 0 0  0 0 0
0 0 0  0 0 0  0 0 0  0 0 0  0 0 0  0 0 0
0 0 0  0 0 0  0 0 0  0 0 0  0 0 0  0 0 0
0 0 0  0 0 0  0 0 0  0 0 0  0 0 0  0 0 0
0 0 0  0 0 0  0 0 0  0 0 0  0 0 0  0 0 0
0 0 0  0 0 0  0 0 0  0 0 0  0 0 0  0 0 0
0 0 0  0 0 0  0 0 0  0 0 0  0 0 0  0 0 0
0 0 0  0 0 0  0 0 0  0 0 0  0 0 0  0 0 0
0 0 0  0 0 0  0 0 0  0 0 0  0 0 0  0 0 0
0 0 0  0 0 0  0 0 0  0 0 0  0 0 0  0 0 0
0 0 0  0 0 0  0 0 0  0 0 0  0 0 0  0 0 0
0 0 0  0 0 0  0 0 0  0 0 0  0 0 0  0 0 0
0 0 0  0 0 0  0 0 0  0 0 0  0 0 0  0 0 0
0 0 0  0 0 0  0 0 0  0 0 0  0 0 0  0 0 0
0 0 0  0 0 0  0 0 0  0 0 0  0 0 0  0 0 0
0 0 0  0 0 0  0 0 0  0 0 0  0 0 0  0 0 0
0 0 0  0 0 0  0 0 0  0 0 0  0 0 0  0 0 0
0 0 0  0 0 0  0 0 0  0 0 0  0 0 0  0 0 0
0 0 0  0 0 0  0 0 0  0 0 0  0 0 0  0 0 0
0 0 0  0 0 0  0 0 0  0 0 0  0 0 0  0 0 0
0 0 0  0 0 0  0 0 0  0 0 0  0 0 0  0 0 0
0 0 0  0 0 0  0 0 0  0 0 0  0 0 0  0 0 0
0 0 0  0 0 0  0 0 0  0 0 0  0 0 0  0 0 0
0 0 0  0 0 0  0 0 0  0 0 0  0 0 0  0 0 0
0 0 0  0 0 0  0 0 0  0 0 0  0 0 0  0 0 0
0 0 0  0 0 0  0 0 0  0 0 0  0 0 0  0 0 0
0 0 0  0 0 0  0 0 0  0 0 0
0 0 0  0 0 0  3 7 13  28 68 128  33 81 153  33 81 153
33 81 153  33 81 153  33 81 153  33 81 153  33 81 153  33 81 153
33 81 153  33 81 153  33 81 153  33 81 153  33 81 153  33 81 153
33 81 153  33 81 153  33 81 153  33 81 153  33 81 153  33 81 153
33 81 153  33 81 153  18 45 85  0 0 0  0 0 0  0 0 0
0 0 0  0 0 0  0 0 0  0 0 0  0 0 0  1 2 4
15 38 71  31 77 145  33 81 153  33 81 153  33 81 153  33 81 153
33 81 153  33 81 153  33 81 153  33 81 153  33 81 153  33 81 153
33 81 153  33 81 153  33 81 153  33 81 153  33 81 153  33 81 153
33 81 153  33 81 153  33 81 153  33 81 153  33 81 153  33 81 153
33 81 153  33 81 153  33 81 153  33 81 153  33 81 153  33 81 153
33 81 153  33 81 153  33 81 153  33 81 153  33 81 153  33 81 153
33 81 153  33 81 153  33 81 153  33 81 153  33 81 153  33 81 153
33 81 153  27 67 127  9 21 40  0 0 0  0 0 0  0 0 0
0 0 0  0 0 0  0 0 0  0 0 0  0 0 0  0 0 0
17 43 80  33 81 153  33 81 153  33 81 153  33 81 153  33 81 153
33 81 153  33 81 153  33 81 153  33 81 153  33 81 153  33 81 153
33 81 153  33 81 153  33 81 153  33 81 153  33 81 153  33 81 153
33 81 153  33 81 153  33 81 153  33 81 153  33 81 153  28 69 131
3 8 15  0 0 0  0 0 0  0 0 0  0 0 0  0 0 0
0 0 0  0 0 0  0 0 0  0 0 0  0 0 0  0 0 0
0 0 0  0 0 0  0 0 0  0 0 0  0 0 0  0 0 0
0 0 0  0 0 0  0 0 0  0 0 0  0 0 0  0 0 0
0 0 0  0 0 0  0 0 0  0 0 0  0 0 0  0 0 0
0 0 0  0 0 0  0 0 0  0 0 0  0 0 0  0 0 0
0 0 0  0 0 0  0 0 0  0 0 0  0 0 0  0 0 0
0 0 0  0 0 0  0 0 0  0 0 0  0 0 0  1 1 2
23 57 107  33 81 153  33 81 153  33 81 153  33 81 153  33 81 153
33 81 153  33 81 153  33 81 153  33 81 153  33 81 153  33 81 153
33 81 153  33 81 153  33 81 153  33 81 153  33 81 153  33 81 153
33 81 153  33 81 153  33 81 153  33 81 153  33 81 153  17 41 77
0 0 0  0 0 0  0 0 0  0 0 0  0 0 0  0 0 0
0 0 0  0 0 0  0 0 0  0 0 0  0 0 0  0 0 0
0 0 0  0 0 0  0 0 0  0 0 0  0 0 0  0 0 0
0 0 0  0 0 0  0 0 0  0 0 0  0 0 0  0 0 0
0 0 0  0 0 0  0 0 0  0 0 0  0 0 0  0 0 0
0 0 0  0 0 0  0 0 0  0 0 0  0 0 0  0 0 0
0 0 0  0 0 0  0 0 0  0 0 0  0 0 0  0 0 0
0 0 0  0 0 0  0 0 0  0 0 0  0 0 0  0 0 0
0 0 0  0 0 0  0 0 0  0 0 0  0 0 0  0 0 0
0 0 0  0 0 0  6 14 27  31 75 142  33 81 153  33 81 153
33 81 153  33 81 153  33 81 153  33 81 153  33 81 153  33 81 153
33 81 153  33 81 153  33 81 153  33 81 153  33 81 153  33 81 153
33 81 153  33 81 153  33 81 153  33 81 153  33 81 153  33 81 153
33 81 153  31 77 145  7 17 32  0 0 0  0 0 0  0 0 0
0 0 0  0 0 0  0 0 0  0 0 0  0 0 0  0 0 0
0 0 0  0 0 0  0 0 0  0 0 0  0 0 0  0 0 0
2 5 9  26 64 121  33 81 153  33 81 153  33 81 153  33 81 153
33 81 153  33 81 153  33 81 153  33 81 153  33 81 153  33 81 153
33 81 153  33 81 153  33 81 153  33 81 153  33 81 153  33 81 153
33 81 153  33 81 153  33 81 153  33 81 153  33 81 153  29 72 136
4 11 20  0 0 0  0 0 0  0 0 0  0 0 0  0 0 0
0 0 0  0 0 0  0 0 0  0 0 0  0 0 0  0 0 0
0 0 0  0 0 0  0 0 0  0 0 0  0 0 0  0 0 0
0 0 0  0 0 0  0 0 0  0 0 0  0 0 0  0 0 0
0 0 0  0 0 0  0 0 0  0 0 0  0 0 0  0 0 0
0 0 0  0 0 0  0 0 0  0 0 0  0 0 0  0 0 0
0 0 0  0 0 0  0 0 0  1 2 4  10 24 44  25 61 115
33 81 153  33 81 153  33 81 153  33 81 153  33 81 153  33 81 153
33 81 153  33 81 153  33 81 153  33 81 153  33 81 153  33 81 153
33 81 153  33 81 153  33 81 153  33 81 153  33 81 153  33 81 153
33 81 153  33 81 153  33 81 153  33 81 153  33 81 153  33 81 153
33 81 153  33 81 153  33 81 153  32 79 150  14 34 65  0 0 0
0 0 0  0 0 0  0 0 0  0 0 0  0 0 0  0 0 0
0 0 0  0 0 0  0 0 0  0 0 0  0 0 0  0 0 0
0 0 0  0 0 0  0 0 0  0 0 0  0 0 0  0 0 0
0 0 0  0 0 0  0 0 0  0 0 0  0 0 0  0 0 0
0 0 0  0 0 0  0 0 0  0 0 0  0 0 0  0 0 0
0 0 0  0 0 0  0 0 0  0 0 0  0 0 0  0 0 0
0 0 0  0 0 0  0 0 0  0 0 0  0 0 0  0 0 0
0 0 0  0 0 0  0 0 0  0 0 0  0 0 0  0 0 0
0 0 0  0 0 0  0 0 0  0 0 0  0 0 0  0 0 0
0 0 0  0 0 0  0 0 0  0 0 0  0 0 0  0 0 0
0 0 0  0 0 0  0 0 0  0 0 0  0 0 0  0 0 0
0 0 0  0 0 0  0 0 0  0 0 0  0 0 0  0 0 0
0 0 0  0 0 0  0 0 0  0 0 0  0 0 0  0 0 0
0 0 0  0 0 0  0 0 0  0 0 0  0 0 0  0 0 0
0 0 0  0 0 0  0 0 0  0 0 0  0 0 0  0 0 0
0 0 0  0 0 0  0 0 0  0 0 0  0 0 0  0 0 0
0 0 0  0 0 0  0 0 0  0 0 0  0 0 0  0 0 0
0 0 0  0 0 0  0 0 0  0 0 0  0 0 0  0 0 0
0 0 0  0 0 0  0 0 0  0 0 0  0 0 0  0 0 0
0 0 0  0 0 0  0 0 0  0 0 0  0 0 0  0 0 0
0 0 0  0 0 0  0 0 0  0 0 0  0 0 0  0 0 0
0 0 0  0 0 0  0 0 0  0 0 0  0 0 0  0 0 0
0 0 0  0 0 0  0 0 0  0 0 0  0 0 0  0 0 0
0 0 0  0 0 0  0 0 0  0 0 0  0 0 0  0 0 0
0 0 0  0 0 0  0 0 0  0 0 0  0 0 0  0 0 0
0 0 0  0 0 0  0 0 0  0 0 0  0 0 0  0 0 0
0 0 0  0 0 0  0 0 0  0 0 0  0 0 0  0 0 0
0 0 0  0 0 0  0 0 0  0 0 0  0 0 0  0 0 0
0 0 0  0 0 0  0 0 0  0 0 0  0 0 0  0 0 0
0 0 0  0 0 0  0 0 0  0 0 0  0 0 0  0 0 0
0 0 0  0 0 0  0 0 0  0 0 0  0 0 0  0 0 0
0 0 0  0 0 0  0 0 0  0 0 0  0 0 0  0 0 0
0 0 0  0 0 0  0 0 0  0 0 0  0 0 0  0 0 0
0 0 0  0 0 0  0 0 0  0 0 0  0 0 0  0 0 0
0 0 0  0 0 0  0 0 0  0 0 0  0 0 0  0 0 0
0 0 0  0 0 0  0 0 0  0 0 0  0 0 0  0 0 0
0 0 0  0 0 0  0 0 0  0 0 0  0 0 0  0 0 0
0 0 0  0 0 0  0 0 0  0 0 0  0 0 0  0 0 0
0 0 0  0 0 0  0 0 0  0 0 0  0 0 0  0 0 0
0 0 0  0 0 0  0 0 0  0 0 0  0 0 0  0 0 0
0 0 0  0 0 0  0 0 0  0 0 0  0 0 0  0 0 0
0 0 0  0 0 0  0 0 0  0 0 0  0 0 0  0 0 0
0 0 0  0 0 0  0 0 0  0 0 0  0 0 0  0 0 0
0 0 0  0 0 0  0 0 0  0 0 0  0 0 0  0 0 0
0 0 0  0 0 0  0 0 0  0 0 0  0 0 0  0 0 0
0 0 0  0 0 0  0 0 0  0 0 0  0 0 0  0 0 0
0 0 0  0 0 0  0 0 0  0 0 0  0 0 0  0 0 0
0 0 0  0 0 0  0 0 0  0 0 0  0 0 0  0 0 0
0 0 0  0 0 0  0 0 0  0 0 0  0 0 0  0 0 0
0 0 0  0 0 0  0 0 0  0 0 0  0 0 0  0 0 0
0 0 0  0 0 0  0 0 0  0 0 0  0 0 0  0 0 0
0 0 0  0 0 0  0 0 0  0 0 0  0 0 0  0 0 0
0 0 0  0 0 0  0 0 0  0 0 0  0 0 0  0 0 0
0 0 0  0 0 0  0 0 0  0 0 0  0 0 0  0 0 0
0 0 0  0 0 0  0 0 0  0 0 0  0 0 0  0 0 0
0 0 0  0 0 0  0 0 0  0 0 0  0 0 0  0 0 0
0 0 0  0 0 0  0 0 0  0 0 0  0 0 0  0 0 0
0 0 0  0 0 0  0 0 0  0 0 0  0 0 0  0 0 0
0 0 0  0 0 0  0 0 0  0 0 0  0 0 0  0 0 0
0 0 0  0 0 0  0 0 0  0 0 0  0 0 0  0 0 0
0 0 0  0 0 0  0 0 0  0 0 0  0 0 0  0 0 0
0 0 0  0 0 0  0 0 0  0 0 0
0 0 0  0 0 0  4 10 20  29 72 136  33 81 153  33 81 153
33 81 153  33 81 153  33 81 153  33 81 153  33 81 153  33 81 153
33 81 153  33 81 153  33 81 153  33 81 153  33 81 153  33 81 153
33 81 153  33 81 153  33 81 153  33 81 153  33 81 153  33 81 153
33 81 153  33 81 153  16 40 75  0 0 0  0 0 0  0 0 0
0 0 0  0 0 0  0 0 0  0 0 0  0 0 0  0 0 0
0 1 1  12 28 53  29 71 134  33 81 153  33 81 153  33 81 153
33 81 153  33 81 153  33 81 153  33 81 153  33 81 153  33 81 153
33 81 153  33 81 153  33 81 153  33 81 153  33 81 153  33 81 153
33 81 153  33 81 153  33 81 153  33 81 153  33 81 153  33 81 153
33 81 153  33 81 153  33 81 153  33 81 153  33 81 153  33 81 153
33 81 153  33 81 153  33 81 153  33 81 153  33 81 153  33 81 153
33 81 153  33 81 153  33 81 153  33 81 153  33 81 153  33 81 153
24 59 111  6 14 26  0 0 0  0 0 0  0 0 0  0 0 0
0 0 0  0 0 0  0 0 0  0 0 0  0 0 0  0 0 0
15 37 71  33 81 153  33 81 153  33 81 153  33 81 153  33 81 153
33 81 153  33 81 153  33 81 153  33 81 153  33 81 153  33 81 153
33 81 153  33 81 153  33 81 153  33 81 153  33 81 153  33 81 153
33 81 153  33 81 153  33 81 153  33 81 153  33 81 153  30 73 138
5 12 23  0 0 0  0 0 0  0 0 0  0 0 0  0 0 0
0 0 0  0 0 0  0 0 0  0 0 0  0 0 0  0 0 0
0 0 0  0 0 0  0 0 0  0 0 0  0 0 0  0 0 0
0 0 0  0 0 0  0 0 0  0 0 0  0 0 0  0 0 0
0 0 0  0 0 0  0 0 0  0 0 0  0 0 0  0 0 0
0 0 0  0 0 0  0 0 0  0 0 0  0 0 0  0 0 0
0 0 0  0 0 0  0 0 0  0 0 0  0 0 0  0 0 0
0 0 0  0 0 0  0 0 0  0 0 0  0 0 0  1 1 2
23 57 107  33 81 153  33 81 153  33 81 153  33 81 153  33 81 153
33 81 153  33 81 153  33 81 153  33 81 153  33 81 153  33 81 153
33 81 153  33 81 153  33 81 153  33 81 153  33 81 153  33 81 153
33 81 153  33 81 153  33 81 153  33 81 153  33 81 153  17 41 77
0 0 0  0 0 0  0 0 0  0 0 0  0 0 0  0 0 0
0 0 0  0 0 0  0 0 0  0 0 0  0 0 0  0 0 0
0 0 0  0 0 0  0 0 0  0 0 0  0 0 0  0 0 0
0 0 0  0 0 0  0 0 0  0 0 0  0 0 0  0 0 0
0 0 0  0 0 0  0 0 0  0 0 0  0 0 0  0 0 0
0 0 0  0 0 0  0 0 0  0 0 0  0 0 0  0 0 0
0 0 0  0 0 0  0 0 0  0 0 0  0 0 0  0 0 0
0 0 0  0 0 0  0 0 0  0 0 0  0 0 0  0 0 0
0 0 0  0 0 0  0 0 0  0 0 0  0 0 0  0 0 0
0 0 0  0 0 0  6 14 27  31 75 142  33 81 153  33 81 153
33 81 153  33 81 153  33 81 153  33 81 153  33 81 153  33 81 153
33 81 153  33 81 153  33 81 153  33 81 153  33 81 153  33 81 153
33 81 153  33 81 153  33 81 153  33 81 153  33 81 153  33 81 153
33 81 153  31 77 145  7 17 32  0 0 0  0 0 0  0 0 0
0 0 0  0 0 0  0 0 0  0 0 0  0 0 0  0 0 0
0 0 0  0 0 0  0 0 0  0 0 0  0 0 0  0 0 0
2 5 9  26 64 121  33 81 153  33 81 153  33 81 153  33 81 153
33 81 153  33 81 153  33 81 153  33 81 153  33 81 153  33 81 153
33 81 153  33 81 153  33 81 153  33 81 153  33 81 153  33 81 153
33 81 153  33 81 153  33 81 153  33 81 153  33 81 153  29 72 136
4 11 20  0 0 0  0 0 0  0 0 0  0 0 0  0 0 0
0 0 0  0 0 0  0 0 0  0 0 0  0 0 0  0 0 0
0 0 0  0 0 0  0 0 0  0 0 0  0 0 0  0 0 0
0 0 0  0 0 0  0 0 0  0 0 0  0 0 0  0 0 0
0 0 0  0 0 0  0 0 0  0 0 0  0 0 0  0 0 0
0 0 0  0 0 0  0 0 0  0 0 0  0 0 0  0 0 0
0 0 0  0 0 0  0 0 0  0 0 0  0 0 0  3 6 12
17 43 81  32 78 146  33 81 153  33 81 153  33 81 153  33 81 153
33 81 153  33 81 153  33 81 153  33 81 153  33 81 153  33 81 153
33 81 153  33 81 153  33 81 153  33 81 153  33 81 153  33 81 153
33 81 153  33 81 153  33 81 153  33 81 153  33 81 153  33 81 153
33 81 153  33 81 153  33 81 153  33 81 153  29 72 136  7 17 31
0 0 0  0 0 0  0 0 0  0 0 0  0 0 0  0 0 0
0 0 0  0 0 0  0 0 0  0 0 0  0 0 0  0 0 0
0 0 0  0 0 0  0 0 0  0 0 0  0 0 0  0 0 0
0 0 0  0 0 0  0 0 0  0 0 0  0 0 0  0 0 0
0 0 0  0 0 0  0 0 0  0 0 0  0 0 0  0 0 0
0 0 0  0 0 0  0 0 0  0 0 0  0 0 0  0 0 0
0 0 0  0 0 0  0 0 0  0 0 0  0 0 0  0 0 0
0 0 0  0 0 0  0 0 0  0 0 0  0 0 0  0 0 0
0 0 0  0 0 0  0 0 0  0 0 0  0 0 0  0 0 0
0 0 0  0 0 0  0 0 0  0 0 0  0 0 0  0 0 0
0 0 0  0 0 0  0 0 0  0 0 0  0 0 0  0 0 0
0 0 0  0 0 0  0 0 0  0 0 0  0 0 0  0 0 0
0 0 0  0 0 0  0 0 0  0 0 0  0 0 0  0 0 0
0 0 0  0 0 0  0 0 0  0 0 0  0 0 0  0 0 0
0 0 0  0 0 0  0 0 0  0 0 0  0 0 0  0 0 0
0 0 0  0 0 0  0 0 0  0 0 0  0 0 0  0 0 0
0 0 0  0 0 0  0 0 0  0 0 0  0 0 0  0 0 0
0 0 0  0 0 0  0 0 0  0 0 0  0 0 0  0 0 0
0 0 0  0 0 0  0 0 0  0 0 0  0 0 0  0 0 0
0 0 0  0 0 0  0 0 0  0 0 0  0 0 0  0 0 0
0 0 0  0 0 0  0 0 0  0 0 0  0 0 0  0 0 0
0 0 0  0 0 0  0 0 0  0 0 0  0 0 0  0 0 0
0 0 0  0 0 0  0 0 0  0 0 0  0 0 0  0 0 0
0 0 0  0 0 0  0 0 0  0 0 0  0 0 0  0 0 0
0 0 0  0 0 0  0 0 0  0 0 0  0 0 0  0 0 0
0 0 0  0 0 0  0 0 0  0 0 0  0 0 0  0 0 0
0 0 0  0 0 0  0 0 0  0 0 0  0 0 0  0 0 0
0 0 0  0 0 0  0 0 0  0 0 0  0 0 0  0 0 0
0 0 0  0 0 0  0 0 0  0 0 0  0 0 0  0 0 0
0 0 0  0 0 0  0 0 0  0 0 0  0 0 0  0 0 0
0 0 0  0 0 0  0 0 0  0 0 0  0 0 0  0 0 0
0 0 0  0 0 0  0 0 0  0 0 0  0 0 0  0 0 0
0 0 0  0 0 0  0 0 0  0 0 0  0 0 0  0 0 0
0 0 0  0 0 0  0 0 0  0 0 0  0 0 0  0 0 0
0 0 0  0 0 0  0 0 0  0 0 0  0 0 0  0 0 0
0 0 0  0 0 0  0 0 0  0 0 0  0 0 0  0 0 0
0 0 0  0 0 0  0 0 0  0 0 0  0 0 0  0 0 0
0 0 0  0 0 0  0 0 0  0 0 0  0 0 0  0 0 0
0 0 0  0 0 0  0 0 0  0 0 0  0 0 0  0 0 0
0 0 0  0 0 0  0 0 0  0 0 0  0 0 0  0 0 0
0 0 0  0 0 0  0 0 0  0 0 0  0 0 0  0 0 0
0 0 0  0 0 0  0 0 0  0 0 0  0 0 0  0 0 0
0 0 0  0 0 0  0 0 0  0 0 0  0 0 0  0 0 0
0 0 0  0 0 0  0 0 0  0 0 0  0 0 0  0 0 0
0 0 0  0 0 0  0 0 0  0 0 0  0 0 0  0 0 0
0 0 0  0 0 0  0 0 0  0 0 0  0 0 0  0 0 0
0 0 0  0 0 0  0 0 0  0 0 0  0 0 0  0 0 0
0 0 0  0 0 0  0 0 0  0 0 0  0 0 0  0 0 0
0 0 0  0 0 0  0 0 0  0 0 0  0 0 0  0 0 0
0 0 0  0 0 0  0 0 0  0 0 0  0 0 0  0 0 0
0 0 0  0 0 0  0 0 0  0 0 0  0 0 0  0 0 0
0 0 0  0 0 0  0 0 0  0 0 0  0 0 0  0 0 0
0 0 0  0 0 0  0 0 0  0 0 0  0 0 0  0 0 0
0 0 0  0 0 0  0 0 0  0 0 0  0 0 0  0 0 0
0 0 0  0 0 0  0 0 0  0 0 0  0 0 0  0 0 0
0 0 0  0 0 0  0 0 0  0 0 0  0 0 0  0 0 0
0 0 0  0 0 0  0 0 0  0 0 0  0 0 0  0 0 0
0 0 0  0 0 0  0 0 0  0 0 0  0 0 0  0 0 0
0 0 0  0 0 0  0 0 0  0 0 0  0 0 0  0 0 0
0 0 0  0 0 0  0 0 0  0 0 0  0 0 0  0 0 0
0 0 0  0 0 0  0 0 0  0 0 0  0 0 0  0 0 0
0 0 0  0 0 0  0 0 0  0 0 0
0 0 0  0 0 0  6 15 29  31 75 142  33 81 153  33 81 153
33 81 153  33 81 153  33 81 153  33 81 153  33 81 153  33 81 153
33 81 153  33 81 153  33 81 153  33 81 153  33 81 153  33 81 153
33 81 153  33 81 153  33 81 153  33 81 153  33 81 153  33 81 153
33 81 153  33 81 153  14 35 66  0 0 0  0 0 0  0 0 0
0 0 0  0 0 0  0 0 0  0 0 0  0 0 0  0 0 0
0 0 0  0 0 0  7 17 32  24 60 113  33 81 153  33 81 153
33 81 153  33 81 153  33 81 153  33 81 153  33 81 153  33 81 153
33 81 153  33 81 153  33 81 153  33 81 153  33 81 153  33 81 153
33 81 153  33 81 153  33 81 153  33 81 153  33 81 153  33 81 153
33 81 153  33 81 153  33 81 153  33 81 153  33 81 153  33 81 153
33 81 153  33 81 153  33 81 153  33 81 153  33 81 153  33 81 153
33 81 153  33 81 153  33 81 153  33 81 153  32 78 146  18 45 85
3 7 13  0 0 0  0 0 0  0 0 0  0 0 0  0 0 0
0 0 0  0 0 0  0 0 0  0 0 0  0 0 0  0 0 0
13 32 61  33 81 153  33 81 153  33 81 153  33 81 153  33 81 153
33 81 153  33 81 153  33 81 153  33 81 153  33 81 153  33 81 153
33 81 153  33 81 153  33 81 153  33 81 153  33 81 153  33 81 153
33 81 153  33 81 153  33 81 153  33 81 153  33 81 153  31 76 144
7 17 32  0 0 0  0 0 0  0 0 0  0 0 0  0 0 0
0 0 0  0 0 0  0 0 0  0 0 0  0 0 0  0 0 0
0 0 0  0 0 0  0 0 0  0 0 0  0 0 0  0 0 0
0 0 0  0 0 0  0 0 0  0 0 0  0 0 0  0 0 0
0 0 0  0 0 0  0 0 0  0 0 0  0 0 0  0 0 0
0 0 0  0 0 0  0 0 0  0 0 0  0 0 0  0 0 0
0 0 0  0 0 0  0 0 0  0 0 0  0 0 0  0 0 0
0 0 0  0 0 0  0 0 0  0 0 0  0 0 0  1 1 2
23 57 107  33 81 153  33 81 153  33 81 153  33 81 153  33 81 153
33 81 153  33 81 153  33 81 153  33 81 153  33 81 153  33 81 153
33 81 153  33 81 153  33 81 153  33 81 153  33 81 153  33 81 153
33 81 153  33 81 153  33 81 153  33 81 153  33 81 153  17 41 77
0 0 0  0 0 0  0 0 0  0 0 0  0 0 0  0 0 0
0 0 0  0 0 0  0 0 0  0 0 0  0 0 0  0 0 0
0 0 0  0 0 0  0 0 0  0 0 0  0 0 0  0 0 0
0 0 0  0 0 0  0 0 0  0 0 0  0 0 0  0 0 0
0 0 0  0 0 0  0 0 0  0 0 0  0 0 0  0 0 0
0 0 0  0 0 0  0 0 0  0 0 0  0 0 0  0 0 0
0 0 0  0 0 0  0 0 0  0 0 0  0 0 0  0 0 0
0 0 0  0 0 0  0 0 0  0 0 0  0 0 0  0 0 0
0 0 0  0 0 0  0 0 0  0 0 0  0 0 0  0 0 0
0 0 0  0 0 0  6 14 27  31 75 142  33 81 153  33 81 153
33 81 153  33 81 153  33 81 153  33 81 153  33 81 153  33 81 153
33 81 153  33 81 153  33 81 153  33 81 153  33 81 153  33 81 153
33 81 153  33 81 153  33 81 153  33 81 153  33 81 153  33 81 153
33 81 153  31 77 145  7 17 32  0 0 0  0 0 0  0 0 0
0 0 0  0 0 0  0 0 0  0 0 0  0 0 0  0 0 0
0 0 0  0 0 0  0 0 0  0 0 0  0 0 0  0 0 0
2 5 9  26 64 121  33 81 153  33 81 153  33 81 153  33 81 153
33 81 153  33 81 153  33 81 153  33 81 153  33 81 153  33 81 153
33 81 153  33 81 153  33 81 153  33 81 153  33 81 153  33 81 153
33 81 153  33 81 153  33 81 153  33 81 153  33 81 153  29 72 136
4 11 20  0 0 0  0 0 0  0 0 0  0 0 0  0 0 0
0 0 0  0 0 0  0 0 0  0 0 0  0 0 0  0 0 0
0 0 0  0 0 0  0 0 0  0 0 0  0 0 0  0 0 0
0 0 0  0 0 0  0 0 0  0 0 0  0 0 0  0 0 0
0 0 0  0 0 0  0 0 0  0 0 0  0 0 0  0 0 0
0 0 0  0 0 0  0 0 0  0 0 0  0 0 0  0 0 0
0 0 0  0 0 0  0 0 0  0 0 0  0 0 0  0 0 0
0 1 2  13 31 59  31 75 142  33 81 153  33 81 153  33 81 153
33 81 153  33 81 153  33 81 153  33 81 153  33 81 153  33 81 153
33 81 153  33 81 153  33 81 153  33 81 153  33 81 153  33 81 153
33 81 153  33 81 153  33 81 153  33 81 153  33 81 153  33 81 153
33 81 153  33 81 153  33 81 153  33 81 153  33 81 153  22 54 102
1 3 5  0 0 0  0 0 0  0 0 0  0 0 0  0 0 0
0 0 0  0 0 0  0 0 0  0 0 0  0 0 0  0 0 0
0 0 0  0 0 0  0 0 0  0 0 0  0 0 0  0 0 0
0 0 0  0 0 0  0 0 0  0 0 0  0 0 0  0 0 0
0 0 0  0 0 0  0 0 0  0 0 0  0 0 0  0 0 0
0 0 0  0 0 0  0 0 0  0 0 0  0 0 0  0 0 0
0 0 0  0 0 0  0 0 0  0 0 0  0 0 0  0 0 0
0 0 0  0 0 0  0 0 0  0 0 0  0 0 0  0 0 0
0 0 0  0 0 0  0 0 0  0 0 0  0 0 0  0 0 0
0 0 0  0 0 0  0 0 0  0 0 0  0 0 0  0 0 0
0 0 0  0 0 0  0 0 0  0 0 0  0 0 0  0 0 0
0 0 0  0 0 0  0 0 0  0 0 0  0 0 0  0 0 0
0 0 0  0 0 0  0 0 0  0 0 0  0 0 0  0 0 0
0 0 0  0 0 0  0 0 0  0 0 0  0 0 0  0 0 0
0 0 0  0 0 0  0 0 0  0 0 0  0 0 0  0 0 0
0 0 0  0 0 0  0 0 0  0 0 0  0 0 0  0 0 0
0 0 0  0 0 0  0 0 0  0 0 0  0 0 0  0 0 0
0 0 0  0 0 0  0 0 0  0 0 0  0 0 0  0 0 0
0 0 0  0 0 0  0 0 0  0 0 0  0 0 0  0 0 0
0 0 0  0 0 0  0 0 0  0 0 0  0 0 0  0 0 0
0 0 0  0 0 0  0 0 0  0 0 0  0 0 0  0 0 0
0 0 0  0 0 0  0 0 0  0 0 0  0 0 0  0 0 0
0 0 0  0 0 0  0 0 0  0 0 0  0 0 0  0 0 0
0 0 0  0 0 0  0 0 0  0 0 0  0 0 0  0 0 0
0 0 0  0 0 0  0 0 0  0 0 0  0 0 0  0 0 0
0 0 0  0 0 0  0 0 0  0 0 0  0 0 0  0 0 0
0 0 0  0 0 0  0 0 0  0 0 0  0 0 0  0 0 0
0 0 0  0 0 0  0 0 0  0 0 0  0 0 0  0 0 0
0 0 0  0 0 0  0 0 0  0 0 0  0 0 0  0 0 0
0 0 0  0 0 0  0 0 0  0 0 0  0 0 0  0 0 0
0 0 0  0 0 0  0 0 0  0 0 0  0 0 0  0 0 0
0 0 0  0 0 0  0 0 0  0 0 0  0 0 0  0 0 0
0 0 0  0 0 0  0 0 0  0 0 0  0 0 0  0 0 0
0 0 0  0 0 0  0 0 0  0 0 0  0 0 0  0 0 0
0 0 0  0 0 0  0 0 0  0 0 0  0 0 0  0 0 0
0 0 0  0 0 0  0 0 0  0 0 0  0 0 0  0 0 0
0 0 0  0 0 0  0 0 0  0 0 0  0 0 0  0 0 0
0 0 0  0 0 0  0 0 0  0 0 0  0 0 0  0 0 0
0 0 0  0 0 0  0 0 0  0 0 0  0 0 0  0 0 0
0 0 0  0 0 0  0 0 0  0 0 0  0 0 0  0 0 0
0 0 0  0 0 0  0 0 0  0 0 0  0 0 0  0 0 0
0 0 0  0 0 0  0 0 0  0 0 0  0 0 0  0 0 0
0 0 0  0 0 0  0 0 0  0 0 0  0 0 0  0 0 0
0 0 0  0 0 0  0 0 0  0 0 0  0 0 0  0 0 0
0 0 0  0 0 0  0 0 0  0 0 0  0 0 0  0 0 0
0 0 0  0 0 0  0 0 0  0 0 0  0 0 0  0 0 0
0 0 0  0 0 0  0 0 0  0 0 0  0 0 0  0 0 0
0 0 0  0 0 0  0 0 0  0 0 0  0 0 0  0 0 0
0 0 0  0 0 0  0 0 0  0 0 0  0 0 0  0 0 0
0 0 0  0 0 0  0 0 0  0 0 0  0 0 0  0 0 0
0 0 0  0 0 0  0 0 0  0 0 0  0 0 0  0 0 0
0 0 0  0 0 0  0 0 0  0 0 0  0 0 0  0 0 0
0 0 0  0 0 0  0 0 0  0 0 0  0 0 0  0 0 0
0 0 0  0 0 0  0 0 0  0 0 0  0 0 0  0 0 0
0 0 0  0 0 0  0 0 0  0 0 0  0 0 0  0 0 0
0 0 0  0 0 0  0 0 0  0 0 0  0 0 0  0 0 0
0 0 0  0 0 0  0 0 0  0 0 0  0 0 0  0 0 0
0 0 0  0 0 0  0 0 0  0 0 0  0 0 0  0 0 0
0 0 0  0 0 0  0 0 0  0 0 0  0 0 0  0 0 0
0 0 0  0 0 0  0 0 0  0 0 0  0 0 0  0 0 0
0 0 0  0 0 0  0 0 0  0 0 0  0 0 0  0 0 0
0 0 0  0 0 0  0 0 0  0 0 0
0 0 0  0 0 0  8 20 38  32 78 148  33 81 153  33 81 153
33 81 153  33 81 153  33 81 153  33 81 153  33 81 153  33 81 153
33 81 153  33 81 153  33 81 153  33 81 153  33 81 153  33 81 153
33 81 153  33 81 153  33 81 153  33 81 153  33 81 153  33 81 153
33 81 153  33 81 152  12 30 56  0 0 0  0 0 0  0 0 0
0 0 0  0 0 0  0 0 0  0 0 0  0 0 0  0 0 0
0 0 0  0 0 0  0 0 0  3 7 13  17 42 80  31 75 142
33 81 153  33 81 153  33 81 153  33 81 153  33 81 153  33 81 153
33 81 153  33 81 153  33 81 153  33 81 153  33 81 153  33 81 153
33 81 153  33 81 153  33 81 153  33 81 153  33 81 153  33 81 153
33 81 153  33 81 153  33 81 153  33 81 153  33 81 153  33 81 153
33 81 153  33 81 153  33 81 153  33 81 153  33 81 153  33 81 153
33 81 153  33 81 153  33 81 153  27 67 127  11 28 52  1 1 2
0 0 0  0 0 0  0 0 0  0 0 0  0 0 0  0 0 0
0 0 0  0 0 0  0 0 0  0 0 0  0 0 0  0 0 0
11 28 52  33 80 152  33 81 153  33 81 153  33 81 153  33 81 153
33 81 153  33 81 153  33 81 153  33 81 153  33 81 153  33 81 153
33 81 153  33 81 153  33 81 153  33 81 153  33 81 153  33 81 153
33 81 153  33 81 153  33 81 153  33 81 153  33 81 153  32 79 149
9 22 42  0 0 0  0 0 0  0 0 0  0 0 0  0 0 0
0 0 0  0 0 0  0 0 0  0 0 0  0 0 0  0 0 0
0 0 0  0 0 0  0 0 0  0 0 0  0 0 0  0 0 0
0 0 0  0 0 0  0 0 0  0 0 0  0 0 0  0 0 0
0 0 0  0 0 0  0 0 0  0 0 0  0 0 0  0 0 0
0 0 0  0 0 0  0 0 0  0 0 0  0 0 0  0 0 0
0 0 0  0 0 0  0 0 0  0 0 0  0 0 0  0 0 0
0 0 0  0 0 0  0 0 0  0 0 0  0 0 0  1 1 2
23 57 107  33 81 153  33 81 153  33 81 153  33 81 153  33 81 153
33 81 153  33 81 153  33 81 153  33 81 153  33 81 153  33 81 153
33 81 153  33 81 153  33 81 153  33 81 153  33 81 153  33 81 153
33 81 153  33 81 153  33 81 153  33 81 153  33 81 153  17 41 77
0 0 0  0 0 0  0 0 0  0 0 0  0 0 0  0 0 0
0 0 0  0 0 0  0 0 0  0 0 0  0 0 0  0 0 0
0 0 0  0 0 0  0 0 0  0 0 0  0 0 0  0 0 0
0 0 0  0 0 0  0 0 0  0 0 0  0 0 0  0 0 0
0 0 0  0 0 0  0 0 0  0 0 0  0 0 0  0 0 0
0 0 0  0 0 0  0 0 0  0 0 0  0 0 0  0 0 0
0 0 0  0 0 0  0 0 0  0 0 0  0 0 0  0 0 0
0 0 0  0 0 0  0 0 0  0 0 0  0 0 0  0 0 0
0 0 0  0 0 0  0 0 0  0 0 0  0 0 0  0 0 0
0 0 0  0 0 0  6 14 27  31 75 142  33 81 153  33 81 153
33 81 153  33 81 153  33 81 153  33 81 153  33 81 153  33 81 153
33 81 153  33 81 153  33 81 153  33 81 153  33 81 153  33 81 153
33 81 153  33 81 153  33 81 153  33 81 153  33 81 153  33 81 153
33 81 153  31 77 145  7 17 32  0 0 0  0 0 0  0 0 0
0 0 0  0 0 0  0 0 0  0 0 0  0 0 0  0 0 0
0 0 0  0 0 0  0 0 0  0 0 0  0 0 0  0 0 0
2 5 9  26 64 121  33 81 153  33 81 153  33 81 153  33 81 153
33 81 153  33 81 153  33 81 153  33 81 153  33 81 153  33 81 153
33 81 153  33 81 153  33 81 153  33 81 153  33 81 153  33 81 153
33 81 153  33 81 153  33 81 153  33 81 153  33 81 153  29 72 136
4 11 20  0 0 0  0 0 0  0 0 0  0 0 0  0 0 0
0 0 0  0 0 0  0 0 0  0 0 0  0 0 0  0 0 0
0 0 0  0 0 0  0 0 0  0 0 0  0 0 0  0 0 0
0 0 0  0 0 0  0 0 0  0 0 0  0 0 0  0 0 0
0 0 0  0 0 0  0 0 0  0 0 0  0 0 0  0 0 0
0 0 0  0 0 0  0 0 0  0 0 0  0 0 0  0 0 0
0 0 0  0 0 0  0 0 0  0 0 0  0 0 0  0 0 0
0 0 0  0 0 0  12 30 56  31 76 143  33 81 153  33 81 153
33 81 153  33 81 153  33 81 153  33 81 153  33 81 153  33 81 153
33 81 153  33 81 153  33 81 153  33 81 153  33 81 153  33 81 153
33 81 153  33 81 153  33 81 153  33 81 153  33 81 153  33 81 153
33 81 153  33 81 153  33 81 153  33 81 153  33 81 153  32 78 148
11 27 50  0 0 0  0 0 0  0 0 0  0 0 0  0 0 0
0 0 0  0 0 0  0 0 0  0 0 0  0 0 0  0 0 0
0 0 0  0 0 0  0 0 0  0 0 0  0 0 0  0 0 0
0 0 0  0 0 0  0 0 0  0 0 0  0 0 0  0 0 0
0 0 0  0 0 0  0 0 0  0 0 0  0 0 0  0 0 0
0 0 0  0 0 0  0 0 0  0 0 0  0 0 0  0 0 0
0 0 0  0 0 0  0 0 0  0 0 0  0 0 0  0 0 0
0 0 0  0 0 0  0 0 0  0 0 0  0 0 0  0 0 0
0 0 0  0 0 0  0 0 0  0 0 0  0 0 0  0 0 0
0 0 0  0 0 0  0 0 0  0 0 0  0 0 0  0 0 0
0 0 0  0 0 0  0 0 0  0 0 0  0 0 0  0 0 0
0 0 0  0 0 0  0 0 0  0 0 0  0 0 0  0 0 0
0 0 0  0 0 0  0 0 0  0 0 0  0 0 0  0 0 0
0 0 0  0 0 0  0 0 0  0 0 0  0 0 0  0 0 0
0 0 0  0 0 0  0 0 0  0 0 0  0 0 0  0 0 0
0 0 0  0 0 0  0 0 0  0 0 0  0 0 0  0 0 0
0 0 0  0 0 0  0 0 0  0 0 0  0 0 0  0 0 0
0 0 0  0 0 0  0 0 0  0 0 0  0 0 0  0 0 0
0 0 0  0 0 0  0 0 0  0 0 0  0 0 0  0 0 0
0 0 0  0 0 0  0 0 0  0 0 0  0 0 0  0 0 0
0 0 0  0 0 0  0 0 0  0 0 0  0 0 0  0 0 0
0 0 0  0 0 0  0 0 0  0 0 0  0 0 0  0 0 0
0 0 0  0 0 0  0 0 0  0 0 0  0 0 0  0 0 0
0 0 0  0 0 0  0 0 0  0 0 0  0 0 0  0 0 0
0 0 0  0 0 0  0 0 0  0 0 0  0 0 0  0 0 0
0 0 0  0 0 0  0 0 0  0 0 0  0 0 0  0 0 0
0 0 0  0 0 0  0 0 0  0 0 0  0 0 0  0 0 0
0 0 0  0 0 0  0 0 0  0 0 0  0 0 0  0 0 0
0 0 0  0 0 0  0 0 0  0 0 0  0 0 0  0 0 0
0 0 0  0 0 0  0 0 0  0 0 0  0 0 0  0 0 0
0 0 0  0 0 0  0 0 0  0 0 0  0 0 0  0 0 0
0 0 0  0 0 0  0 0 0  0 0 0  0 0 0  0 0 0
0 0 0  0 0 0  0 0 0  0 0 0  0 0 0  0 0 0
0 0 0  0 0 0  0 0 0  0 0 0  0 0 0  0 0 0
0 0 0  0 0 0  0 0 0  0 0 0  0 0 0  0 0 0
0 0 0  0 0 0  0 0 0  0 0 0  0 0 0  0 0 0
0 0 0  0 0 0  0 0 0  0 0 0  0 0 0  0 0 0
0 0 0  0 0 0  0 0 0  0 0 0  0 0 0  0 0 0
0 0 0  0 0 0  0 0 0  0 0 0  0 0 0  0 0 0
0 0 0  0 0 0  0 0 0  0 0 0  0 0 0  0 0 0
0 0 0  0 0 0  0 0 0  0 0 0  0 0 0  0 0 0
0 0 0  0 0 0  0 0 0  0 0 0  0 0 0  0 0 0
0 0 0  0 0 0  0 0 0  0 0 0  0 0 0  0 0 0
0 0 0  0 0 0  0 0 0  0 0 0  0 0 0  0 0 0
0 0 0  0 0 0  0 0 0  0 0 0  0 0 0  0 0 0
0 0 0  0 0 0  0 0 0  0 0 0  0 0 0  0 0 0
0 0 0  0 0 0  0 0 0  0 0 0  0 0 0  0 0 0
0 0 0  0 0 0  0 0 0  0 0 0  0 0 0  0 0 0
0 0 0  0 0 0  0 0 0  0 0 0  0 0 0  0 0 0
0 0 0  0 0 0  0 0 0  0 0 0  0 0 0  0 0 0
0 0 0  0 0 0  0 0 0  0 0 0  0 0 0  0 0 0
0 0 0  0 0 0  0 0 0  0 0 0  0 0 0  0 0 0
0 0 0  0 0 0  0 0 0  0 0 0  0 0 0  0 0 0
0 0 0  0 0 0  0 0 0  0 0 0  0 0 0  0 0 0
0 0 0  0 0 0  0 0 0  0 0 0  0 0 0  0 0 0
0 0 0  0 0 0  0 0 0  0 0 0  0 0 0  0 0 0
0 0 0  0 0 0  0 0 0  0 0 0  0 0 0  0 0 0
0 0 0  0 0 0  0 0 0  0 0 0  0 0 0  0 0 0
0 0 0  0 0 0  0 0 0  0 0 0  0 0 0  0 0 0
0 0 0  0 0 0  0 0 0  0 0 0  0 0 0  0 0 0
0 0 0  0 0 0  0 0 0  0 0 0  0 0 0  0 0 0
0 0 0  0 0 0  0 0 0  0 0 0
0 0 0  0 0 0  11 26 49  33 80 151  33 81 153  33 81 153
33 81 153  33 81 153  33 81 153  33 81 153  33 81 153  33 81 153
33 81 153  33 81 153  33 81 153  33 81 153  33 81 153  33 81 153
33 81 153  33 81 153  33 81 153  33 81 153  33 81 153  33 81 153
33 81 153  32 80 151  10 25 47  0 0 0  0 0 0  0 0 0
0 0 0  0 0 0  0 0 0  0 0 0  0 0 0  0 0 0
0 0 0  0 0 0  0 0 0  0 0 0  0 0 1  9 21 40
24 59 112  33 80 151  33 81 153  33 81 153  33 81 153  33 81 153
33 81 153  33 81 153  33 81 153  33 81 153  33 81 153  33 81 153
33 81 153  33 81 153  33 81 153  33 81 153  33 81 153  33 81 153
33 81 153  33 81 153  33 81 153  33 81 153  33 81 153  33 81 153
33 81 153  33 81 153  33 81 153  33 81 153  33 81 153  33 81 153
33 81 153  31 76 143  19 46 88  4 10 20  0 0 0  0 0 0
0 0 0  0 0 0  0 0 0  0 0 0  0 0 0  0 0 0
0 0 0  0 0 0  0 0 0  0 0 0  0 0 0  0 0 0
9 23 43  32 79 149  33 81 153  33 81 153  33 81 153  33 81 153
33 81 153  33 81 153  33 81 153  33 81 153  33 81 153  33 81 153
33 81 153  33 81 153  33 81 153  33 81 153  33 81 153  33 81 153
33 81 153  33 81 153  33 81 153  33 81 153  33 81 153  33 80 152
12 28 53  0 0 0  0 0 0  0 0 0  0 0 0  0 0 0
0 0 0  0 0 0  0 0 0  0 0 0  0 0 0  0 0 0
0 0 0  0 0 0  0 0 0  0 0 0  0 0 0  0 0 0
0 0 0  0 0 0  0 0 0  0 0 0  0 0 0  0 0 0
0 0 0  0 0 0  0 0 0  0 0 0  0 0 0  0 0 0
0 0 0  0 0 0  0 0 0  0 0 0  0 0 0  0 0 0
0 0 0  0 0 0  0 0 0  0 0 0  0 0 0  0 0 0
0 0 0  0 0 0  0 0 0  0 0 0  0 0 0  1 1 2
23 57 107  33 81 153  33 81 153  33 81 153  33 81 153  33 81 153
33 81 153  33 81 153  33 81 153  33 81 153  33 81 153  33 81 153
33 81 153  33 81 153  33 81 153  33 81 153  33 81 153  33 81 153
33 81 153  33 81 153  33 81 153  33 81 153  33 81 153  17 41 77
0 0 0  0 0 0  0 0 0  0 0 0  0 0 0  0 0 0
0 0 0  0 0 0  0 0 0  0 0 0  0 0 0  0 0 0
0 0 0  0 0 0  0 0 0  0 0 0  0 0 0  0 0 0
0 0 0  0 0 0  0 0 0  0 0 0  0 0 0  0 0 0
0 0 0  0 0 0  0 0 0  0 0 0  0 0 0  0 0 0
0 0 0  0 0 0  0 0 0  0 0 0  0 0 0  0 0 0
0 0 0  0 0 0  0 0 0  0 0 0  0 0 0  0 0 0
0 0 0  0 0 0  0 0 0  0 0 0  0 0 0  0 0 0
0 0 0  0 0 0  0 0 0  0 0 0  0 0 0  0 0 0
0 0 0  0 0 0  6 14 27  31 75 142  33 81 153  33 81 153
33 81 153  33 81 153  33 81 153  33 81 153  33 81 153  33 81 153
33 81 153  33 81 153  33 81 153  33 81 153  33 81 153  33 81 153
33 81 153  33 81 153  33 81 153  33 81 153  33 81 153  33 81 153
33 81 153  31 77 145  7 17 32  0 0 0  0 0 0  0 0 0
0 0 0  0 0 0  0 0 0  0 0 0  0 0 0  0 0 0
0 0 0  0 0 0  0 0 0  0 0 0  0 0 0  0 0 0
2 5 9  26 64 121  33 81 153  33 81 153  33 81 153  33 81 153
33 81 153  33 81 153  33 81 153  33 81 153  33 81 153  33 81 153
33 81 153  33 81 153  33 81 153  33 81 153  33 81 153  33 81 153
33 81 153  33 81 153  33 81 153  33 81 153  33 81 153  29 72 136
4 11 20  0 0 0  0 0 0  0 0 0  0 0 0  0 0 0
0 0 0  0 0 0  0 0 0  0 0 0  0 0 0  0 0 0
0 0 0  0 0 0  0 0 0  0 0 0  0 0 0  0 0 0
0 0 0  0 0 0  0 0 0  0 0 0  0 0 0  0 0 0
0 0 0  0 0 0  0 0 0  0 0 0  0 0 0  0 0 0
0 0 0  0 0 0  0 0 0  0 0 0  0 0 0  0 0 0
0 0 0  0 0 0  0 0 0  0 0 0  0 0 0  0 0 0
0 0 0  0 0 0  0 0 0  15 37 69  32 79 150  33 81 153
33 81 153  33 81 153  33 81 153  33 81 153  33 81 153  33 81 153
33 81 153  33 81 153  33 81 153  33 81 153  33 81 153  33 81 153
33 81 153  33 81 153  33 81 153  33 81 153  33 81 153  33 81 153
33 81 153  33 81 153  33 81 153  33 81 153  33 81 153  33 81 153
24 60 113  2 4 8  0 0 0  0 0 0  0 0 0  0 0 0
0 0 0  0 0 0  0 0 0  0 0 0  0 0 0  0 0 0
0 0 0  0 0 0  0 0 0  0 0 0  0 0 0  0 0 0
0 0 0  0 0 0  0 0 0  0 0 0  0 0 0  0 0 0
0 0 0  0 0 0  0 0 0  0 0 0  0 0 0  0 0 0
0 0 0  0 0 0  0 0 0  0 0 0  0 0 0  0 0 0
0 0 0  0 0 0  0 0 0  0 0 0  0 0 0  0 0 0
0 0 0  0 0 0  0 0 0  0 0 0  0 0 0  0 0 0
0 0 0  0 0 0  0 0 0  0 0 0  0 0 0  0 0 0
0 0 0  0 0 0  0 0 0  0 0 0  0 0 0  0 0 0
0 0 0  0 0 0  0 0 0  0 0 0  0 0 0  0 0 0
0 0 0  0 0 0  0 0 0  0 0 0  0 0 0  0 0 0
0 0 0  0 0 0  0 0 0  0 0 0  0 0 0  0 0 0
0 0 0  0 0 0  0 0 0  0 0 0  0 0 0  0 0 0
0 0 0  0 0 0  0 0 0  0 0 0  0 0 0  0 0 0
0 0 0  0 0 0  0 0 0  0 0 0  0 0 0  0 0 0
0 0 0  0 0 0  0 0 0  0 0 0  0 0 0  0 0 0
0 0 0  0 0 0  0 0 0  0 0 0  0 0 0  0 0 0
0 0 0  0 0 0  0 0 0  0 0 0  0 0 0  0 0 0
0 0 0  0 0 0  0 0 0  0 0 0  0 0 0  0 0 0
0 0 0  0 0 0  0 0 0  0 0 0  0 0 0  0 0 0
0 0 0  0 0 0  0 0 0  0 0 0  0 0 0  0 0 0
0 0 0  0 0 0  0 0 0  0 0 0  0 0 0  0 0 0
0 0 0  0 0 0  0 0 0  0 0 0  0 0 0  0 0 0
0 0 0  0 0 0  0 0 0  0 0 0  0 0 0  0 0 0
0 0 0  0 0 0  0 0 0  0 0 0  0 0 0  0 0 0
0 0 0  0 0 0  0 0 0  0 0 0  0 0 0  0 0 0
0 0 0  0 0 0  0 0 0  0 0 0  0 0 0  0 0 0
0 0 0  0 0 0  0 0 0  0 0 0  0 0 0  0 0 0
0 0 0  0 0 0  0 0 0  0 0 0  0 0 0  0 0 0
0 0 0  0 0 0  0 0 0  0 0 0  0 0 0  0 0 0
0 0 0  0 0 0  0 0 0  0 0 0  0 0 0  0 0 0
0 0 0  0 0 0  0 0 0  0 0 0  0 0 0  0 0 0
0 0 0  0 0 0  0 0 0  0 0 0  0 0 0  0 0 0
0 0 0  0 0 0  0 0 0  0 0 0  0 0 0  0 0 0
0 0 0  0 0 0  0 0 0  0 0 0  0 0 0  0 0 0
0 0 0  0 0 0  0 0 0  0 0 0  0 0 0  0 0 0
0 0 0  0 0 0  0 0 0  0 0 0  0 0 0  0 0 0
0 0 0  0 0 0  0 0 0  0 0 0  0 0 0  0 0 0
0 0 0  0 0 0  0 0 0  0 0 0  0 0 0  0 0 0
0 0 0  0 0 0  0 0 0  0 0 0  0 0 0  0 0 0
0 0 0  0 0 0  0 0 0  0 0 0  0 0 0  0 0 0
0 0 0  0 0 0  0 0 0  0 0 0  0 0 0  0 0 0
0 0 0  0 0 0  0 0 0  0 0 0  0 0 0  0 0 0
0 0 0  0 0 0  0 0 0  0 0 0  0 0 0  0 0 0
0 0 0  0 0 0  0 0 0  0 0 0  0 0 0  0 0 0
0 0 0  0 0 0  0 0 0  0 0 0  0 0 0  0 0 0
0 0 0  0 0 0  0 0 0  0 0 0  0 0 0  0 0 0
0 0 0  0 0 0  0 0 0  0 0 0  0 0 0  0 0 0
0 0 0  0 0 0  0 0 0  0 0 0  0 0 0  0 0 0
0 0 0  0 0 0  0 0 0  0 0 0  0 0 0  0 0 0
0 0 0  0 0 0  0 0 0  0 0 0  0 0 0  0 0 0
0 0 0  0 0 0  0 0 0  0 0 0  0 0 0  0 0 0
0 0 0  0 0 0  0 0 0  0 0 0  0 0 0  0 0 0
0 0 0  0 0 0  0 0 0  0 0 0  0 0 0  0 0 0
0 0 0  0 0 0  0 0 0  0 0 0  0 0 0  0 0 0
0 0 0  0 0 0  0 0 0  0 0 0  0 0 0  0 0 0
0 0 0  0 0 0  0 0 0  0 0 0  0 0 0  0 0 0
0 0 0  0 0 0  0 0 0  0 0 0  0 0 0  0 0 0
0 0 0  0 0 0  0 0 0  0 0 0  0 0 0  0 0 0
0 0 0  0 0 0  0 0 0  0 0 0  0 0 0  0 0 0
0 0 0  0 0 0  0 0 0  0 0 0
0 0 0  0 0 0  13 32 61  33 81 153  33 81 153  33 81 153
33 81 153  33 81 153  33 81 153  33 81 153  33 81 153  33 81 153
33 81 153  33 81 153  33 81 153  33 81 153  33 81 153  33 81 153
33 81 153  33 81 153  33 81 153  33 81 153  33 81 153  33 81 153
33 81 153  32 78 148  8 21 39  0 0 0  0 0 0  0 0 0
0 0 0  0 0 0  0 0 0  0 0 0  0 0 0  0 0 0
0 0 0  0 0 0  0 0 0  0 0 0  0 0 0  0 0 0
2 5 9  13 32 61  27 65 123  33 81 152  33 81 153  33 81 153
33 81 153  33 81 153  33 81 153  33 81 153  33 81 153  33 81 153
33 81 153  33 81 153  33 81 153  33 81 153  33 81 153  33 81 153
33 81 153  33 81 153  33 81 153  33 81 153  33 81 153  33 81 153
33 81 153  33 81 153  33 81 153  33 81 153  33 81 153  32 78 146
22 55 104  8 20 38  0 1 2  0 0 0  0 0 0  0 0 0
0 0 0  0 0 0  0 0 0  0 0 0  0 0 0  0 0 0
0 0 0  0 0 0  0 0 0  0 0 0  0 0 0  0 0 0
8 19 35  31 77 146  33 81 153  33 81 153  33 81 153  33 81 153
33 81 153  33 81 153  33 81 153  33 81 153  33 81 153  33 81 153
33 81 153  33 81 153  33 81 153  33 81 153  33 81 153  33 81 153
33 81 153  33 81 153  33 81 153  33 81 153  33 81 153  33 81 153
14 35 65  0 0 0  0 0 0  0 0 0  0 0 0  0 0 0
0 0 0  0 0 0  0 0 0  0 0 0  0 0 0  0 0 0
0 0 0  0 0 0  0 0 0  0 0 0  0 0 0  0 0 0
0 0 0  0 0 0  0 0 0  0 0 0  0 0 0  0 0 0
0 0 0  0 0 0  0 0 0  0 0 0  0 0 0  0 0 0
0 0 0  0 0 0  0 0 0  0 0 0  0 0 0  0 0 0
0 0 0  0 0 0  0 0 0  0 0 0  0 0 0  0 0 0
0 0 0  0 0 0  0 0 0  0 0 0  0 0 0  1 1 2
23 57 107  33 81 153  33 81 153  33 81 153  33 81 153  33 81 153
33 81 153  33 81 153  33 81 153  33 81 153  33 81 153  33 81 153
33 81 153  33 81 153  33 81 153  33 81 153  33 81 153  33 81 153
33 81 153  33 81 153  33 81 153  33 81 153  33 81 153  17 41 77
0 0 0  0 0 0  0 0 0  0 0 0  0 0 0  0 0 0
0 0 0  0 0 0  0 0 0  0 0 0  0 0 0  0 0 0
0 0 0  0 0 0  0 0 0  0 0 0  0 0 0  0 0 0
0 0 0  0 0 0  0 0 0  0 0 0  0 0 0  0 0 0
0 0 0  0 0 0  0 0 0  0 0 0  0 0 0  0 0 0
0 0 0  0 0 0  0 0 0  0 0 0  0 0 0  0 0 0
0 0 0  0 0 0  0 0 0  0 0 0  0 0 0  0 0 0
0 0 0  0 0 0  0 0 0  0 0 0  0 0 0  0 0 0
0 0 0  0 0 0  0 0 0  0 0 0  0 0 0  0 0 0
0 0 0  0 0 0  6 14 27  31 75 142  33 81 153  33 81 153
33 81 153  33 81 153  33 81 153  33 81 153  33 81 153  33 81 153
33 81 153  33 81 153  33 81 153  33 81 153  33 81 153  33 81 153
33 81 153  33 81 153  33 81 153  33 81 153  33 81 153  33 81 153
33 81 153  31 77 145  7 17 32  0 0 0  0 0 0  0 0 0
0 0 0  0 0 0  0 0 0  0 0 0  0 0 0  0 0 0
0 0 0  0 0 0  0 0 0  0 0 0  0 0 0  0 0 0
2 5 9  26 64 121  33 81 153  33 81 153  33 81 153  33 81 153
33 81 153  33 81 153  33 81 153  33 81 153  33 81 153  33 81 153
33 81 153  33 81 153  33 81 153  33 81 153  33 81 153  33 81 153
33 81 153  33 81 153  33 81 153  33 81 153  33 81 153  29 72 136
4 11 20  0 0 0  0 0 0  0 0 0  0 0 0  0 0 0
0 0 0  0 0 0  0 0 0  0 0 0  0 0 0  0 0 0
0 0 0  0 0 0  0 0 0  0 0 0  0 0 0  0 0 0
0 0 0  0 0 0  0 0 0  0 0 0  0 0 0  0 0 0
0 0 0  0 0 0  0 0 0  0 0 0  0 0 0  0 0 0
0 0 0  0 0 0  0 0 0  0 0 0  0 0 0  0 0 0
0 0 0  0 0 0  0 0 0  0 0 0  0 0 0  0 0 0
0 0 0  0 0 0  0 0 0  1 3 5  21 53 100  33 81 153
33 81 153  33 81 153  33 81 153  33 81 153  33 81 153  33 81 153
33 81 153  33 81 153  33 81 153  33 81 153  33 81 153  33 81 153
33 81 153  33 81 153  33 81 153  33 81 153  33 81 153  33 81 153
33 81 153  33 81 153  33 81 153  33 81 153  33 81 153  33 81 153
32 79 149  10 26 49  0 0 0  0 0 0  0 0 0  0 0 0
0 0 0  0 0 0  0 0 0  0 0 0  0 0 0  0 0 0
0 0 0  0 0 0  0 0 0  0 0 0  0 0 0  0 0 0
0 0 0  0 0 0  0 0 0  0 0 0  0 0 0  0 0 0
0 0 0  0 0 0  0 0 0  0 0 0  0 0 0  0 0 0
0 0 0  0 0 0  0 0 0  0 0 0  0 0 0  0 0 0
0 0 0  0 0 0  0 0 0  0 0 0  0 0 0  0 0 0
0 0 0  0 0 0  0 0 0  0 0 0  0 0 0  0 0 0
0 0 0  0 0 0  0 0 0  0 0 0  0 0 0  0 0 0
0 0 0  0 0 0  0 0 0  0 0 0  0 0 0  0 0 0
0 0 0  0 0 0  0 0 0  0 0 0  0 0 0  0 0 0
0 0 0  0 0 0  0 0 0  0 0 0  0 0 0  0 0 0
0 0 0  0 0 0  0 0 0  0 0 0  0 0 0  0 0 0
0 0 0  0 0 0  0 0 0  0 0 0  0 0 0  0 0 0
0 0 0  0 0 0  0 0 0  0 0 0  0 0 0  0 0 0
0 0 0  0 0 0  0 0 0  0 0 0  0 0 0  0 0 0
0 0 0  0 0 0  0 0 0  0 0 0  0 0 0  0 0 0
0 0 0  0 0 0  0 0 0  0 0 0  0 0 0  0 0 0
0 0 0  0 0 0  0 0 0  0 0 0  0 0 0  0 0 0
0 0 0  0 0 0  0 0 0  0 0 0  0 0 0  0 0 0
0 0 0  0 0 0  0 0 0  0 0 0  0 0 0  0 0 0
0 0 0  0 0 0  0 0 0  0 0 0  0 0 0  0 0 0
0 0 0  0 0 0  0 0 0  0 0 0  0 0 0  0 0 0
0 0 0  0 0 0  0 0 0  0 0 0  0 0 0  0 0 0
0 0 0  0 0 0  0 0 0  0 0 0  0 0 0  0 0 0
0 0 0  0 0 0  0 0 0  0 0 0  0 0 0  0 0 0
0 0 0  0 0 0  0 0 0  0 0 0  0 0 0  0 0 0
0 0 0  0 0 0  0 0 0  0 0 0  0 0 0  0 0 0
0 0 0  0 0 0  0 0 0  0 0 0  0 0 0  0 0 0
0 0 0  0 0 0  0 0 0  0 0 0  0 0 0  0 0 0
0 0 0  0 0 0  0 0 0  0 0 0  0 0 0  0 0 0
0 0 0  0 0 0  0 0 0  0 0 0  0 0 0  0 0 0
0 0 0  0 0 0  0 0 0  0 0 0  0 0 0  0 0 0
0 0 0  0 0 0  0 0 0  0 0 0  0 0 0  0 0 0
0 0 0  0 0 0  0 0 0  0 0 0  0 0 0  0 0 0
0 0 0  0 0 0  0 0 0  0 0 0  0 0 0  0 0 0
0 0 0  0 0 0  0 0 0  0 0 0  0 0 0  0 0 0
0 0 0  0 0 0  0 0 0  0 0 0  0 0 0  0 0 0
0 0 0  0 0 0  0 0 0  0 0 0  0 0 0  0 0 0
0 0 0  0 0 0  0 0 0  0 0 0  0 0 0  0 0 0
0 0 0  0 0 0  0 0 0  0 0 0  0 0 0  0 0 0
0 0 0  0 0 0  0 0 0  0 0 0  0 0 0  0 0 0
0 0 0  0 0 0  0 0 0  0 0 0  0 0 0  0 0 0
0 0 0  0 0 0  0 0 0  0 0 0  0 0 0  0 0 0
0 0 0  0 0 0  0 0 0  0 0 0  0 0 0  0 0 0
0 0 0  0 0 0  0 0 0  0 0 0  0 0 0  0 0 0
0 0 0  0 0 0  0 0 0  0 0 0  0 0 0  0 0 0
0 0 0  0 0 0  0 0 0  0 0 0  0 0 0  0 0 0
0 0 0  0 0 0  0 0 0  0 0 0  0 0 0  0 0 0
0 0 0  0 0 0  0 0 0  0 0 0  0 0 0  0 0 0
0 0 0  0 0 0  0 0 0  0 0 0  0 0 0  0 0 0
0 0 0  0 0 0  0 0 0  0 0 0  0 0 0  0 0 0
0 0 0  0 0 0  0 0 0  0 0 0  0 0 0  0 0 0
0 0 0  0 0 0  0 0 0  0 0 0  0 0 0  0 0 0
0 0 0  0 0 0  0 0 0  0 0 0  0 0 0  0 0 0
0 0 0  0 0 0  0 0 0  0 0 0  0 0 0  0 0 0
0 0 0  0 0 0  0 0 0  0 0 0  0 0 0  0 0 0
0 0 0  0 0 0  0 0 0  0 0 0  0 0 0  0 0 0
0 0 0  0 0 0  0 0 0  0 0 0  0 0 0  0 0 0
0 0 0  0 0 0  0 0 0  0 0 0  0 0 0  0 0 0
0 0 0  0 0 0  0 0 0  0 0 0  0 0 0  0 0 0
0 0 0  0 0 0  0 0 0  0 0 0
0 0 0  0 0 0  16 39 74  33 81 153  33 81 153  33 81 153
33 81 153  33 81 153  33 81 153  33 81 153  33 81 153  33 81 153
33 81 153  33 81 153  33 81 153  33 81 153  33 81 153  33 81 153
33 81 153  33 81 153  33 81 153  33 81 153  33 81 153  33 81 153
33 81 153  31 76 144  7 17 31  0 0 0  0 0 0  0 0 0
0 0 0  0 0 0  0 0 0  0 0 0  0 0 0  0 0 0
0 0 0  0 0 0  0 0 0  0 0 0  0 0 0  0 0 0
0 0 0  0 0 0  3 8 14  14 33 63  26 63 119  32 79 149
33 81 153  33 81 153  33 81 153  33 81 153  33 81 153  33 81 153
33 81 153  33 81 153  33 81 153  33 81 153  33 81 153  33 81 153
33 81 153  33 81 153  33 81 153  33 81 153  33 81 153  33 81 153
33 81 153  33 81 153  33 81 153  31 75 142  22 54 101  9 23 44
1 3 5  0 0 0  0 0 0  0 0 0  0 0 0  0 0 0
0 0 0  0 0 0  0 0 0  0 0 0  0 0 0  0 0 0
0 0 0  0 0 0  0 0 0  0 0 0  0 0 0  0 0 0
6 15 28  31 75 142  33 81 153  33 81 153  33 81 153  33 81 153
33 81 153  33 81 153  33 81 153  33 81 153  33 81 153  33 81 153
33 81 153  33 81 153  33 81 153  33 81 153  33 81 153  33 81 153
33 81 153  33 81 153  33 81 153  33 81 153  33 81 153  33 81 153
17 41 78  0 0 0  0 0 0  0 0 0  0 0 0  0 0 0
0 0 0  0 0 0  0 0 0  0 0 0  0 0 0  0 0 0
0 0 0  0 0 0  0 0 0  0 0 0  0 0 0  0 0 0
0 0 0  0 0 0  0 0 0  0 0 0  0 0 0  0 0 0
0 0 0  0 0 0  0 0 0  0 0 0  0 0 0  0 0 0
0 0 0  0 0 0  0 0 0  0 0 0  0 0 0  0 0 0
0 0 0  0 0 0  0 0 0  0 0 0  0 0 0  0 0 0
0 0 0  0 0 0  0 0 0  0 0 0  0 0 0  1 1 2
23 57 107  33 81 153  33 81 153  33 81 153  33 81 153  33 81 153
33 81 153  33 81 153  33 81 153  33 81 153  33 81 153  33 81 153
33 81 153  33 81 153  33 81 153  33 81 153  33 81 153  33 81 153
33 81 153  33 81 153  33 81 153  33 81 153  33 81 153  17 41 77
0 0 0  0 0 0  0 0 0  0 0 0  0 0 0  0 0 0
0 0 0  0 0 0  0 0 0  0 0 0  0 0 0  0 0 0
0 0 0  0 0 0  0 0 0  0 0 0  0 0 0  0 0 0
0 0 0  0 0 0  0 0 0  0 0 0  0 0 0  0 0 0
0 0 0  0 0 0  0 0 0  0 0 0  0 0 0  0 0 0
0 0 0  0 0 0  0 0 0  0 0 0  0 0 0  0 0 0
0 0 0  0 0 0  0 0 0  0 0 0  0 0 0  0 0 0
0 0 0  0 0 0  0 0 0  0 0 0  0 0 0  0 0 0
0 0 0  0 0 0  0 0 0  0 0 0  0 0 0  0 0 0
0 0 0  0 0 0  6 14 27  31 75 142  33 81 153  33 81 153
33 81 153  33 81 153  33 81 153  33 81 153  33 81 153  33 81 153
33 81 153  33 81 153  33 81 153  33 81 153  33 81 153  33 81 153
33 81 153  33 81 153  33 81 153  33 81 153  33 81 153  33 81 153
33 81 153  31 77 145  7 17 32  0 0 0  0 0 0  0 0 0
0 0 0  0 0 0  0 0 0  0 0 0  0 0 0  0 0 0
0 0 0  0 0 0  0 0 0  0 0 0  0 0 0  0 0 0
2 5 9  26 64 121  33 81 153  33 81 153  33 81 153  33 81 153
33 81 153  33 81 153  33 81 153  33 81 153  33 81 153  33 81 153
33 81 153  33 81 153  33 81 153  33 81 153  33 81 153  33 81 153
33 81 153  33 81 153  33 81 153  33 81 153  33 81 153  29 72 136
4 11 20  0 0 0  0 0 0  0 0 0  0 0 0  0 0 0
0 0 0  0 0 0  0 0 0  0 0 0  0 0 0  0 0 0
0 0 0  0 0 0  0 0 0  0 0 0  0 0 0  0 0 0
0 0 0  0 0 0  0 0 0  0 0 0  0 0 0  0 0 0
0 0 0  0 0 0  0 0 0  0 0 0  0 0 0  0 0 0
0 0 0  0 0 0  0 0 0  0 0 0  0 0 0  0 0 0
0 0 0  0 0 0  0 0 0  0 0 0  0 0 0  0 0 0
0 0 0  0 0 0  0 0 0  0 0 0  6 15 28  29 72 136
33 81 153  33 81 153  33 81 153  33 81 153  33 81 153  33 81 153
33 81 153  33 81 153  33 81 153  33 81 153  33 81 153  33 81 153
33 81 153  33 81 153  33 81 153  33 81 153  33 81 153  33 81 153
33 81 153  33 81 153  33 81 153  33 81 153  33 81 153  33 81 153
33 81 153  22 54 102  1 2 3  0 0 0  0 0 0  0 0 0
0 0 0  0 0 0  0 0 0  0 0 0  0 0 0  0 0 0
0 0 0  0 0 0  0 0 0  0 0 0  0 0 0  0 0 0
0 0 0  0 0 0  0 0 0  0 0 0  0 0 0  0 0 0
0 0 0  0 0 0  0 0 0  0 0 0  0 0 0  0 0 0
0 0 0  0 0 0  0 0 0  0 0 0  0 0 0  0 0 0
0 0 0  0 0 0  0 0 0  0 0 0  0 0 0  0 0 0
0 0 0  0 0 0  0 0 0  0 0 0  0 0 0  0 0 0
0 0 0  0 0 0  0 0 0  0 0 0  0 0 0  0 0 0
0 0 0  0 0 0  0 0 0  0 0 0  0 0 0  0 0 0
0 0 0  0 0 0  0 0 0  0 0 0  0 0 0  0 0 0
0 0 0  0 0 0  0 0 0  0 0 0  0 0 0  0 0 0
0 0 0  0 0 0  0 0 0  0 0 0  0 0 0  0 0 0
0 0 0  0 0 0  0 0 0  0 0 0  0 0 0  0 0 0
0 0 0  0 0 0  0 0 0  0 0 0  0 0 0  0 0 0
0 0 0  0 0 0  0 0 0  0 0 0  0 0 0  0 0 0
0 0 0  0 0 0  0 0 0  0 0 0  0 0 0  0 0 0
0 0 0  0 0 0  0 0 0  0 0 0  0 0 0  0 0 0
0 0 0  0 0 0  0 0 0  0 0 0  0 0 0  0 0 0
0 0 0  0 0 0  0 0 0  0 0 0  0 0 0  0 0 0
0 0 0  0 0 0  0 0 0  0 0 0  0 0 0  0 0 0
0 0 0  0 0 0  0 0 0  0 0 0  0 0 0  0 0 0
0 0 0  0 0 0  0 0 0  0 0 0  0 0 0  0 0 0
0 0 0  0 0 0  0 0 0  0 0 0  0 0 0  0 0 0
0 0 0  0 0 0  0 0 0  0 0 0  0 0 0  0 0 0
0 0 0  0 0 0  0 0 0  0 0 0  0 0 0  0 0 0
0 0 0  0 0 0  0 0 0  0 0 0  0 0 0  0 0 0
0 0 0  0 0 0  0 0 0  0 0 0  0 0 0  0 0 0
0 0 0  0 0 0  0 0 0  0 0 0  0 0 0  0 0 0
0 0 0  0 0 0  0 0 0  0 0 0  0 0 0  0 0 0
0 0 0  0 0 0  0 0 0  0 0 0  0 0 0  0 0 0
0 0 0  0 0 0  0 0 0  0 0 0  0 0 0  0 0 0
0 0 0  0 0 0  0 0 0  0 0 0  0 0 0  0 0 0
0 0 0  0 0 0  0 0 0  0 0 0  0 0 0  0 0 0
0 0 0  0 0 0  0 0 0  0 0 0  0 0 0  0 0 0
0 0 0  0 0 0  0 0 0  0 0 0  0 0 0  0 0 0
0 0 0  0 0 0  0 0 0  0 0 0  0 0 0  0 0 0
0 0 0  0 0 0  0 0 0  0 0 0  0 0 0  0 0 0
0 0 0  0 0 0  0 0 0  0 0 0  0 0 0  0 0 0
0 0 0  0 0 0  0 0 0  0 0 0  0 0 0  0 0 0
0 0 0  0 0 0  0 0 0  0 0 0  0 0 0  0 0 0
0 0 0  0 0 0  0 0 0  0 0 0  0 0 0  0 0 0
0 0 0  0 0 0  0 0 0  0 0 0  0 0 0  0 0 0
0 0 0  0 0 0  0 0 0  0 0 0  0 0 0  0 0 0
0 0 0  0 0 0  0 0 0  0 0 0  0 0 0  0 0 0
0 0 0  0 0 0  0 0 0  0 0 0  0 0 0  0 0 0
0 0 0  0 0 0  0 0 0  0 0 0  0 0 0  0 0 0
0 0 0  0 0 0  0 0 0  0 0 0  0 0 0  0 0 0
0 0 0  0 0 0  0 0 0  0 0 0  0 0 0  0 0 0
0 0 0  0 0 0  0 0 0  0 0 0  0 0 0  0 0 0
0 0 0  0 0 0  0 0 0  0 0 0  0 0 0  0 0 0
0 0 0  0 0 0  0 0 0  0 0 0  0 0 0  0 0 0
0 0 0  0 0 0  0 0 0  0 0 0  0 0 0  0 0 0
0 0 0  0 0 0  0 0 0  0 0 0  0 0 0  0 0 0
0 0 0  0 0 0  0 0 0  0 0 0  0 0 0  0 0 0
0 0 0  0 0 0  0 0 0  0 0 0  0 0 0  0 0 0
0 0 0  0 0 0  0 0 0  0 0 0  0 0 0  0 0 0
0 0 0  0 0 0  0 0 0  0 0 0  0 0 0  0 0 0
0 0 0  0 0 0  0 0 0  0 0 0  0 0 0  0 0 0
0 0 0  0 0 0  0 0 0  0 0 0  0 0 0  0 0 0
0 0 0  0 0 0  0 0 0  0 0 0  0 0 0  0 0 0
0 0 0  0 0 0  0 0 0  0 0 0
0 0 0  0 0 0  19 45 86  33 81 153  33 81 153  33 81 153
33 81 153  33 81 153  33 81 153  33 81 153  33 81 153  33 81 153
33 81 153  33 81 153  33 81 153  33 81 153  33 81 153  33 81 153
33 81 153  33 81 153  33 81 153  33 81 153  33 81 153  33 81 153
33 81 153  30 74 139  5 13 24  0 0 0  0 0 0  0 0 0
0 0 0  0 0 0  0 0 0  0 0 0  0 0 0  0 0 0
0 0 0  0 0 0  0 0 0  0 0 0  0 0 0  0 0 0
0 0 0  0 0 0  0 0 0  0 0 0  2 5 10  10 25 47
20 50 95  28 70 132  32 79 150  33 81 153  33 81 153  33 81 153
33 81 153  33 81 153  33 81 153  33 81 153  33 81 153  33 81 153
33 81 153  33 81 153  33 81 153  33 81 153  33 81 153  33 81 153
31 77 146  26 64 121  17 42 79  7 17 32  1 2 4  0 0 0
0 0 0  0 0 0  0 0 0  0 0 0  0 0 0  0 0 0
0 0 0  0 0 0  0 0 0  0 0 0  0 0 0  0 0 0
0 0 0  0 0 0  0 0 0  0 0 0  0 0 0  0 0 0
5 11 21  30 72 137  33 81 153  33 81 153  33 81 153  33 81 153
33 81 153  33 81 153  33 81 153  33 81 153  33 81 153  33 81 153
33 81 153  33 81 153  33 81 153  33 81 153  33 81 153  33 81 153
33 81 153  33 81 153  33 81 153  33 81 153  33 81 153  33 81 153
19 48 90  0 0 0  0 0 0  0 0 0  0 0 0  0 0 0
0 0 0  0 0 0  0 0 0  0 0 0  0 0 0  0 0 0
0 0 0  0 0 0  0 0 0  0 0 0  0 0 0  0 0 0
0 0 0  0 0 0  0 0 0  0 0 0  0 0 0  0 0 0
0 0 0  0 0 0  0 0 0  0 0 0  0 0 0  0 0 0
0 0 0  0 0 0  0 0 0  0 0 0  0 0 0  0 0 0
0 0 0  0 0 0  0 0 0  0 0 0  0 0 0  0 0 0
0 0 0  0 0 0  0 0 0  0 0 0  0 0 0  1 1 2
23 57 107  33 81 153  33 81 153  33 81 153  33 81 153  33 81 153
33 81 153  33 81 153  33 81 153  33 81 153  33 81 153  33 81 153
33 81 153  33 81 153  33 81 153  33 81 153  33 81 153  33 81 153
33 81 153  33 81 153  33 81 153  33 81 153  33 81 153  17 41 77
0 0 0  0 0 0  0 0 0  0 0 0  0 0 0  0 0 0
0 0 0  0 0 0  0 0 0  0 0 0  0 0 0  0 0 0
0 0 0  0 0 0  0 0 0  0 0 0  0 0 0  0 0 0
0 0 0  0 0 0  0 0 0  0 0 0  0 0 0  0 0 0
0 0 0  0 0 0  0 0 0  0 0 0  0 0 0  0 0 0
0 0 0  0 0 0  0 0 0  0 0 0  0 0 0  0 0 0
0 0 0  0 0 0  0 0 0  0 0 0  0 0 0  0 0 0
0 0 0  0 0 0  0 0 0  0 0 0  0 0 0  0 0 0
0 0 0  0 0 0  0 0 0  0 0 0  0 0 0  0 0 0
0 0 0  0 0 0  6 14 27  31 75 142  33 81 153  33 81 153
33 81 153  33 81 153  33 81 153  33 81 153  33 81 153  33 81 153
33 81 153  33 81 153  33 81 153  33 81 153  33 81 153  33 81 153
33 81 153  33 81 153  33 81 153  33 81 153  33 81 153  33 81 153
33 81 153  31 77 145  7 17 32  0 0 0  0 0 0  0 0 0
0 0 0  0 0 0  0 0 0  0 0 0  0 0 0  0 0 0
0 0 0  0 0 0  0 0 0  0 0 0  0 0 0  0 0 0
2 5 9  26 64 121  33 81 153  33 81 153  33 81 153  33 81 153
33 81 153  33 81 153  33 81 153  33 81 153  33 81 153  33 81 153
33 81 153  33 81 153  33 81 153  33 81 153  33 81 153  33 81 153
33 81 153  33 81 153  33 81 153  33 81 153  33 81 153  29 72 136
4 11 20  0 0 0  0 0 0  0 0 0  0 0 0  0 0 0
0 0 0  0 0 0  0 0 0  0 0 0  0 0 0  0 0 0
0 0 0  0 0 0  0 0 0  0 0 0  0 0 0  0 0 0
0 0 0  0 0 0  0 0 0  0 0 0  0 0 0  0 0 0
0 0 0  0 0 0  0 0 0  0 0 0  0 0 0  0 0 0
0 0 0  0 0 0  0 0 0  0 0 0  0 0 0  0 0 0
0 0 0  0 0 0  0 0 0  0 0 0  0 0 0  0 0 0
0 0 0  0 0 0  0 0 0  0 0 0  0 0 0  17 43 81
33 81 153  33 81 153  33 81 153  33 81 153  33 81 153  33 81 153
33 81 153  33 81 153  33 81 153  33 81 153  33 81 153  33 81 153
33 81 153  33 81 153  33 81 153  33 81 153  33 81 153  33 81 153
33 81 153  33 81 153  33 81 153  33 81 153  33 81 153  33 81 153
33 81 153  30 74 139  6 14 27  0 0 0  0 0 0  0 0 0
0 0 0  0 0 0  0 0 0  0 0 0  0 0 0  0 0 0
0 0 0  0 0 0  0 0 0  0 0 0  0 0 0  0 0 0
0 0 0  0 0 0  0 0 0  0 0 0  0 0 0  0 0 0
0 0 0  0 0 0  0 0 0  0 0 0  0 0 0  0 0 0
0 0 0  0 0 0  0 0 0  0 0 0  0 0 0  0 0 0
0 0 0  0 0 0  0 0 0  0 0 0  0 0 0  0 0 0
0 0 0  0 0 0  0 0 0  0 0 0  0 0 0  0 0 0
0 0 0  0 0 0  0 0 0  0 0 0  0 0 0  0 0 0
0 0 0  0 0 0  0 0 0  0 0 0  0 0 0  0 0 0
0 0 0  0 0 0  0 0 0  0 0 0  0 0 0  0 0 0
0 0 0  0 0 0  0 0 0  0 0 0  0 0 0  0 0 0
0 0 0  0 0 0  0 0 0  0 0 0  0 0 0  0 0 0
0 0 0  0 0 0  0 0 0  0 0 0  0 0 0  0 0 0
0 0 0  0 0 0  0 0 0  0 0 0  0 0 0  0 0 0
0 0 0  0 0 0  0 0 0  0 1 2  5 12 23  4 10 20
0 0 1  0 0 0  0 0 0  0 0 0  0 0 0  0 0 0
0 0 0  0 0 0  0 0 0  0 0 0  0 0 0  0 0 0
0 0 0  0 0 0  0 0 0  0 0 0  0 0 0  0 0 0
0 0 0  0 0 0  0 0 0  0 0 0  0 0 0  0 0 0
0 0 0  0 0 0  0 0 0  0 0 0  0 0 0  0 0 0
0 0 0  0 0 0  0 0 0  0 0 0  0 0 0  0 0 0
0 0 0  0 0 0  0 0 0  0 0 0  0 0 0  0 0 0
0 0 0  0 0 0  0 0 0  0 0 0  0 0 0  0 0 0
0 0 0  0 0 0  0 0 0  0 0 0  0 0 0  0 0 0
0 0 0  0 0 0  0 0 0  0 0 0  0 0 0  0 0 0
0 0 0  0 0 0  0 0 0  0 0 0  0 0 0  0 0 0
0 0 0  0 0 0  0 0 0  0 0 0  0 0 0  0 0 0
0 0 0  0 0 0  0 0 0  0 0 0  0 0 0  0 0 0
0 0 0  0 0 0  0 0 0  0 0 0  0 0 0  0 0 0
0 0 0  0 0 0  0 0 0  0 0 0  0 0 0  0 0 0
0 0 0  0 0 0  0 0 0  0 0 0  0 0 0  0 0 0
0 0 0  0 0 0  0 0 0  0 0 0  0 0 0  0 0 0
0 0 0  0 0 0  0 0 0  0 0 0  0 0 0  0 0 0
0 0 0  0 0 0  0 0 0  0 0 0  0 0 0  0 0 0
0 0 0  0 0 0  0 0 0  0 0 0  0 0 0  0 0 0
0 0 0  0 0 0  0 0 0  0 0 0  0 0 0  0 0 0
0 0 0  0 0 0  0 0 0  0 0 0  0 0 0  0 0 0
0 0 0  0 0 0  0 0 0  0 0 0  0 0 0  0 0 0
0 0 0  0 0 0  0 0 0  0 0 0  0 0 0  0 0 0
0 0 0  0 0 0  0 0 0  0 0 0  0 0 0  0 0 0
0 0 0  0 0 0  0 0 0  0 0 0  0 0 0  0 0 0
0 0 0  0 0 1  3 7 13  2 4 8  0 0 0  0 0 0
0 0 0  0 0 0  0 0 0  0 0 0  0 0 0  0 0 0
0 0 0  0 0 0  0 0 0  0 0 0  0 0 0  0 0 0
0 0 0  0 0 0  0 0 0  0 0 0  0 0 0  0 0 0
0 0 0  0 0 0  0 0 0  0 0 0  0 0 0  0 0 0
0 0 0  0 0 0  0 0 0  0 0 0  0 0 0  0 0 0
0 0 0  0 0 0  0 0 0  0 0 0  0 0 0  0 0 0
0 0 0  0 0 0  0 0 0  0 0 0  0 0 0  0 0 0
0 0 0  0 0 0  0 0 0  0 0 0  0 0 0  0 0 0
0 0 0  0 0 0  0 0 0  0 0 0  0 0 0  0 0 0
0 0 0  0 0 0  0 0 0  0 0 0  0 0 0  0 0 0
0 0 0  0 0 0  0 0 0  0 0 0  0 0 0  0 0 0
0 0 0  0 0 0  0 0 0  0 0 0  0 0 0  0 0 0
0 0 0  0 0 0  0 0 0  0 0 0  0 0 0  0 0 0
0 0 0  0 0 0  0 0 0  0 0 0  0 0 0  0 0 0
0 0 0  0 0 0  0 0 0  0 0 0  0 0 0  0 0 0
0 0 0  0 0 0  0 0 0  0 0 0  0 0 0  0 0 0
0 0 0  0 0 0  0 0 0  0 0 0  0 0 0  0 0 0
0 0 0  0 0 0  0 0 0  0 0 0  0 0 0  0 0 0
0 0 0  4 10 18  8 19 37  3 9 16
0 0 0  0 0 1  21 52 98  33 81 153  33 81 153  33 81 153
33 81 153  33 81 153  33 81 153  33 81 153  33 81 153  33 81 153
33 81 153  33 81 153  33 81 153  33 81 153  33 81 153  33 81 153
33 81 153  33 81 153  33 81 153  33 81 153  33 81 153  33 81 153
33 81 153  29 71 134  4 10 18  0 0 0  0 0 0  0 0 0
0 0 0  0 0 0  0 0 0  0 0 0  0 0 0  0 0 0
0 0 0  0 0 0  0 0 0  0 0 0  0 0 0  0 0 0
0 0 0  0 0 0  0 0 0  0 0 0  0 0 0  0 0 0
0 1 1  4 10 18  10 26 49  18 44 83  24 59 112  28 70 132
31 76 143  32 79 149  33 81 152  33 81 153  33 81 153  33 81 153
33 80 152  32 78 148  30 74 140  27 67 126  22 55 103  15 38 71
8 20 37  2 5 10  0 0 0  0 0 0  0 0 0  0 0 0
0 0 0  0 0 0  0 0 0  0 0 0  0 0 0  0 0 0
0 0 0  0 0 0  0 0 0  0 0 0  0 0 0  0 0 0
0 0 0  0 0 0  0 0 0  0 0 0  0 0 0  0 0 0
3 8 16  28 69 131  33 81 153  33 81 153  33 81 153  33 81 153
33 81 153  33 81 153  33 81 153  33 81 153  33 81 153  33 81 153
33 81 153  33 81 153  33 81 153  33 81 153  33 81 153  33 81 153
33 81 153  33 81 153  33 81 153  33 81 153  33 81 153  33 81 153
22 54 102  0 1 2  0 0 0  0 0 0  0 0 0  0 0 0
0 0 0  0 0 0  0 0 0  0 0 0  0 0 0  0 0 0
0 0 0  0 0 0  0 0 0  0 0 0  0 0 0  0 0 0
0 0 0  0 0 0  0 0 0  0 0 0  0 0 0  0 0 0
0 0 0  0 0 0  0 0 0  0 0 0  0 0 0  0 0 0
0 0 0  0 0 0  0 0 0  0 0 0  0 0 0  0 0 0
0 0 0  0 0 0  0 0 0  0 0 0  0 0 0  0 0 0
0 0 0  0 0 0  0 0 0  0 0 0  0 0 0  1 1 2
23 57 107  33 81 153  33 81 153  33 81 153  33 81 153  33 81 153
33 81 153  33 81 153  33 81 153  33 81 153  33 81 153  33 81 153
33 81 153  33 81 153  33 81 153  33 81 153  33 81 153  33 81 153
33 81 153  33 81 153  33 81 153  33 81 153  33 81 153  17 41 77
0 0 0  0 0 0  0 0 0  0 0 0  0 0 0  0 0 0
0 0 0  0 0 0  0 0 0  0 0 0  0 0 0  0 0 0
0 0 0  0 0 0  0 0 0  0 0 0  0 0 0  0 0 0
0 0 0  0 0 0  0 0 0  0 0 0  0 0 0  0 0 0
0 0 0  0 0 0  0 0 0  0 0 0  0 0 0  0 0 0
0 0 0  0 0 0  0 0 0  0 0 0  0 0 0  0 0 0
0 0 0  0 0 0  0 0 0  0 0 0  0 0 0  0 0 0
0 0 0  0 0 0  0 0 0  0 0 0  0 0 0  0 0 0
0 0 0  0 0 0  0 0 0  0 0 0  0 0 0  0 0 0
0 0 0  0 0 0  6 14 27  31 75 142  33 81 153  33 81 153
33 81 153  33 81 153  33 81 153  33 81 153  33 81 153  33 81 153
33 81 153  33 81 153  33 81 153  33 81 153  33 81 153  33 81 153
33 81 153  33 81 153  33 81 153  33 81 153  33 81 153  33 81 153
33 81 153  31 77 145  7 17 32  0 0 0  0 0 0  0 0 0
0 0 0  0 0 0  0 0 0  0 0 0  0 0 0  0 0 0
0 0 0  0 0 0  0 0 0  0 0 0  0 0 0  0 0 0
2 5 9  26 64 121  33 81 153  33 81 153  33 81 153  33 81 153
33 81 153  33 81 153  33 81 153  33 81 153  33 81 153  33 81 153
33 81 153  33 81 153  33 81 153  33 81 153  33 81 153  33 81 153
33 81 153  33 81 153  33 81 153  33 81 153  33 81 153  29 72 136
4 11 20  0 0 0  0 0 0  0 0 0  0 0 0  0 0 0
0 0 0  0 0 0  0 0 0  0 0 0  0 0 0  0 0 0
0 0 0  0 0 0  0 0 0  0 0 0  0 0 0  0 0 0
0 0 0  0 0 0  0 0 0  0 0 0  0 0 0  0 0 0
0 0 0  0 0 0  0 0 0  0 0 0  0 0 0  0 0 0
0 0 0  0 0 0  0 0 0  0 0 0  0 0 0  0 0 0
0 0 0  0 0 0  0 0 0  0 0 0  0 0 0  0 0 0
0 0 0  0 0 0  0 0 0  0 0 0  0 0 0  6 14 27
30 73 138  33 81 153  33 81 153  33 81 153  33 81 153  33 81 153
33 81 153  33 81 153  33 81 153  33 81 153  33 81 153  33 81 153
33 81 153  33 81 153  33 81 153  33 81 153  33 81 153  33 81 153
33 81 153  33 81 153  33 81 153  33 81 153  33 81 153  33 81 153
33 81 153  33 81 153  14 34 64  0 0 0  0 0 0  0 0 0
0 0 0  0 0 0  0 0 0  0 0 0  0 0 0  0 0 0
0 0 0  0 0 0  0 0 0  0 0 0  0 0 0  0 0 0
0 0 0  0 0 0  0 0 0  0 0 0  0 0 0  0 0 0
0 0 0  0 0 0  0 0 0  0 0 0  0 0 0  0 0 0
0 0 0  0 0 0  0 0 0  0 0 0  0 0 0  0 0 0
0 0 0  0 0 0  0 0 0  0 0 0  0 0 0  0 0 0
0 0 0  0 0 0  0 0 0  0 0 0  0 0 0  0 0 0
0 0 0  0 0 0  1 2 4  1 1 2  0 0 0  0 0 0
0 0 0  0 0 0  0 0 0  0 0 0  0 0 0  0 0 0
0 0 0  0 0 0  3 7 14  3 8 15  0 0 0  0 0 0
0 0 0  0 0 0  0 0 0  0 0 0  0 0 0  0 0 0
0 0 0  0 0 0  0 0 0  0 0 0  0 0 0  0 0 0
0 0 0  0 0 0  0 0 0  0 0 0  0 0 0  0 0 0
0 0 0  0 0 0  0 0 0  0 0 0  0 0 0  0 0 0
0 0 0  0 0 0  0 0 0  11 27 51  30 73 137  28 69 130
7 18 34  0 0 0  0 0 0  0 0 0  0 0 0  0 0 0
0 0 0  0 0 0  0 0 0  0 0 0  0 0 0  0 0 0
0 0 0  0 0 0  0 0 0  0 0 0  0 0 0  0 0 0
0 0 0  0 0 0  0 0 0  0 0 0  0 0 0  0 0 0
0 0 0  0 0 0  0 0 0  0 0 0  0 0 0  0 0 0
0 0 0  0 0 0  0 0 0  0 0 0  0 0 0  0 0 0
0 0 0  0 0 0  0 0 0  0 0 0  0 0 0  0 1 1
1 3 6  0 0 0  0 0 0  0 0 0  0 0 0  0 0 0
0 0 0  0 0 0  0 0 0  0 0 0  0 0 0  0 0 0
0 0 0  0 0 0  0 0 0  1 3 5  0 1 1  0 0 0
0 0 0  0 0 0  0 0 0  0 0 0  0 0 0  0 0 0
0 0 0  0 0 0  0 0 0  0 0 0  0 0 0  0 0 0
0 0 0  0 0 0  0 0 0  0 0 0  0 0 0  0 0 0
0 0 0  0 0 0  0 0 0  0 0 0  0 0 0  0 0 0
0 0 0  0 0 0  0 0 0  0 0 0  0 0 0  0 0 0
0 0 0  0 0 0  0 0 0  0 0 0  0 0 0  0 0 0
0 0 0  0 0 0  0 0 0  0 0 0  0 0 0  0 0 0
0 0 0  0 0 0  0 0 0  0 0 0  0 0 0  0 0 0
0 0 0  0 0 0  0 0 0  0 0 0  0 0 0  0 0 0
0 0 0  0 0 0  0 0 0  0 0 0  0 0 0  0 0 0
0 0 0  0 0 0  0 0 0  0 0 0  0 0 0  0 0 0
0 0 0  0 0 0  0 0 0  0 0 0  0 0 0  0 0 0
0 0 0  0 0 0  0 0 0  0 0 0  0 0 0  0 0 0
0 0 0  0 0 0  0 0 0  0 0 0  0 0 0  0 0 0
0 0 0  0 0 0  0 0 0  0 0 0  0 0 0  0 0 0
0 0 0  0 0 0  0 0 0  0 0 0  0 0 0  0 0 0
0 0 0  10 25 47  28 68 128  23 56 106  3 7 14  0 0 0
0 0 0  0 0 0  0 0 0  0 0 0  0 0 0  0 0 0
0 0 0  0 0 0  0 0 0  0 0 0  0 0 0  0 0 0
0 0 0  0 0 0  0 0 0  0 0 0  0 0 0  0 0 0
0 0 0  0 0 0  0 0 0  0 0 0  0 0 0  0 0 0
0 0 0  0 0 0  0 0 0  0 0 0  0 0 0  0 0 0
0 0 0  0 0 0  0 0 0  0 0 0  0 0 0  0 0 0
0 0 0  0 0 0  0 0 0  0 0 0  0 0 0  0 0 0
0 0 0  0 0 0  0 0 0  0 0 0  0 0 0  0 0 0
0 0 0  1 3 5  5 12 23  5 11 22  3 8 15  2 5 10
1 3 5  0 0 1  0 0 0  0 0 0  0 0 0  0 0 0
0 0 0  0 0 0  0 0 0  0 0 0  0 0 0  0 0 0
0 0 0  0 0 0  0 0 0  0 0 0  0 0 0  0 0 0
0 0 0  0 0 0  0 0 0  0 0 0  0 0 0  0 0 0
0 0 0  0 0 0  0 0 0  0 0 0  0 0 0  0 0 0
0 0 0  0 0 0  0 0 0  0 0 0  0 0 0  0 0 0
0 0 0  0 0 0  0 0 0  0 0 0  0 0 0  0 0 0
0 0 0  0 0 0  0 0 0  0 0 0  0 0 0  0 0 0
0 0 0  0 0 0  0 0 0  0 0 0  0 0 0  0 0 0
3 7 13  25 61 116  32 78 148  25 62 118
0 0 0  1 2 4  24 58 110  33 81 153  33 81 153  33 81 153
33 81 153  33 81 153  33 81 153  33 81 153  33 81 153  33 81 153
33 81 153  33 81 153  33 81 153  33 81 153  33 81 153  33 81 153
33 81 153  33 81 153  33 81 153  33 81 153  33 81 153  33 81 153
33 81 153  27 67 127  3 7 13  0 0 0  0 0 0  0 0 0
0 0 0  0 0 0  0 0 0  0 0 0  0 0 0  0 0 0
0 0 0  0 0 0  0 0 0  0 0 0  0 0 0  0 0 0
0 0 0  0 0 0  0 0 0  0 0 0  0 0 0  0 0 0
0 0 0  0 0 0  0 0 0  0 0 0  1 3 5  4 9 17
7 17 31  10 24 44  12 29 55  13 32 61  13 33 62  13 31 59
11 27 52  9 21 40  6 14 26  3 7 13  1 1 2  0 0 0
0 0 0  0 0 0  0 0 0  0 0 0  0 0 0  0 0 0
0 0 0  0 0 0  0 0 0  0 0 0  0 0 0  0 0 0
0 0 0  0 0 0  0 0 0  0 0 0  0 0 0  0 0 0
0 0 0  0 0 0  0 0 0  0 0 0  0 0 0  0 0 0
2 5 10  27 66 124  33 81 153  33 81 153  33 81 153  33 81 153
33 81 153  33 81 153  33 81 153  33 81 153  33 81 153  33 81 153
33 81 153  33 81 153  33 81 153  33 81 153  33 81 153  33 81 153
33 81 153  33 81 153  33 81 153  33 81 153  33 81 153  33 81 153
24 60 113  1 3 5  0 0 0  0 0 0  0 0 0  0 0 0
0 0 0  0 0 0  0 0 0  0 0 0  0 0 0  0 0 0
0 0 0  0 0 0  0 0 0  0 0 0  0 0 0  0 0 0
0 0 0  0 0 0  0 0 0  0 0 0  0 0 0  0 0 0
0 0 0  0 0 0  0 0 0  0 0 0  0 0 0  0 0 0
0 0 0  0 0 0  0 0 0  0 0 0  0 0 0  0 0 0
0 0 0  0 0 0  0 0 0  0 0 0  0 0 0  0 0 0
0 0 0  0 0 0  0 0 0  0 0 0  0 0 0  1 1 2
23 57 107  33 81 153  33 81 153  33 81 153  33 81 153  33 81 153
33 81 153  33 81 153  33 81 153  33 81 153  33 81 153  33 81 153
33 81 153  33 81 153  33 81 153  33 81 153  33 81 153  33 81 153
33 81 153  33 81 153  33 81 153  33 81 153  33 81 153  17 41 77
0 0 0  0 0 0  0 0 0  0 0 0  0 0 0  0 0 0
0 0 0  0 0 0  0 0 0  0 0 0  0 0 0  0 0 0
0 0 0  0 0 0  0 0 0  0 0 0  0 0 0  0 0 0
0 0 0  0 0 0  0 0 0  0 0 0  0 0 0  0 0 0
0 0 0  0 0 0  0 0 0  0 0 0  0 0 0  0 0 0
0 0 0  0 0 0  0 0 0  0 0 0  0 0 0  0 0 0
0 0 0  0 0 0  0 0 0  0 0 0  0 0 0  0 0 0
0 0 0  0 0 0  0 0 0  0 0 0  0 0 0  0 0 0
0 0 0  0 0 0  0 0 0  0 0 0  0 0 0  0 0 0
0 0 0  0 0 0  6 14 27  31 75 142  33 81 153  33 81 153
33 81 153  33 81 153  33 81 153  33 81 153  33 81 153  33 81 153
33 81 153  33 81 153  33 81 153  33 81 153  33 81 153  33 81 153
33 81 153  33 81 153  33 81 153  33 81 153  33 81 153  33 81 153
33 81 153  31 77 145  7 17 32  0 0 0  0 0 0  0 0 0
0 0 0  0 0 0  0 0 0  0 0 0  0 0 0  0 0 0
0 0 0  0 0 0  0 0 0  0 0 0  0 0 0  0 0 0
2 5 9  26 64 121  33 81 153  33 81 153  33 81 153  33 81 153
33 81 153  33 81 153  33 81 153  33 81 153  33 81 153  33 81 153
33 81 153  33 81 153  33 81 153  33 81 153  33 81 153  33 81 153
33 81 153  33 81 153  33 81 153  33 81 153  33 81 153  29 72 136
4 11 20  0 0 0  0 0 0  0 0 0  0 0 0  0 0 0
0 0 0  0 0 0  0 0 0  0 0 0  0 0 0  0 0 0
0 0 0  0 0 0  0 0 0  0 0 0  0 0 0  0 0 0
0 0 0  0 0 0  0 0 0  0 0 0  0 0 0  0 0 0
0 0 0  0 0 0  0 0 0  0 0 0  0 0 0  0 0 0
0 0 0  0 0 0  0 0 0  0 0 0  0 0 0  0 0 0
0 0 0  0 0 0  0 0 0  0 0 0  0 0 0  0 0 0
0 0 0  0 0 0  0 0 0  0 0 0  0 0 0  0 1 2
21 52 99  33 81 153  33 81 153  33 81 153  33 81 153  33 81 153
33 81 153  33 81 153  33 81 153  33 81 153  33 81 153  33 81 153
33 81 153  33 81 153  33 81 153  33 81 153  33 81 153  33 81 153
33 81 153  33 81 153  33 81 153  33 81 153  33 81 153  33 81 153
33 81 153  33 81 153  22 54 101  0 1 2  0 0 0  0 0 0
0 0 0  0 0 0  0 0 0  0 0 0  0 0 0  0 0 0
0 0 0  0 0 0  0 0 0  0 0 0  0 0 0  0 0 0
0 0 0  0 0 0  0 0 0  0 0 0  0 0 0  0 0 0
0 0 0  0 0 0  0 0 0  0 0 0  0 0 0  0 0 0
0 0 0  0 0 0  0 0 0  0 0 0  0 0 0  0 0 0
0 0 0  0 0 0  0 0 0  0 0 0  0 0 0  0 0 0
0 0 0  0 0 0  0 0 0  0 0 0  0 0 0  0 0 0
0 0 0  7 18 34  23 56 106  21 51 96  4 9 17  0 0 0
0 0 0  0 0 0  0 0 0  0 0 0  0 0 0  0 0 0
0 0 0  8 20 37  27 66 124  27 67 127  9 21 40  0 0 0
0 0 0  0 0 0  0 0 0  0 0 0  0 0 0  0 0 0
0 0 0  0 0 0  0 0 0  0 0 0  0 0 0  0 0 0
0 0 0  0 0 0  0 0 0  0 0 0  0 0 0  0 0 0
0 0 0  0 0 0  0 0 0  0 0 0  0 0 0  0 0 0
0 0 0  0 0 0  0 0 0  20 48 91  33 81 153  33 81 153
15 36 68  0 0 0  0 0 0  0 0 0  0 0 0  0 0 0
0 0 0  0 0 0  0 0 0  0 0 0  0 0 0  0 0 0
0 0 0  0 0 0  0 0 0  0 0 0  0 0 0  0 0 0
0 0 0  0 0 0  0 0 0  0 0 0  0 0 0  0 0 0
0 0 0  0 0 0  0 0 0  0 0 0  0 0 0  0 0 0
0 0 0  0 0 0  0 0 0  0 0 0  0 0 0  0 0 0
0 0 0  0 0 0  0 0 0  0 0 0  1 3 7  17 42 79
25 62 116  12 29 54  0 0 0  0 0 0  0 0 0  0 0 0
0 0 0  0 0 0  0 0 0  0 0 0  0 0 0  0 0 0
0 0 0  0 0 0  10 24 46  25 60 114  18 45 85  2 5 10
0 0 0  0 0 0  0 0 0  0 0 0  0 0 0  0 0 0
0 0 0  0 0 0  0 0 0  0 0 0  0 0 0  0 0 0
0 0 0  0 0 0  0 0 0  0 0 0  0 0 0  0 0 0
0 0 0  0 0 0  0 0 0  0 0 0  0 0 0  0 0 0
0 0 0  0 0 0  0 0 0  0 0 0  0 0 0  0 0 0
0 0 0  0 0 0  0 0 0  0 0 0  0 0 0  0 0 0
0 0 0  0 0 0  0 0 0  0 0 0  0 0 0  0 0 0
0 0 0  0 0 0  0 0 0  0 0 0  0 0 0  0 0 0
0 0 0  0 0 0  0 0 0  0 0 0  0 0 0  0 0 0
0 0 0  0 0 0  0 0 0  0 0 0  0 0 0  0 0 0
0 0 0  0 0 0  0 0 0  0 0 0  0 0 0  3 8 14
10 26 49  13 32 60  14 34 64  14 35 67  15 37 69  15 36 68
14 34 65  13 31 58  11 26 49  8 20 38  6 14 27  4 9 17
2 4 8  0 0 1  0 0 0  0 0 0  0 0 0  0 0 0
0 0 0  0 0 0  0 0 0  0 0 0  0 0 0  0 0 0
0 0 0  0 0 0  0 0 0  0 0 0  0 0 0  0 0 0
0 0 1  21 51 97  33 81 153  32 78 148  8 19 35  0 0 0
0 0 0  0 0 0  0 0 0  0 0 0  0 0 0  0 0 0
0 0 0  0 0 0  0 0 0  0 0 0  0 0 0  0 0 0
0 0 0  0 0 0  0 0 0  0 0 0  0 0 0  0 0 0
0 0 0  0 0 0  0 0 0  0 0 0  0 0 0  0 0 0
0 0 0  0 0 0  0 0 0  0 0 0  0 0 0  0 0 0
0 0 0  0 0 0  0 0 0  0 0 0  0 0 0  0 0 0
0 0 0  0 0 0  0 0 0  0 0 0  0 0 0  0 0 0
0 0 0  0 0 0  0 0 0  0 0 0  0 0 0  0 0 0
1 3 6  19 46 88  30 74 139  30 73 137  28 69 131  27 65 124
25 60 114  21 51 95  14 34 64  5 13 25  0 0 1  0 0 0
0 0 0  0 0 0  0 0 0  0 0 0  0 0 0  0 0 0
0 0 0  0 0 0  0 0 0  0 0 0  0 0 0  0 0 0
0 0 0  0 0 0  0 0 0  0 0 0  0 0 0  0 0 0
0 0 0  0 0 0  0 0 0  0 0 0  0 0 0  0 0 0
0 0 0  0 0 0  0 0 0  0 0 0  0 0 0  0 0 0
0 0 0  0 0 0  0 0 0  0 0 0  0 0 0  0 0 0
0 0 0  0 0 0  0 0 0  0 0 0  0 0 0  0 0 0
0 0 0  0 0 0  0 0 0  0 0 0  0 0 0  0 0 0
6 14 26  31 75 142  33 81 153  32 80 151
0 0 0  2 4 8  26 64 120  33 81 153  33 81 153  33 81 153
33 81 153  33 81 153  33 81 153  33 81 153  33 81 153  33 81 153
33 81 153  33 81 153  33 81 153  33 81 153  33 81 153  33 81 153
33 81 153  33 81 153  33 81 153  33 81 153  33 81 153  33 81 153
33 81 153  26 64 120  2 4 8  0 0 0  0 0 0  0 0 0
0 0 0  0 0 0  0 0 0  0 0 0  0 0 0  0 0 0
0 0 0  0 0 0  0 0 0  0 0 0  0 0 0  0 0 0
0 0 0  0 0 0  0 0 0  0 0 0  0 0 0  0 0 0
0 0 0  0 0 0  0 0 0  0 0 0  0 0 0  0 0 0
0 0 0  0 0 0  0 0 0  0 0 0  0 0 0  0 0 0
0 0 0  0 0 0  0 0 0  0 0 0  0 0 0  0 0 0
0 0 0  0 0 0  0 0 0  0 0 0  0 0 0  0 0 0
0 0 0  0 0 0  0 0 0  0 0 0  0 0 0  0 0 0
0 0 0  0 0 0  0 0 0  0 0 0  0 0 0  0 0 0
0 0 0  0 0 0  0 0 0  0 0 0  0 0 0  0 0 0
1 3 7  25 62 116  33 81 153  33 81 153  33 81 153  33 81 153
33 81 153  33 81 153  33 81 153  33 81 153  33 81 153  33 81 153
33 81 153  33 81 153  33 81 153  33 81 153  33 81 153  33 81 153
33 81 153  33 81 153  33 81 153  33 81 153  33 81 153  33 81 153
27 65 124  2 5 10  0 0 0  0 0 0  0 0 0  0 0 0
0 0 0  0 0 0  0 0 0  0 0 0  0 0 0  0 0 0
0 0 0  0 0 0  0 0 0  0 0 0  0 0 0  0 0 0
0 0 0  0 0 0  0 0 0  0 0 0  0 0 0  0 0 0
0 0 0  0 0 0  0 0 0  0 0 0  0 0 0  0 0 0
0 0 0  0 0 0  0 0 0  0 0 0  0 0 0  0 0 0
0 0 0  0 0 0  0 0 0  0 0 0  0 0 0  0 0 0
0 0 0  0 0 0  0 0 0  0 0 0  0 0 0  1 1 2
23 57 107  33 81 153  33 81 153  33 81 153  33 81 153  33 81 153
33 81 153  33 81 153  33 81 153  33 81 153  33 81 153  33 81 153
33 81 153  33 81 153  33 81 153  33 81 153  33 81 153  33 81 153
33 81 153  33 81 153  33 81 153  33 81 153  33 81 153  17 41 77
0 0 0  0 0 0  0 0 0  0 0 0  0 0 0  0 0 0
0 0 0  0 0 0  0 0 0  0 0 0  0 0 0  0 0 0
0 0 0  0 0 0  0 0 0  0 0 0  0 0 0  0 0 0
0 0 0  0 0 0  0 0 0  0 0 0  0 0 0  0 0 0
0 0 0  0 0 0  0 0 0  0 0 0  0 0 0  0 0 0
0 0 0  0 0 0  0 0 0  0 0 0  0 0 0  0 0 0
0 0 0  0 0 0  0 0 0  0 0 0  0 0 0  0 0 0
0 0 0  0 0 0  0 0 0  0 0 0  0 0 0  0 0 0
0 0 0  0 0 0  0 0 0  0 0 0  0 0 0  0 0 0
0 0 0  0 0 0  6 14 27  31 75 142  33 81 153  33 81 153
33 81 153  33 81 153  33 81 153  33 81 153  33 81 153  33 81 153
33 81 153  33 81 153  33 81 153  33 81 153  33 81 153  33 81 153
33 81 153  33 81 153  33 81 153  33 81 153  33 81 153  33 81 153
33 81 153  31 77 145  7 17 32  0 0 0  0 0 0  0 0 0
0 0 0  0 0 0  0 0 0  0 0 0  0 0 0  0 0 0
0 0 0  0 0 0  0 0 0  0 0 0  0 0 0  0 0 0
2 5 9  26 64 121  33 81 153  33 81 153  33 81 153  33 81 153
33 81 153  33 81 153  33 81 153  33 81 153  33 81 153  33 81 153
33 81 153  33 81 153  33 81 153  33 81 153  33 81 153  33 81 153
33 81 153  33 81 153  33 81 153  33 81 153  33 81 153  29 72 136
4 11 20  0 0 0  0 0 0  0 0 0  0 0 0  0 0 0
0 0 0  0 0 0  0 0 0  0 0 0  0 0 0  0 0 0
0 0 0  0 0 0  0 0 0  0 0 0  0 0 0  0 0 0
0 0 0  0 0 0  0 0 0  0 0 0  0 0 0  0 0 0
0 0 0  0 0 0  0 0 0  0 0 0  0 0 0  0 0 0
0 0 0  0 0 0  0 0 0  0 0 0  0 0 0  0 0 0
0 0 0  0 0 0  0 0 0  0 0 0  0 0 0  0 0 0
0 0 0  0 0 0  0 0 0  0 0 0  0 0 0  0 0 0
12 29 54  33 80 151  33 81 153  33 81 153  33 81 153  33 81 153
33 81 153  33 81 153  33 81 153  33 81 153  33 81 153  33 81 153
33 81 153  33 81 153  33 81 153  33 81 153  33 81 153  33 81 153
33 81 153  33 81 153  33 81 153  33 81 153  33 81 153  33 81 153
33 81 153  33 81 153  27 67 127  3 7 13  0 0 0  0 0 0
0 0 0  0 0 0  0 0 0  0 0 0  0 0 0  0 0 0
0 0 0  0 0 0  0 0 0  0 0 0  0 0 0  0 0 0
0 0 0  0 0 0  0 0 0  0 0 0  0 0 0  0 0 0
0 0 0  0 0 0  0 0 0  0 0 0  0 0 0  0 0 0
0 0 0  0 0 0  0 0 0  0 0 0  0 0 0  0 0 0
0 0 0  0 0 0  0 0 0  0 0 0  0 0 0  0 0 0
0 0 0  0 0 0  0 0 0  0 0 0  0 0 0  0 0 0
2 6 11  25 62 117  33 81 153  33 81 153  17 41 77  0 0 0
0 0 0  0 0 0  0 0 0  0 0 0  0 0 0  0 0 0
1 3 6  23 57 109  33 81 153  33 81 153  24 59 111  1 3 7
0 0 0  0 0 0  0 0 0  0 0 0  0 0 0  0 0 0
0 0 0  0 0 0  0 0 0  0 0 0  0 0 0  0 0 0
0 0 0  0 0 0  0 0 0  0 0 0  0 0 0  0 0 0
0 0 0  0 0 0  0 0 0  0 0 0  0 0 0  0 0 0
0 0 0  0 0 0  0 0 0  19 46 86  33 81 153  33 81 153
16 40 75  0 0 0  0 0 0  0 0 0  0 0 0  0 0 0
0 0 0  0 0 0  0 0 0  0 0 0  0 0 0  0 0 0
0 0 0  0 0 0  0 0 0  0 0 0  0 0 0  0 0 0
0 0 0  0 0 0  0 0 0  0 0 0  0 0 0  0 0 0
0 0 0  0 0 0  0 0 0  0 0 0  0 0 0  0 0 0
0 0 0  0 0 0  0 0 0  0 0 0  0 0 0  0 0 0
0 0 0  0 0 0  0 0 0  0 0 0  7 18 34  32 78 146
33 81 153  29 72 136  6 16 29  0 0 0  0 0 0  0 0 0
0 0 0  0 0 0  0 0 0  0 0 0  0 0 0  0 0 0
0 0 0  3 7 13  26 65 122  33 81 153  32 80 151  9 23 44
0 0 0  0 0 0  0 0 0  0 0 0  0 0 0  0 0 0
0 0 0  0 0 0  0 0 0  0 0 0  0 0 0  0 0 0
0 0 0  0 0 0  0 0 0  0 0 0  0 0 0  0 0 0
0 0 0  0 0 0  0 0 0  0 0 0  0 0 0  0 0 0
0 0 0  0 0 0  0 0 0  0 0 0  0 0 0  0 0 0
0 0 0  0 0 0  0 0 0  0 0 0  0 0 0  0 0 0
0 0 0  0 0 0  0 0 0  0 0 0  0 0 0  0 0 0
0 0 0  0 0 0  0 0 0  0 0 0  0 0 0  0 0 0
0 0 0  0 0 0  0 0 0  0 0 0  0 0 0  0 0 0
0 0 0  0 0 0  0 0 0  0 0 0  0 0 0  0 0 0
0 0 0  0 0 0  0 0 0  0 0 0  1 2 4  21 52 98
33 81 152  33 81 153  33 81 153  33 81 153  33 81 153  33 81 153
33 81 153  33 81 153  33 80 151  32 78 148  31 75 142  28 70 132
26 64 120  19 45 86  3 7 13  0 0 0  0 0 0  0 0 0
0 0 0  0 0 0  0 0 0  0 0 0  0 0 0  0 0 0
0 0 0  0 0 0  0 0 0  0 0 0  0 0 0  0 0 0
1 2 4  24 59 111  33 81 153  31 77 146  8 18 35  0 0 0
0 0 0  0 0 0  0 0 0  0 0 0  0 0 0  0 0 0
0 0 0  0 0 0  0 0 0  0 0 0  0 0 0  0 0 0
0 0 0  0 0 0  0 0 0  0 0 0  0 0 0  0 0 0
0 0 0  0 0 0  0 0 0  0 0 0  0 0 0  0 0 0
0 0 0  0 0 0  0 0 0  0 0 0  0 0 0  0 0 0
0 0 0  0 0 0  0 0 0  0 0 0  0 0 0  0 0 0
0 0 0  0 0 0  0 0 0  0 0 0  0 0 0  0 0 0
0 0 0  0 0 0  0 0 0  0 0 0  0 0 0  0 0 0
8 19 37  32 78 146  33 81 153  33 81 153  33 81 153  33 81 153
33 81 153  33 81 153  33 81 153  30 72 137  18 45 85  5 11 21
0 0 0  0 0 0  0 0 0  0 0 0  0 0 0  0 0 0
0 0 0  0 0 0  0 0 0  0 0 0  0 0 0  0 0 0
0 0 0  0 0 0  0 0 0  0 0 0  0 0 0  0 0 0
0 0 0  0 0 0  0 0 0  0 0 0  0 0 0  0 0 0
0 0 0  0 0 0  0 0 0  0 0 0  0 0 0  0 0 0
0 0 0  0 0 0  0 0 0  0 0 0  0 0 0  0 0 0
0 0 0  0 0 0  0 0 0  0 0 0  0 0 0  0 0 0
0 0 0  0 0 0  0 0 0  0 0 0  0 0 0  0 0 0
6 14 27  31 75 142  33 81 153  32 79 150
0 0 0  3 7 14  28 68 129  33 81 153  33 81 153  33 81 153
33 81 153  33 81 153  33 81 153  33 81 153  33 81 153  33 81 153
33 81 153  33 81 153  33 81 153  33 81 153  33 81 153  33 81 153
33 81 153  33 81 153  33 81 153  33 81 153  33 81 153  33 81 153
33 81 153  24 59 112  1 3 5  0 0 0  0 0 0  0 0 0
0 0 0  0 0 0  0 0 0  0 0 0  0 0 0  0 0 0
0 0 0  0 0 0  0 0 0  0 0 0  0 0 0  0 0 0
0 0 0  0 0 0  0 0 0  0 0 0  0 0 0  0 0 0
0 0 0  0 0 0  0 0 0  0 0 0  0 0 0  0 0 0
0 0 0  0 0 0  0 0 0  0 0 0  0 0 0  0 0 0
0 0 0  0 0 0  0 0 0  0 0 0  0 0 0  0 0 0
0 0 0  0 0 0  0 0 0  0 0 0  0 0 0  0 0 0
0 0 0  0 0 0  0 0 0  0 0 0  0 0 0  0 0 0
0 0 0  0 0 0  0 0 0  0 0 0  0 0 0  0 0 0
0 0 0  0 0 0  0 0 0  0 0 0  0 0 0  0 0 0
1 2 3  23 57 108  33 81 153  33 81 153  33 81 153  33 81 153
33 81 153  33 81 153  33 81 153  33 81 153  33 81 153  33 81 153
33 81 153  33 81 153  33 81 153  33 81 153  33 81 153  33 81 153
33 81 153  33 81 153  33 81 153  33 81 153  33 81 153  33 81 153
28 70 132  3 9 16  0 0 0  0 0 0  0 0 0  0 0 0
0 0 0  0 0 0  0 0 0  0 0 0  0 0 0  0 0 0
0 0 0  0 0 0  0 0 0  0 0 0  0 0 0  0 0 0
0 0 0  0 0 0  0 0 0  0 0 0  0 0 0  0 0 0
0 0 0  0 0 0  0 0 0  0 0 0  0 0 0  0 0 0
0 0 0  0 0 0  0 0 0  0 0 0  0 0 0  0 0 0
0 0 0  0 0 0  0 0 0  0 0 0  0 0 0  0 0 0
0 0 0  0 0 0  0 0 0  0 0 0  0 0 0  1 1 2
23 57 107  33 81 153  33 81 153  33 81 153  33 81 153  33 81 153
33 81 153  33 81 153  33 81 153  33 81 153  33 81 153  33 81 153
33 81 153  33 81 153  33 81 153  33 81 153  33 81 153  33 81 153
33 81 153  33 81 153  33 81 153  33 81 153  33 81 153  17 41 77
0 0 0  0 0 0  0 0 0  0 0 0  0 0 0  0 0 0
0 0 0  0 0 0  0 0 0  0 0 0  0 0 0  0 0 0
0 0 0  0 0 0  0 0 0  0 0 0  0 0 0  0 0 0
0 0 0  0 0 0  0 0 0  0 0 0  0 0 0  0 0 0
0 0 0  0 0 0  0 0 0  0 0 0  0 0 0  0 0 0
0 0 0  0 0 0  0 0 0  0 0 0  0 0 0  0 0 0
0 0 0  0 0 0  0 0 0  0 0 0  0 0 0  0 0 0
0 0 0  0 0 0  0 0 0  0 0 0  0 0 0  0 0 0
0 0 0  0 0 0  0 0 0  0 0 0  0 0 0  0 0 0
0 0 0  0 0 0  6 14 27  31 75 142  33 81 153  33 81 153
33 81 153  33 81 153  33 81 153  33 81 153  33 81 153  33 81 153
33 81 153  33 81 153  33 81 153  33 81 153  33 81 153  33 81 153
33 81 153  33 81 153  33 81 153  33 81 153  33 81 153  33 81 153
33 81 153  31 77 145  7 17 32  0 0 0  0 0 0  0 0 0
0 0 0  0 0 0  0 0 0  0 0 0  0 0 0  0 0 0
0 0 0  0 0 0  0 0 0  0 0 0  0 0 0  0 0 0
2 5 9  26 64 121  33 81 153  33 81 153  33 81 153  33 81 153
33 81 153  33 81 153  33 81 153  33 81 153  33 81 153  33 81 153
33 81 153  33 81 153  33 81 153  33 81 153  33 81 153  33 81 153
33 81 153  33 81 153  33 81 153  33 81 153  33 81 153  29 72 136
4 11 20  0 0 0  0 0 0  0 0 0  0 0 0  0 0 0
0 0 0  0 0 0  0 0 0  0 0 0  0 0 0  0 0 0
0 0 0  0 0 0  0 0 0  0 0 0  0 0 0  0 0 0
0 0 0  0 0 0  0 0 0  0 0 0  0 0 0  0 0 0
0 0 0  0 0 0  0 0 0  0 0 0  0 0 0  0 0 0
0 0 0  0 0 0  0 0 0  0 0 0  0 0 0  0 0 0
0 0 0  0 0 0  0 0 0  0 0 0  0 0 0  0 0 0
0 0 0  0 0 0  0 0 0  0 0 0  0 0 0  0 0 0
4 11 20  29 71 135  33 81 153  33 81 153  33 81 153  33 81 153
33 81 153  33 81 153  33 81 153  33 81 153  33 81 153  33 81 153
33 81 153  33 81 153  33 81 153  33 81 153  33 81 153  33 81 153
33 81 153  33 81 153  33 81 153  33 81 153  33 81 153  33 81 153
33 81 153  33 81 153  31 75 142  6 16 29  0 0 0  0 0 0
0 0 0  0 0 0  0 0 0  0 0 0  0 0 0  0 0 0
0 0 0  0 0 0  0 0 0  0 0 0  0 0 0  0 0 0
0 0 0  0 0 0  0 0 0  0 0 0  0 0 0  0 0 0
0 0 0  0 0 0  0 0 0  0 0 0  0 0 0  0 0 0
0 0 0  0 0 0  0 0 0  0 0 0  0 0 0  0 0 0
0 0 0  0 0 0  0 0 0  0 0 0  0 0 0  0 0 0
0 0 0  0 0 0  0 0 0  0 0 0  0 0 0  0 0 0
10 25 47  32 79 149  33 81 153  33 81 153  26 63 119  2 4 8
0 0 0  0 0 0  0 0 0  0 0 0  0 0 0  0 0 0
6 16 29  31 75 142  33 81 153  33 81 153  31 75 142  6 16 30
0 0 0  0 0 0  0 0 0  0 0 0  0 0 0  0 0 0
0 0 0  0 0 0  0 0 0  0 0 0  0 0 0  0 0 0
0 0 0  0 0 0  0 0 0  0 0 0  0 0 0  0 0 0
0 0 0  0 0 0  0 0 0  0 0 0  0 0 0  0 0 0
0 0 0  0 0 0  0 0 0  17 42 79  33 81 153  33 81 153
18 44 83  0 0 0  0 0 0  0 0 0  0 0 0  0 0 0
0 0 0  0 0 0  0 0 0  0 0 0  0 0 0  0 0 0
0 0 0  0 0 0  0 0 0  0 0 0  0 0 0  0 0 0
0 0 0  0 0 0  0 0 0  0 0 0  0 0 0  0 0 0
0 0 0  0 0 0  0 0 0  0 0 0  0 0 0  0 0 0
0 0 0  0 0 0  0 0 0  0 0 0  0 0 0  0 0 0
0 0 0  0 0 0  0 0 0  0 0 0  5 11 21  28 70 132
33 81 153  33 81 153  22 54 103  1 3 7  0 0 0  0 0 0
0 0 0  0 0 0  0 0 0  0 0 0  0 0 0  0 0 0
0 0 0  13 33 62  33 80 152  33 81 153  31 76 143  7 17 32
0 0 0  0 0 0  0 0 0  0 0 0  0 0 0  0 0 0
0 0 0  0 0 0  0 0 0  0 0 0  0 0 0  0 0 0
0 0 0  0 0 0  0 0 0  0 0 0  0 0 0  0 0 0
0 0 0  0 0 0  0 0 0  0 0 0  0 0 0  0 0 0
0 0 0  0 0 0  0 0 0  0 0 0  0 0 0  0 0 0
0 0 0  0 0 0  0 0 0  0 0 0  0 0 0  0 0 0
0 0 0  0 0 0  0 0 0  0 0 0  0 0 0  0 0 0
0 0 0  0 0 0  0 0 0  0 0 0  0 0 0  0 0 0
0 0 0  0 0 0  0 0 0  0 0 0  0 0 0  0 0 0
0 0 0  0 0 0  0 0 0  0 0 0  0 0 0  0 0 0
0 0 0  0 0 0  0 0 0  0 0 0  2 4 8  26 64 121
33 81 153  33 81 153  33 81 153  33 81 153  33 81 153  33 81 153
33 81 153  33 81 153  33 81 153  33 81 153  33 81 153  33 81 153
33 81 153  33 81 153  11 27 52  0 0 0  0 0 0  0 0 0
0 0 0  0 0 0  0 0 0  0 0 0  0 0 0  0 0 0
0 0 0  0 0 0  0 0 0  0 0 0  0 0 0  0 0 0
2 4 8  26 64 120  33 81 153  31 76 143  6 16 30  0 0 0
0 0 0  0 0 0  0 0 0  0 0 0  0 0 0  0 0 0
0 0 0  0 0 0  0 0 0  0 0 0  0 0 0  0 0 0
0 0 0  0 0 0  0 0 0  0 0 0  0 0 0  0 0 0
0 0 0  0 0 0  0 0 0  0 0 0  0 0 0  0 0 0
0 0 0  0 0 0  0 0 0  0 0 0  0 0 0  0 0 0
0 0 0  0 0 0  0 0 0  0 0 0  0 0 0  0 0 0
0 0 0  0 0 0  0 0 0  0 0 0  0 0 0  0 0 0
0 0 0  0 0 0  0 0 0  0 0 0  0 0 0  0 0 0
10 26 49  33 80 151  33 81 153  33 81 152  33 80 151  33 81 153
33 81 153  33 81 153  33 81 153  33 81 153  33 81 153  28 68 128
11 28 53  0 1 2  0 0 0  0 0 0  0 0 0  0 0 0
0 0 0  0 0 0  0 0 0  0 0 0  0 0 0  0 0 0
0 0 0  0 0 0  0 0 0  0 0 0  0 0 0  0 0 0
0 0 0  0 0 0  0 0 0  0 0 0  0 0 0  0 0 0
0 0 0  0 0 0  0 0 0  0 0 0  0 0 0  0 0 0
0 0 0  0 0 0  0 0 0  0 0 0  0 0 0  0 0 0
0 0 0  0 0 0  0 0 0  0 0 0  0 0 0  0 0 0
0 0 0  0 0 0  0 0 0  0 0 0  0 0 0  0 0 0
6 15 29  31 76 143  33 81 153  32 79 149
0 0 0  5 11 21  30 72 137  33 81 153  33 81 153  33 81 153
33 81 153  33 81 153  33 81 153  33 81 153  33 81 153  33 81 153
33 81 153  33 81 153  33 81 153  33 81 153  33 81 153  33 81 153
33 81 153  33 81 153  33 81 153  33 81 153  33 81 153  33 81 153
33 81 153  22 55 104  0 1 2  0 0 0  0 0 0  0 0 0
0 0 0  0 0 0  0 0 0  0 0 0  0 0 0  0 0 0
0 0 0  0 0 0  0 0 0  0 0 0  0 0 0  0 0 0
0 0 0  0 0 0  0 0 0  0 0 0  0 0 0  0 0 0
0 0 0  0 0 0  0 0 0  0 0 0  0 0 0  0 0 0
0 0 0  0 0 0  0 0 0  0 0 0  0 0 0  0 0 0
0 0 0  0 0 0  0 0 0  0 0 0  0 0 0  0 0 0
0 0 0  0 0 0  0 0 0  0 0 0  0 0 0  0 0 0
0 0 0  0 0 0  0 0 0  0 0 0  0 0 0  0 0 0
0 0 0  0 0 0  0 0 0  0 0 0  0 0 0  0 0 0
0 0 0  0 0 0  0 0 0  0 0 0  0 0 0  0 0 0
0 1 1  21 53 100  33 81 153  33 81 153  33 81 153  33 81 153
33 81 153  33 81 153  33 81 153  33 81 153  33 81 153  33 81 153
33 81 153  33 81 153  33 81 153  33 81 153  33 81 153  33 81 153
33 81 153  33 81 153  33 81 153  33 81 153  33 81 153  33 81 153
30 74 139  5 13 24  0 0 0  0 0 0  0 0 0  0 0 0
0 0 0  0 0 0  0 0 0  0 0 0  0 0 0  0 0 0
0 0 0  0 0 0  0 0 0  0 0 0  0 0 0  0 0 0
0 0 0  0 0 0  0 0 0  0 0 0  0 0 0  0 0 0
0 0 0  0 0 0  0 0 0  0 0 0  0 0 0  0 0 0
0 0 0  0 0 0  0 0 0  0 0 0  0 0 0  0 0 0
0 0 0  0 0 0  0 0 0  0 0 0  0 0 0  0 0 0
0 0 0  0 0 0  0 0 0  0 0 0  0 0 0  1 1 2
23 57 107  33 81 153  33 81 153  33 81 153  33 81 153  33 81 153
33 81 153  33 81 153  33 81 153  33 81 153  33 81 153  33 81 153
33 81 153  33 81 153  33 81 153  33 81 153  33 81 153  33 81 153
33 81 153  33 81 153  33 81 153  33 81 153  33 81 153  17 41 77
0 0 0  0 0 0  0 0 0  0 0 0  0 0 0  0 0 0
0 0 0  0 0 0  0 0 0  0 0 0  0 0 0  0 0 0
0 0 0  0 0 0  0 0 0  0 0 0  0 0 0  0 0 0
0 0 0  0 0 0  0 0 0  0 0 0  0 0 0  0 0 0
0 0 0  0 0 0  0 0 0  0 0 0  0 0 0  0 0 0
0 0 0  0 0 0  0 0 0  0 0 0  0 0 0  0 0 0
0 0 0  0 0 0  0 0 0  0 0 0  0 0 0  0 0 0
0 0 0  0 0 0  0 0 0  0 0 0  0 0 0  0 0 0
0 0 0  0 0 0  0 0 0  0 0 0  0 0 0  0 0 0
0 0 0  0 0 0  6 14 27  31 75 142  33 81 153  33 81 153
33 81 153  33 81 153  33 81 153  33 81 153  33 81 153  33 81 153
33 81 153  33 81 153  33 81 153  33 81 153  33 81 153  33 81 153
33 81 153  33 81 153  33 81 153  33 81 153  33 81 153  33 81 153
33 81 153  31 77 145  7 17 32  0 0 0  0 0 0  0 0 0
0 0 0  0 0 0  0 0 0  0 0 0  0 0 0  0 0 0
0 0 0  0 0 0  0 0 0  0 0 0  0 0 0  0 0 0
2 5 9  26 64 121  33 81 153  33 81 153  33 81 153  33 81 153
33 81 153  33 81 153  33 81 153  33 81 153  33 81 153  33 81 153
33 81 153  33 81 153  33 81 153  33 81 153  33 81 153  33 81 153
33 81 153  33 81 153  33 81 153  33 81 153  33 81 153  29 72 136
4 11 20  0 0 0  0 0 0  0 0 0  0 0 0  0 0 0
0 0 0  0 0 0  0 0 0  0 0 0  0 0 0  0 0 0
0 0 0  0 0 0  0 0 0  0 0 0  0 0 0  0 0 0
0 0 0  0 0 0  0 0 0  0 0 0  0 0 0  0 0 0
0 0 0  0 0 0  0 0 0  0 0 0  0 0 0  0 0 0
0 0 0  0 0 0  0 0 0  0 0 0  0 0 0  0 0 0
0 0 0  0 0 0  0 0 0  0 0 0  0 0 0  0 0 0
0 0 0  0 0 0  0 0 0  0 0 0  0 0 0  0 0 0
1 2 4  23 57 107  33 81 153  33 81 153  33 81 153  33 81 153
33 81 153  33 81 153  33 81 153  33 81 153  33 81 153  33 81 153
33 81 153  33 81 153  33 81 153  33 81 153  33 81 153  33 81 153
33 81 153  33 81 153  33 81 153  33 81 153  33 81 153  33 81 153
33 81 153  33 81 153  32 80 151  10 26 49  0 0 0  0 0 0
0 0 0  0 0 0  0 0 0  0 0 0  0 0 0  0 0 0
0 0 0  0 0 0  0 0 0  0 0 0  0 0 0  0 0 0
0 0 0  0 0 0  0 0 0  0 0 0  0 0 0  0 0 0
0 0 0  0 0 0  0 0 0  0 0 0  0 0 0  0 0 0
0 0 0  0 0 0  0 0 0  0 0 0  0 0 0  0 0 0
0 0 0  0 0 0  0 0 0  0 0 0  0 0 0  0 0 0
0 0 0  0 0 0  0 0 0  0 0 0  0 0 0  0 0 0
19 46 86  33 81 153  33 81 153  33 81 153  30 75 141  6 15 28
0 0 0  0 0 0  0 0 0  0 0 0  0 0 0  0 0 0
12 30 56  33 81 152  33 81 153  33 81 153  33 81 152  12 29 55
0 0 0  0 0 0  0 0 0  0 0 0  0 0 0  0 0 0
0 0 0  0 0 0  0 0 0  0 0 0  0 0 0  0 0 0
0 0 0  0 0 0  0 0 0  0 0 0  0 0 0  0 0 0
0 0 0  0 0 0  0 0 0  0 0 0  0 0 0  0 0 0
0 0 0  0 0 0  0 0 0  16 39 74  33 81 153  33 81 153
19 47 89  0 0 0  0 0 0  0 0 0  0 0 0  0 0 0
0 0 0  0 0 0  0 0 0  0 0 0  0 0 0  0 0 0
0 0 0  0 0 0  0 0 0  0 0 0  0 0 0  0 0 0
0 0 0  0 0 0  0 0 0  0 0 0  0 0 0  0 0 0
0 0 0  0 0 0  0 0 0  0 0 0  0 0 0  0 0 0
0 0 0  0 0 0  0 0 0  0 0 0  0 0 0  0 0 0
0 0 0  0 0 0  0 0 0  0 0 0  0 0 0  14 35 67
33 80 152  33 81 153  32 79 150  14 33 63  0 0 0  0 0 0
0 0 0  0 0 0  0 0 0  0 0 0  0 0 0  0 0 0
3 7 13  26 64 122  33 81 153  33 81 153  22 54 101  1 2 4
0 0 0  0 0 0  0 0 0  0 0 0  0 0 0  0 0 0
0 0 0  0 0 0  0 0 0  0 0 0  0 0 0  0 0 0
0 0 0  0 0 0  0 0 0  0 0 0  0 0 0  0 0 0
0 0 0  0 0 0  0 0 0  0 0 0  0 0 0  0 0 0
0 0 0  0 0 0  0 0 0  0 0 0  0 0 0  0 0 0
0 0 0  0 0 0  0 0 0  0 0 0  0 0 0  0 0 0
0 0 0  0 0 0  0 0 0  0 0 0  0 0 0  0 0 0
0 0 0  0 0 0  0 0 0  0 0 0  0 0 0  0 0 0
0 0 0  0 0 0  0 0 0  0 0 0  0 0 0  0 0 0
0 0 0  0 0 0  0 0 0  0 0 0  0 0 0  0 0 0
0 0 0  0 0 0  0 0 0  0 0 0  0 0 0  12 30 56
26 63 119  26 65 122  26 63 119  25 61 115  27 67 127  33 81 153
33 81 153  32 78 146  29 71 134  31 76 143  32 79 149  33 81 153
33 81 153  31 76 143  9 21 40  0 0 0  0 0 0  0 0 0
0 0 0  0 0 0  0 0 0  0 0 0  0 0 0  0 0 0
0 0 0  0 0 0  0 0 0  0 0 0  0 0 0  0 0 0
3 6 12  27 67 127  33 81 153  30 74 139  5 13 25  0 0 0
0 0 0  0 0 0  0 0 0  0 0 0  0 0 0  0 0 0
0 0 0  0 0 0  0 0 0  0 0 0  0 0 0  0 0 0
0 0 0  0 0 0  0 0 0  0 0 0  0 0 0  0 0 0
0 0 0  0 0 0  0 0 0  0 0 0  0 0 0  0 0 0
0 0 0  0 0 0  0 0 0  0 0 0  0 0 0  0 0 0
0 0 0  0 0 0  0 0 0  0 0 0  0 0 0  0 0 0
0 0 0  0 0 0  0 0 0  0 0 0  0 0 0  0 0 0
0 0 0  0 0 0  0 0 0  0 0 0  0 0 0  0 0 0
9 23 43  32 79 149  33 81 153  29 71 134  12 30 57  13 31 58
16 39 73  22 54 101  29 72 136  33 81 153  33 81 153  33 81 153
32 78 146  16 39 74  1 2 4  0 0 0  0 0 0  0 0 0
0 0 0  0 0 0  0 0 0  0 0 0  0 0 0  0 0 0
0 0 0  0 0 0  0 0 0  0 0 0  0 0 0  0 0 0
0 0 0  0 0 0  0 0 0  0 0 0  0 0 0  0 0 0
0 0 0  0 0 0  0 0 0  0 0 0  0 0 0  0 0 0
0 0 0  0 0 0  0 0 0  0 0 0  0 0 0  0 0 0
0 0 0  0 0 0  0 0 0  0 0 0  0 0 0  0 0 0
0 0 0  0 0 0  0 0 0  0 0 0  0 0 0  0 0 0
6 16 30  31 76 143  33 81 153  32 78 148
0 0 0  6 16 30  31 76 143  33 81 153  33 81 153  33 81 153
33 81 153  33 81 153  33 81 153  33 81 153  33 81 153  33 81 153
33 81 153  33 81 153  33 81 153  33 81 153  33 81 153  33 81 153
33 81 153  33 81 153  33 81 153  33 81 153  33 81 153  33 81 153
33 81 153  20 50 95  0 0 0  0 0 0  0 0 0  0 0 0
0 0 0  0 0 0  0 0 0  0 0 0  0 0 0  0 0 0
0 0 0  0 0 0  0 0 0  0 0 0  0 0 0  0 0 0
0 0 0  0 0 0  0 0 0  0 0 0  0 0 0  0 0 0
0 0 0  0 0 0  0 0 0  0 0 0  0 0 0  0 0 0
0 0 0  0 0 0  0 0 0  0 0 0  0 0 0  0 0 0
0 0 0  0 0 0  0 0 0  0 0 0  0 0 0  0 0 0
0 0 0  0 0 0  0 0 0  0 0 0  0 0 0  0 0 0
0 0 0  0 0 0  0 0 0  0 0 0  0 0 0  0 0 0
0 0 0  0 0 0  0 0 0  0 0 0  0 0 0  0 0 0
0 0 0  0 0 0  0 0 0  0 0 0  0 0 0  0 0 0
0 0 0  19 48 90  33 81 153  33 81 153  33 81 153  33 81 153
33 81 153  33 81 153  33 81 153  33 81 153  33 81 153  33 81 153
33 81 153  33 81 153  33 81 153  33 81 153  33 81 153  33 81 153
33 81 153  33 81 153  33 81 153  33 81 153  33 81 153  33 81 153
31 77 145  7 18 34  0 0 0  0 0 0  0 0 0  0 0 0
0 0 0  0 0 0  0 0 0  0 0 0  0 0 0  0 0 0
0 0 0  0 0 0  0 0 0  0 0 0  0 0 0  0 0 0
0 0 0  0 0 0  0 0 0  0 0 0  0 0 0  0 0 0
0 0 0  0 0 0  0 0 0  0 0 0  0 0 0  0 0 0
0 0 0  0 0 0  0 0 0  0 0 0  0 0 0  0 0 0
0 0 0  0 0 0  0 0 0  0 0 0  0 0 0  0 0 0
0 0 0  0 0 0  0 0 0  0 0 0  0 0 0  1 1 2
23 57 107  33 81 153  33 81 153  33 81 153  33 81 153  33 81 153
33 81 153  33 81 153  33 81 153  33 81 153  33 81 153  33 81 153
33 81 153  33 81 153  33 81 153  33 81 153  33 81 153  33 81 153
33 81 153  33 81 153  33 81 153  33 81 153  33 81 153  17 41 77
0 0 0  0 0 0  0 0 0  0 0 0  0 0 0  0 0 0
0 0 0  0 0 0  0 0 0  0 0 0  0 0 0  0 0 0
0 0 0  0 0 0  0 0 0  0 0 0  0 0 0  0 0 0
0 0 0  0 0 0  0 0 0  0 0 0  0 0 0  0 0 0
0 0 0  0 0 0  0 0 0  0 0 0  0 0 0  0 0 0
0 0 0  0 0 0  0 0 0  0 0 0  0 0 0  0 0 0
0 0 0  0 0 0  0 0 0  0 0 0  0 0 0  0 0 0
0 0 0  0 0 0  0 0 0  0 0 0  0 0 0  0 0 0
0 0 0  0 0 0  0 0 0  0 0 0  0 0 0  0 0 0
0 0 0  0 0 0  6 14 27  31 75 142  33 81 153  33 81 153
33 81 153  33 81 153  33 81 153  33 81 153  33 81 153  33 81 153
33 81 153  33 81 153  33 81 153  33 81 153  33 81 153  33 81 153
33 81 153  33 81 153  33 81 153  33 81 153  33 81 153  33 81 153
33 81 153  31 77 145  7 17 32  0 0 0  0 0 0  0 0 0
0 0 0  0 0 0  0 0 0  0 0 0  0 0 0  0 0 0
0 0 0  0 0 0  0 0 0  0 0 0  0 0 0  0 0 0
2 5 9  26 64 121  33 81 153  33 81 153  33 81 153  33 81 153
33 81 153  33 81 153  33 81 153  33 81 153  33 81 153  33 81 153
33 81 153  33 81 153  33 81 153  33 81 153  33 81 153  33 81 153
33 81 153  33 81 153  33 81 153  33 81 153  33 81 153  29 72 136
4 11 20  0 0 0  0 0 0  0 0 0  0 0 0  0 0 0
0 0 0  0 0 0  0 0 0  0 0 0  0 0 0  0 0 0
0 0 0  0 0 0  0 0 0  0 0 0  0 0 0  0 0 0
0 0 0  0 0 0  0 0 0  0 0 0  0 0 0  0 0 0
0 0 0  0 0 0  0 0 0  0 0 0  0 0 0  0 0 0
0 0 0  0 0 0  0 0 0  0 0 0  0 0 0  0 0 0
0 0 0  0 0 0  0 0 0  0 0 0  0 0 0  0 0 0
0 0 0  0 0 0  0 0 0  0 0 0  0 0 0  0 0 0
0 0 0  16 40 75  33 81 153  33 81 153  33 81 153  33 81 153
33 81 153  33 81 153  33 81 153  33 81 153  33 81 153  33 81 153
33 81 153  33 81 153  33 81 153  33 81 153  33 81 153  33 81 153
33 81 153  33 81 153  33 81 153  33 81 153  33 81 153  33 81 153
33 81 153  33 81 153  33 81 153  15 36 68  0 0 0  0 0 0
0 0 0  0 0 0  0 0 0  0 0 0  0 0 0  0 0 0
0 0 0  0 0 0  0 0 0  0 0 0  0 0 0  0 0 0
0 0 0  0 0 0  0 0 0  0 0 0  0 0 0  0 0 0
0 0 0  0 0 0  0 0 0  0 0 0  0 0 0  0 0 0
0 0 0  0 0 0  0 0 0  0 0 0  0 0 0  0 0 0
0 0 0  0 0 0  0 0 0  0 0 0  0 0 0  0 0 0
0 0 0  0 0 0  0 0 0  0 0 0  0 0 0  2 4 7
25 62 118  33 81 153  33 81 153  33 81 153  33 80 151  11 27 52
0 0 0  0 0 0  0 0 0  0 0 0  0 0 0  0 0 0
18 44 84  33 81 153  33 81 153  33 81 153  33 81 153  17 41 77
0 0 0  0 0 0  0 0 0  0 0 0  0 0 0  0 0 0
0 0 0  0 0 0  0 0 0  0 0 0  0 0 0  0 0 0
0 0 0  0 0 0  0 0 0  0 0 0  0 0 0  0 0 0
0 0 0  0 0 0  0 0 0  0 0 0  0 0 0  0 0 0
0 0 0  0 0 0  0 0 0  16 39 74  33 81 153  33 81 153
19 47 88  0 0 0  0 0 0  0 0 0  0 0 0  0 0 0
0 0 0  0 0 0  0 0 0  0 0 0  0 0 0  0 0 0
0 0 0  0 0 0  0 0 0  0 0 0  0 0 0  0 0 0
0 0 0  0 0 0  0 0 0  0 0 0  0 0 0  0 0 0
0 0 0  0 0 0  0 0 0  0 0 0  0 0 0  0 0 0
0 0 0  0 0 0  0 0 0  0 0 0  0 0 0  0 0 0
0 0 0  0 0 0  0 0 0  0 0 0  0 0 0  2 5 9
23 57 109  33 81 153  33 81 153  29 71 134  6 15 28  0 0 0
0 0 0  0 0 0  0 0 0  0 0 0  0 0 0  0 0 0
14 34 64  33 81 152  33 81 153  30 75 141  8 19 35  0 0 0
0 0 0  0 0 0  0 0 0  0 0 0  0 0 0  0 0 0
0 0 0  0 0 0  0 0 0  0 0 0  0 0 0  0 0 0
0 0 0  0 0 0  0 0 0  0 0 0  0 0 0  0 0 0
0 0 0  0 0 0  0 0 0  0 0 0  0 0 0  0 0 0
0 0 0  0 0 0  0 0 0  0 0 0  0 0 0  0 0 0
0 0 0  0 0 0  0 0 0  0 0 0  0 0 0  0 0 0
0 0 0  0 0 0  0 0 0  0 0 0  0 0 0  0 0 0
0 0 0  0 0 0  0 0 0  0 0 0  0 0 0  0 0 0
0 0 0  0 0 0  0 0 0  0 0 0  0 0 0  0 0 0
0 0 0  0 0 0  0 0 0  0 0 0  0 0 0  0 0 0
0 0 0  0 0 0  0 0 0  0 0 0  0 0 0  0 0 0
2 4 8  2 5 9  2 4 8  1 2 4  13 33 62  33 81 153
33 81 153  24 59 112  5 11 22  6 16 30  10 24 44  12 30 58
14 35 65  9 22 42  1 2 3  0 0 0  0 0 0  0 0 0
0 0 0  0 0 0  0 0 0  0 0 0  0 0 0  0 0 0
0 0 0  0 0 0  0 0 0  0 0 0  0 0 0  0 0 0
3 9 16  28 70 132  33 81 153  29 71 134  4 10 19  0 0 0
0 0 0  0 0 0  0 0 0  0 0 0  0 0 0  0 0 0
0 0 0  0 0 0  0 0 0  0 0 0  0 0 0  0 0 0
0 0 0  0 0 0  0 0 0  0 0 0  0 0 0  0 0 0
0 0 0  0 0 0  0 0 0  0 0 0  0 0 0  0 0 0
0 0 0  0 0 0  0 0 0  0 0 0  0 0 0  0 0 0
0 0 0  0 0 0  0 0 0  0 0 0  0 0 0  0 0 0
0 0 0  0 0 0  0 0 0  0 0 0  0 0 0  0 0 0
0 0 0  0 0 0  0 0 0  0 0 0  0 0 0  0 0 0
7 18 34  31 77 145  33 81 153  28 70 132  3 8 14  0 0 0
0 0 0  0 1 2  5 12 23  17 42 79  30 74 139  33 81 153
33 81 153  32 79 150  16 39 74  0 1 2  0 0 0  0 0 0
0 0 0  0 0 0  0 0 0  0 0 0  0 0 0  0 0 0
0 0 0  0 0 0  0 0 0  0 0 0  0 0 0  0 0 0
0 0 0  0 0 0  0 0 0  0 0 0  0 0 0  0 0 0
0 0 0  0 0 0  0 0 0  0 0 0  0 0 0  0 0 0
0 0 0  0 0 0  0 0 0  0 0 0  0 0 0  0 0 0
0 0 0  0 0 0  0 0 0  0 0 0  0 0 0  0 0 0
0 0 0  0 0 0  0 0 0  0 0 0  0 0 0  0 0 0
7 17 32  31 77 145  33 81 153  31 77 146
0 0 0  9 21 40  32 78 148  33 81 153  33 81 153  33 81 153
33 81 153  33 81 153  33 81 153  33 81 153  33 81 153  33 81 153
33 81 153  33 81 153  33 81 153  33 81 153  33 81 153  33 81 153
33 81 153  33 81 153  33 81 153  33 81 153  33 81 153  33 81 153
33 81 153  18 45 85  0 0 0  0 0 0  0 0 0  0 0 0
0 0 0  0 0 0  0 0 0  0 0 0  0 0 0  0 0 0
0 0 0  0 0 0  0 0 0  0 0 0  0 0 0  0 0 0
0 0 0  0 0 0  0 0 0  0 0 0  0 0 0  0 0 0
0 0 0  0 0 0  0 0 0  0 0 0  0 0 0  0 0 0
0 0 0  0 0 0  0 0 0  0 0 0  0 0 0  0 0 0
0 0 0  0 0 0  0 0 0  0 0 0  0 0 0  0 0 0
0 0 0  0 0 0  0 0 0  0 0 0  0 0 0  0 0 0
0 0 0  0 0 0  0 0 0  0 0 0  0 0 0  0 0 0
0 0 0  0 0 0  0 0 0  0 0 0  0 0 0  0 0 0
0 0 0  0 0 0  0 0 0  0 0 0  0 0 0  0 0 0
0 0 0  17 43 80  33 81 153  33 81 153  33 81 153  33 81 153
33 81 153  33 81 153  33 81 153  33 81 153  33 81 153  33 81 153
33 81 153  33 81 153  33 81 153  33 81 153  33 81 153  33 81 153
33 81 153  33 81 153  33 81 153  33 81 153  33 81 153  33 81 153
32 79 149  9 23 44  0 0 0  0 0 0  0 0 0  0 0 0
0 0 0  0 0 0  0 0 0  0 0 0  0 0 0  0 0 0
0 0 0  0 0 0  0 0 0  0 0 0  0 0 0  0 0 0
0 0 0  0 0 0  0 0 0  0 0 0  0 0 0  0 0 0
0 0 0  0 0 0  0 0 0  0 0 0  0 0 0  0 0 0
0 0 0  0 0 0  0 0 0  0 0 0  0 0 0  0 0 0
0 0 0  0 0 0  0 0 0  0 0 0  0 0 0  0 0 0
0 0 0  0 0 0  0 0 0  0 0 0  0 0 0  1 1 2
23 57 107  33 81 153  33 81 153  33 81 153  33 81 153  33 81 153
33 81 153  33 81 153  33 81 153  33 81 153  33 81 153  33 81 153
33 81 153  33 81 153  33 81 153  33 81 153  33 81 153  33 81 153
33 81 153  33 81 153  33 81 153  33 81 153  33 81 153  17 41 77
0 0 0  0 0 0  0 0 0  0 0 0  0 0 0  0 0 0
0 0 0  0 0 0  0 0 0  0 0 0  0 0 0  0 0 0
0 0 0  0 0 0  0 0 0  0 0 0  0 0 0  0 0 0
0 0 0  0 0 0  0 0 0  0 0 0  0 0 0  0 0 0
0 0 0  0 0 0  0 0 0  0 0 0  0 0 0  0 0 0
0 0 0  0 0 0  0 0 0  0 0 0  0 0 0  0 0 0
0 0 0  0 0 0  0 0 0  0 0 0  0 0 0  0 0 0
0 0 0  0 0 0  0 0 0  0 0 0  0 0 0  0 0 0
0 0 0  0 0 0  0 0 0  0 0 0  0 0 0  0 0 0
0 0 0  0 0 0  6 14 27  31 75 142  33 81 153  33 81 153
33 81 153  33 81 153  33 81 153  33 81 153  33 81 153  33 81 153
33 81 153  33 81 153  33 81 153  33 81 153  33 81 153  33 81 153
33 81 153  33 81 153  33 81 153  33 81 153  33 81 153  33 81 153
33 81 153  31 77 145  7 17 32  0 0 0  0 0 0  0 0 0
0 0 0  0 0 0  0 0 0  0 0 0  0 0 0  0 0 0
0 0 0  0 0 0  0 0 0  0 0 0  0 0 0  0 0 0
2 5 9  26 64 121  33 81 153  33 81 153  33 81 153  33 81 153
33 81 153  33 81 153  33 81 153  33 81 153  33 81 153  33 81 153
33 81 153  33 81 153  33 81 153  33 81 153  33 81 153  33 81 153
33 81 153  33 81 153  33 81 153  33 81 153  33 81 153  29 72 136
4 11 20  0 0 0  0 0 0  0 0 0  0 0 0  0 0 0
0 0 0  0 0 0  0 0 0  0 0 0  0 0 0  0 0 0
0 0 0  0 0 0  0 0 0  0 0 0  0 0 0  0 0 0
0 0 0  0 0 0  0 0 0  0 0 0  0 0 0  0 0 0
0 0 0  0 0 0  0 0 0  0 0 0  0 0 0  0 0 0
0 0 0  0 0 0  0 0 0  0 0 0  0 0 0  0 0 0
0 0 0  0 0 0  0 0 0  0 0 0  0 0 0  0 0 0
0 0 0  0 0 0  0 0 0  0 0 0  0 0 0  0 0 0
0 0 0  10 25 47  32 79 150  33 81 153  33 81 153  33 81 153
33 81 153  33 81 153  33 81 153  33 81 153  33 81 153  33 81 153
33 81 153  33 81 153  33 81 153  33 81 153  33 81 153  33 81 153
33 81 153  33 81 153  33 81 153  33 81 153  33 81 153  33 81 153
33 81 153  33 81 153  33 81 153  19 46 86  0 0 0  0 0 0
0 0 0  0 0 0  0 0 0  0 0 0  0 0 0  0 0 0
0 0 0  0 0 0  0 0 0  0 0 0  0 0 0  0 0 0
0 0 0  0 0 0  0 0 0  0 0 0  0 0 0  0 0 0
0 0 0  0 0 0  0 0 0  0 0 0  0 0 0  0 0 0
0 0 0  0 0 0  0 0 0  0 0 0  0 0 0  0 0 0
0 0 0  0 0 0  0 0 0  0 0 0  0 0 0  0 0 0
0 0 0  0 0 0  0 0 0  0 0 0  0 0 0  5 12 23
30 73 137  33 81 153  33 81 153  33 81 153  33 81 153  16 40 75
0 0 0  0 0 0  0 0 0  0 0 0  0 0 0  1 3 5
24 59 111  33 81 153  33 81 153  33 81 153  33 81 153  21 51 96
0 0 1  0 0 0  0 0 0  0 0 0  0 0 0  0 0 0
0 0 0  0 0 0  0 0 0  0 0 0  0 0 0  0 0 0
0 0 0  0 0 0  0 0 0  0 0 0  0 0 0  0 0 0
0 0 0  0 0 0  0 0 0  0 0 0  0 0 0  0 0 0
0 0 0  0 0 0  0 0 0  16 39 74  33 81 153  33 81 153
18 45 85  0 0 0  0 0 0  0 0 0  0 0 0  0 0 0
0 0 0  0 0 0  0 0 0  0 0 0  0 0 0  0 0 0
0 0 0  0 0 0  0 0 0  0 0 0  0 0 0  0 0 0
0 0 0  0 0 0  0 0 0  0 0 0  0 0 0  0 0 0
0 0 0  0 0 0  0 0 0  0 0 0  0 0 0  0 0 0
0 0 0  0 0 0  0 0 0  0 0 0  0 0 0  0 0 0
0 0 0  0 0 0  0 0 0  0 0 0  0 0 0  0 0 0
7 18 34  30 73 138  33 81 153  33 81 153  22 53 100  1 3 5
0 0 0  0 0 0  0 0 0  0 0 0  0 0 0  2 5 9
25 62 117  33 81 153  33 81 153  20 49 92  0 1 1  0 0 0
0 0 0  0 0 0  0 0 0  0 0 0  0 0 0  0 0 0
0 0 0  0 0 0  0 0 0  0 0 0  0 0 0  0 0 0
0 0 0  0 0 0  0 0 0  0 0 0  0 0 0  0 0 0
0 0 0  0 0 0  0 0 0  0 0 0  0 0 0  0 0 0
0 0 0  0 0 0  0 0 0  0 0 0  0 0 0  0 0 0
0 0 0  0 0 0  0 0 0  0 0 0  0 0 0  0 0 0
0 0 0  0 0 0  0 0 0  0 0 0  0 0 0  0 0 0
0 0 0  0 0 0  0 0 0  0 0 0  0 0 0  0 0 0
0 0 0  0 0 0  0 0 0  0 0 0  0 0 0  0 0 0
0 0 0  0 0 0  0 0 0  0 0 0  0 0 0  0 0 0
0 0 0  0 0 0  0 0 0  0 0 0  0 0 0  0 0 0
0 0 0  0 0 0  0 0 0  0 0 0  15 36 68  33 81 153
33 81 153  22 53 100  0 0 0  0 0 0  0 0 0  0 0 0
0 0 0  0 0 0  0 0 0  0 0 0  0 0 0  0 0 0
0 0 0  0 0 0  0 0 0  0 0 0  0 0 0  0 0 0
0 0 0  0 0 0  0 0 0  0 0 0  0 0 0  0 0 0
4 11 20  29 72 136  33 81 153  28 68 128  3 7 13  0 0 0
0 0 0  0 0 0  0 0 0  0 0 0  0 0 0  0 0 0
0 0 0  0 0 0  0 0 0  0 0 0  0 0 0  0 0 0
0 0 0  0 0 0  0 0 0  0 0 0  0 0 0  0 0 0
0 0 0  0 0 0  0 0 0  0 0 0  0 0 0  0 0 0
0 0 0  0 0 0  0 0 0  0 0 0  0 0 0  0 0 0
0 0 0  0 0 0  0 0 0  0 0 0  0 0 0  0 0 0
0 0 0  0 0 0  0 0 0  0 0 0  0 0 0  0 0 0
0 0 0  0 0 0  0 0 0  0 0 0  0 0 0  0 0 0
5 13 25  30 74 140  33 81 153  30 74 139  5 13 24  0 0 0
0 0 0  0 0 0  0 0 0  0 0 0  8 20 37  26 64 122
33 81 153  33 81 153  31 77 145  10 24 46  0 0 0  0 0 0
0 0 0  0 0 0  0 0 0  0 0 0  0 0 0  0 0 0
0 0 0  0 0 0  0 0 0  0 0 0  0 0 0  0 0 0
0 0 0  0 0 0  0 0 0  0 0 0  0 0 0  0 0 0
0 0 0  0 0 0  0 0 0  0 0 0  0 0 0  0 0 0
0 0 0  0 0 0  0 0 0  0 0 0  0 0 0  0 0 0
0 0 0  0 0 0  0 0 0  0 0 0  0 0 0  0 0 0
0 0 0  0 0 0  0 0 0  0 0 0  0 0 0  0 0 0
7 18 34  31 77 146  33 81 153  31 76 144
0 0 0  11 27 51  33 80 151  33 81 153  33 81 153  33 81 153
33 81 153  33 81 153  33 81 153  33 81 153  33 81 153  33 81 153
33 81 153  33 81 153  33 81 153  33 81 153  33 81 153  33 81 153
33 81 153  33 81 153  33 81 153  33 81 153  33 81 153  33 81 153
33 81 153  16 40 75  0 0 0  0 0 0  0 0 0  0 0 0
0 0 0  0 0 0  0 0 0  0 0 0  0 0 0  0 0 0
0 0 0  0 0 0  0 0 0  0 0 0  0 0 0  0 0 0
0 0 0  0 0 0  0 0 0  0 0 0  0 0 0  0 0 0
0 0 0  0 0 0  0 0 0  0 0 0  0 0 0  0 0 0
0 0 0  0 0 0  0 0 0  0 0 0  0 0 0  0 0 0
0 0 0  0 0 0  0 0 0  0 0 0  0 0 0  0 0 0
0 0 0  0 0 0  0 0 0  0 0 0  0 0 0  0 0 0
0 0 0  0 0 0  0 0 0  0 0 0  0 0 0  0 0 0
0 0 0  0 0 0  0 0 0  0 0 0  0 0 0  0 0 0
0 0 0  0 0 0  0 0 0  0 0 0  0 0 0  0 0 0
0 0 0  15 37 71  33 81 153  33 81 153  33 81 153  33 81 153
33 81 153  33 81 153  33 81 153  33 81 153  33 81 153  33 81 153
33 81 153  33 81 153  33 81 153  33 81 153  33 81 153  33 81 153
33 81 153  33 81 153  33 81 153  33 81 153  33 81 153  33 81 153
33 81 152  12 29 55  0 0 0  0 0 0  0 0 0  0 0 0
0 0 0  0 0 0  0 0 0  0 0 0  0 0 0  0 0 0
0 0 0  0 0 0  0 0 0  0 0 0  0 0 0  0 0 0
0 0 0  0 0 0  0 0 0  0 0 0  0 0 0  0 0 0
0 0 0  0 0 0  0 0 0  0 0 0  0 0 0  0 0 0
0 0 0  0 0 0  0 0 0  0 0 0  0 0 0  0 0 0
0 0 0  0 0 0  0 0 0  0 0 0  0 0 0  0 0 0
0 0 0  0 0 0  0 0 0  0 0 0  0 0 0  1 1 2
23 57 107  33 81 153  33 81 153  33 81 153  33 81 153  33 81 153
33 81 153  33 81 153  33 81 153  33 81 153  33 81 153  33 81 153
33 81 153  33 81 153  33 81 153  33 81 153  33 81 153  33 81 153
33 81 153  33 81 153  33 81 153  33 81 153  33 81 153  17 41 77
0 0 0  0 0 0  0 0 0  0 0 0  0 0 0  0 0 0
0 0 0  0 0 0  0 0 0  0 0 0  0 0 0  0 0 0
0 0 0  0 0 0  0 0 0  0 0 0  0 0 0  0 0 0
0 0 0  0 0 0  0 0 0  0 0 0  0 0 0  0 0 0
0 0 0  0 0 0  0 0 0  0 0 0  0 0 0  0 0 0
0 0 0  0 0 0  0 0 0  0 0 0  0 0 0  0 0 0
0 0 0  0 0 0  0 0 0  0 0 0  0 0 0  0 0 0
0 0 0  0 0 0  0 0 0  0 0 0  0 0 0  0 0 0
0 0 0  0 0 0  0 0 0  0 0 0  0 0 0  0 0 0
0 0 0  0 0 0  6 14 27  31 75 142  33 81 153  33 81 153
33 81 153  33 81 153  33 81 153  33 81 153  33 81 153  33 81 153
33 81 153  33 81 153  33 81 153  33 81 153  33 81 153  33 81 153
33 81 153  33 81 153  33 81 153  33 81 153  33 81 153  33 81 153
33 81 153  31 77 145  7 17 32  0 0 0  0 0 0  0 0 0
0 0 0  0 0 0  0 0 0  0 0 0  0 0 0  0 0 0
0 0 0  0 0 0  0 0 0  0 0 0  0 0 0  0 0 0
2 5 9  26 64 121  33 81 153  33 81 153  33 81 153  33 81 153
33 81 153  33 81 153  33 81 153  33 81 153  33 81 153  33 81 153
33 81 153  33 81 153  33 81 153  33 81 153  33 81 153  33 81 153
33 81 153  33 81 153  33 81 153  33 81 153  33 81 153  29 72 136
4 11 20  0 0 0  0 0 0  0 0 0  0 0 0  0 0 0
0 0 0  0 0 0  0 0 0  0 0 0  0 0 0  0 0 0
0 0 0  0 0 0  0 0 0  0 0 0  0 0 0  0 0 0
0 0 0  0 0 0  0 0 0  0 0 0  0 0 0  0 0 0
0 0 0  0 0 0  0 0 0  0 0 0  0 0 0  0 0 0
0 0 0  0 0 0  0 0 0  0 0 0  0 0 0  0 0 0
0 0 0  0 0 0  0 0 0  0 0 0  0 0 0  0 0 0
0 0 0  0 0 0  0 0 0  0 0 0  0 0 0  0 0 0
0 0 0  6 14 26  30 74 140  33 81 153  33 81 153  33 81 153
33 81 153  33 81 153  33 81 153  33 81 153  33 81 153  33 81 153
33 81 153  33 81 153  33 81 153  33 81 153  33 81 153  33 81 153
33 81 153  33 81 153  33 81 153  33 81 153  33 81 153  33 81 153
33 81 153  33 81 153  33 81 153  22 54 103  0 1 2  0 0 0
0 0 0  0 0 0  0 0 0  0 0 0  0 0 0  0 0 0
0 0 0  0 0 0  0 0 0  0 0 0  0 0 0  0 0 0
0 0 0  0 0 0  0 0 0  0 0 0  0 0 0  0 0 0
0 0 0  0 0 0  0 0 0  0 0 0  0 0 0  0 0 0
0 0 0  0 0 0  0 0 0  0 0 0  0 0 0  0 0 0
0 0 0  0 0 0  0 0 0  0 0 0  0 0 0  0 0 0
0 0 0  0 0 0  0 0 0  0 0 0  0 0 0  9 22 41
32 78 148  33 81 153  33 81 153  33 81 153  33 81 153  21 53 100
0 1 1  0 0 0  0 0 0  0 0 0  0 0 0  5 11 21
29 72 136  33 81 153  33 81 153  33 81 153  33 81 153  24 60 113
1 3 5  0 0 0  0 0 0  0 0 0  0 0 0  0 0 0
0 0 0  0 0 0  0 0 0  0 0 0  0 0 0  0 0 0
0 0 0  0 0 0  0 0 0  0 0 0  0 0 0  0 0 0
0 0 0  0 0 0  0 0 0  0 0 0  0 0 0  0 0 0
0 0 0  0 0 0  0 0 0  16 40 75  33 81 153  33 81 153
18 44 83  0 0 0  0 0 0  0 0 0  0 0 0  0 0 0
0 0 0  1 3 5  10 26 49  10 26 49  1 3 5  0 0 0
0 0 0  0 0 0  0 0 0  0 0 0  0 0 0  0 0 0
0 0 0  0 0 0  0 0 0  0 0 0  0 0 0  0 0 0
0 0 0  0 0 0  0 0 0  0 0 0  0 0 0  0 0 0
0 0 0  0 0 0  0 0 0  0 0 0  0 0 0  0 0 0
0 0 0  0 0 0  0 0 0  0 0 0  0 0 0  0 0 0
0 0 0  15 38 71  33 80 152  33 81 153  32 79 149  12 28 53
0 0 0  0 0 0  0 0 0  0 0 0  0 0 0  10 24 44
32 78 148  33 81 153  31 77 145  8 20 37  0 0 0  0 0 0
0 0 0  0 0 0  0 0 0  0 0 0  0 0 0  0 0 0
0 0 0  0 0 0  0 0 0  0 0 0  0 0 0  0 0 0
0 0 0  0 0 0  0 0 0  0 0 0  0 0 0  0 0 0
0 0 0  0 0 0  0 0 0  0 0 0  0 0 0  0 0 0
1 3 5  0 0 0  0 0 0  0 0 0  0 0 0  0 0 0
0 0 0  0 0 0  0 0 0  0 0 0  0 1 2  0 0 0
0 0 0  0 0 0  0 0 0  0 0 0  0 0 0  0 0 0
0 0 0  0 0 0  0 0 0  0 0 0  0 0 0  0 0 0
0 0 0  0 0 0  0 0 0  0 0 0  0 0 0  0 0 0
0 0 0  0 0 0  0 0 0  0 0 0  0 0 0  0 0 0
0 0 0  0 0 0  0 0 0  0 0 0  0 0 0  0 0 0
0 0 0  0 0 0  0 0 0  0 0 0  17 41 78  33 81 153
33 81 153  20 49 92  0 0 0  0 0 0  0 0 0  0 0 0
0 0 0  0 0 0  0 0 0  0 0 0  0 0 0  0 0 0
0 0 0  0 0 0  0 0 0  0 0 0  0 0 0  0 0 0
0 0 0  0 0 0  0 0 0  0 0 0  0 0 0  0 0 0
5 13 24  30 74 139  33 81 153  26 64 121  2 4 8  0 0 0
0 0 0  0 0 0  0 0 0  0 0 0  0 0 0  0 0 0
0 0 0  0 0 0  0 0 0  0 0 0  0 0 0  0 0 0
0 0 0  0 0 0  0 0 0  0 0 0  0 0 0  0 0 0
0 0 0  0 0 0  0 0 0  0 0 0  0 0 0  0 0 0
0 0 0  0 0 0  0 0 0  0 0 0  0 0 0  0 0 0
0 0 0  0 0 0  0 0 0  0 0 0  0 0 0  0 0 0
0 0 0  0 0 0  0 0 0  0 0 0  0 0 0  0 0 0
0 0 0  0 0 0  0 0 0  0 0 0  0 0 0  0 0 0
4 10 20  29 72 136  33 81 153  31 76 143  6 16 30  0 0 0
0 0 0  0 0 0  0 0 0  0 0 0  0 0 0  5 13 25
27 65 123  33 81 153  33 81 153  24 59 112  2 4 7  0 0 0
0 0 0  0 0 0  0 0 0  0 0 0  0 0 0  0 0 0
0 0 0  0 0 0  0 0 0  0 0 0  0 0 0  0 0 0
0 0 0  0 0 0  0 0 0  0 0 0  0 0 0  0 0 0
0 0 0  0 0 0  0 0 0  0 0 0  0 0 0  0 0 0
0 0 0  0 0 0  0 0 0  0 0 0  0 0 0  0 0 0
0 0 0  0 0 0  0 0 0  0 0 0  0 0 0  0 0 0
0 0 0  0 0 0  0 0 0  0 0 0  0 0 0  0 0 0
8 19 37  32 78 147  33 81 153  30 75 141
0 0 0  14 33 63  33 81 153  33 81 153  33 81 153  33 81 153
33 81 153  33 81 153  33 81 153  33 81 153  33 81 153  33 81 153
33 81 153  33 81 153  33 81 153  33 81 153  33 81 153  33 81 153
33 81 153  33 81 153  33 81 153  33 81 153  33 81 153  33 81 153
33 81 153  14 35 66  0 0 0  0 0 0  0 0 0  0 0 0
0 0 0  0 0 0  0 0 0  0 0 0  0 0 0  0 0 0
0 0 0  0 0 0  0 0 0  0 0 0  0 0 0  0 0 0
0 0 0  0 0 0  0 0 0  0 0 0  0 0 0  0 0 0
0 0 0  0 0 0  0 0 0  0 0 0  0 0 0  0 0 0
0 0 0  0 0 0  0 0 0  0 0 0  0 0 0  0 0 0
0 0 0  0 0 0  0 0 0  0 0 0  0 0 0  0 0 0
0 0 0  0 0 0  0 0 0  0 0 0  0 0 0  0 0 0
0 0 0  0 0 0  0 0 0  0 0 0  0 0 0  0 0 0
0 0 0  0 0 0  0 0 0  0 0 0  0 0 0  0 0 0
0 0 0  0 0 0  0 0 0  0 0 0  0 0 0  0 0 0
0 0 0  13 32 61  33 81 153  33 81 153  33 81 153  33 81 153
33 81 153  33 81 153  33 81 153  33 81 153  33 81 153  33 81 153
33 81 153  33 81 153  33 81 153  33 81 153  33 81 153  33 81 153
33 81 153  33 81 153  33 81 153  33 81 153  33 81 153  33 81 153
33 81 153  14 35 67  0 0 0  0 0 0  0 0 0  0 0 0
0 0 0  0 0 0  0 0 0  0 0 0  0 0 0  0 0 0
0 0 0  0 0 0  0 0 0  0 0 0  0 0 0  0 0 0
0 0 0  0 0 0  0 0 0  0 0 0  0 0 0  0 0 0
0 0 0  0 0 0  0 0 0  0 0 0  0 0 0  0 0 0
0 0 0  0 0 0  0 0 0  0 0 0  0 0 0  0 0 0
0 0 0  0 0 0  0 0 0  0 0 0  0 0 0  0 0 0
0 0 0  0 0 0  0 0 0  0 0 0  0 0 0  1 1 2
23 57 107  33 81 153  33 81 153  33 81 153  33 81 153  33 81 153
33 81 153  33 81 153  33 81 153  33 81 153  33 81 153  33 81 153
33 81 153  33 81 153  33 81 153  33 81 153  33 81 153  33 81 153
33 81 153  33 81 153  33 81 153  33 81 153  33 81 153  17 41 77
0 0 0  0 0 0  0 0 0  0 0 0  0 0 0  0 0 0
0 0 0  0 0 0  0 0 0  0 0 0  0 0 0  0 0 0
0 0 0  0 0 0  0 0 0  0 0 0  0 0 0  0 0 0
0 0 0  0 0 0  0 0 0  0 0 0  0 0 0  0 0 0
0 0 0  0 0 0  0 0 0  0 0 0  0 0 0  0 0 0
0 0 0  0 0 0  0 0 0  0 0 0  0 0 0  0 0 0
0 0 0  0 0 0  0 0 0  0 0 0  0 0 0  0 0 0
0 0 0  0 0 0  0 0 0  0 0 0  0 0 0  0 0 0
0 0 0  0 0 0  0 0 0  0 0 0  0 0 0  0 0 0
0 0 0  0 0 0  6 14 27  31 75 142  33 81 153  33 81 153
33 81 153  33 81 153  33 81 153  33 81 153  33 81 153  33 81 153
33 81 153  33 81 153  33 81 153  33 81 153  33 81 153  33 81 153
33 81 153  33 81 153  33 81 153  33 81 153  33 81 153  33 81 153
33 81 153  31 77 145  7 17 32  0 0 0  0 0 0  0 0 0
0 0 0  0 0 0  0 0 0  0 0 0  0 0 0  0 0 0
0 0 0  0 0 0  0 0 0  0 0 0  0 0 0  0 0 0
2 5 9  26 64 121  33 81 153  33 81 153  33 81 153  33 81 153
33 81 153  33 81 153  33 81 153  33 81 153  33 81 153  33 81 153
33 81 153  33 81 153  33 81 153  33 81 153  33 81 153  33 81 153
33 81 153  33 81 153  33 81 153  33 81 153  33 81 153  29 72 136
4 11 20  0 0 0  0 0 0  0 0 0  0 0 0  0 0 0
0 0 0  0 0 0  0 0 0  0 0 0  0 0 0  0 0 0
0 0 0  0 0 0  0 0 0  0 0 0  0 0 0  0 0 0
0 0 0  0 0 0  0 0 0  0 0 0  0 0 0  0 0 0
0 0 0  0 0 0  0 0 0  0 0 0  0 0 0  0 0 0
0 0 0  0 0 0  0 0 0  0 0 0  0 0 0  0 0 0
0 0 0  0 0 0  0 0 0  0 0 0  0 0 0  0 0 0
0 0 0  0 0 0  0 0 0  0 0 0  0 0 0  0 0 0
0 0 0  2 6 11  27 66 125  33 81 153  33 81 153  33 81 153
33 81 153  33 81 153  33 81 153  33 81 153  33 81 153  33 81 153
33 81 153  33 81 153  33 81 153  33 81 153  33 81 153  33 81 153
33 81 153  33 81 153  33 81 153  33 81 153  33 81 153  33 81 153
33 81 153  33 81 153  33 81 153  25 61 116  1 3 6  0 0 0
0 0 0  0 0 0  0 0 0  0 0 0  0 0 0  0 0 0
0 0 0  0 0 0  0 0 0  0 0 0  0 0 0  0 0 0
0 0 0  0 0 0  0 0 0  0 0 0  0 0 0  0 0 0
0 0 0  0 0 0  0 0 0  0 0 0  0 0 0  0 0 0
0 0 0  0 0 0  0 0 0  0 0 0  0 0 0  0 0 0
0 0 0  0 0 0  0 0 0  0 0 0  0 0 0  0 0 0
0 0 0  0 0 0  0 0 0  0 0 0  0 0 0  14 34 64
33 81 153  33 81 153  33 81 153  33 81 153  33 81 153  26 63 119
2 4 8  0 0 0  0 0 0  0 0 0  0 0 0  11 27 50
32 80 151  33 81 153  33 81 153  33 81 153  33 81 153  27 67 127
3 7 13  0 0 0  0 0 0  0 0 0  0 0 0  0 0 0
0 0 0  0 0 0  0 0 0  0 0 0  0 0 0  0 0 0
1 3 6  7 17 32  13 31 58  16 38 72  15 37 69  10 25 47
4 9 17  0 0 0  0 0 0  0 0 0  0 0 0  0 0 0
0 0 0  0 0 0  0 0 0  17 41 78  33 81 153  33 81 153
17 42 80  0 0 0  0 0 0  0 0 0  0 0 0  0 0 0
1 2 4  17 41 77  32 79 149  32 79 149  13 31 59  0 0 0
0 0 0  0 0 0  0 0 0  0 0 0  0 0 0  0 0 0
0 0 0  2 6 11  9 22 42  14 35 67  16 39 74  15 37 70
12 29 55  6 15 29  1 2 4  0 0 0  0 0 0  0 0 0
0 0 0  0 0 0  0 0 0  0 0 0  0 0 0  0 0 0
0 0 0  0 0 0  0 0 0  0 0 0  0 0 0  0 0 0
0 0 0  2 5 10  24 59 112  33 81 153  33 81 153  26 64 120
3 7 13  0 0 0  0 0 0  0 0 0  0 1 2  21 51 96
33 81 153  33 81 153  24 59 111  1 3 6  0 0 0  0 0 0
0 0 0  0 0 0  0 0 0  0 0 0  0 0 0  0 0 0
0 0 0  0 0 0  2 4 8  7 17 32  11 28 52  13 31 59
10 25 47  4 10 19  0 0 0  0 0 0  0 0 0  0 0 0
0 0 0  0 0 0  0 0 0  0 0 0  0 0 1  13 32 61
25 61 115  15 37 71  1 2 4  0 0 0  0 0 0  0 0 0
0 0 0  0 0 0  1 1 2  14 33 63  22 55 103  11 27 52
0 0 1  0 0 0  0 0 0  0 0 0  0 0 0  2 4 8
10 24 46  7 18 34  0 1 1  0 0 0  0 0 0  3 7 14
10 25 47  17 41 77  20 49 92  18 45 85  7 17 32  0 0 0
0 0 0  0 0 0  0 0 0  0 0 0  0 0 0  0 0 0
0 0 0  0 0 0  0 0 0  0 0 0  0 0 0  0 0 0
0 0 0  0 0 0  0 0 0  0 0 0  19 46 86  33 81 153
33 81 153  19 45 86  0 0 0  0 0 0  0 0 0  0 0 0
0 0 0  0 0 0  0 0 0  0 0 0  0 0 0  0 0 0
0 0 0  0 0 0  0 0 0  0 0 0  0 0 0  2 5 10
8 20 38  13 33 62  15 37 71  14 35 66  10 24 44  2 5 9
6 14 26  31 75 142  33 81 153  24 59 112  1 3 5  0 0 0
0 0 0  0 0 0  0 0 0  0 0 0  0 0 0  0 0 0
0 0 0  2 4 8  8 20 38  14 34 65  16 39 74  15 38 71
12 30 58  7 17 32  1 3 7  0 0 0  0 0 0  0 0 0
0 0 0  0 0 0  0 0 0  0 0 0  0 0 0  0 0 0
0 0 0  0 0 0  0 0 0  4 10 18  10 25 47  14 35 67
16 39 73  13 31 59  7 17 31  1 3 5  0 0 0  0 0 0
0 0 0  0 0 0  0 0 0  0 0 0  0 0 0  0 0 0
0 0 0  0 0 0  0 0 0  0 0 0  0 0 0  0 0 0
4 10 20  29 72 136  33 81 153  31 76 143  6 16 30  0 0 0
0 0 0  0 0 0  0 0 0  0 0 0  0 0 0  0 0 0
10 24 46  32 78 146  33 81 153  31 76 144  7 18 34  0 0 0
0 0 0  0 0 0  0 0 0  0 0 0  0 0 0  0 0 0
0 0 0  0 0 0  3 8 14  10 24 46  15 37 69  16 39 74
15 37 69  11 27 52  5 13 25  1 1 2  0 0 0  0 0 0
0 0 0  0 0 0  0 0 0  0 0 0  0 0 0  0 0 0
0 0 0  0 0 0  0 0 0  1 2 3  6 14 26  12 28 53
15 37 70  15 38 71  11 28 52  5 12 23  0 1 2  0 0 0
0 0 0  0 0 0  0 0 0  0 0 0  0 0 0  0 0 0
8 21 39  32 78 148  33 81 153  30 73 139
0 0 0  16 40 75  33 81 153  33 81 153  33 81 153  33 81 153
33 81 153  33 81 153  33 81 153  33 81 153  33 81 153  33 81 153
33 81 153  33 81 153  33 81 153  33 81 153  33 81 153  33 81 153
33 81 153  33 81 153  33 81 153  33 81 153  33 81 153  33 81 153
33 81 152  12 30 56  0 0 0  0 0 0  0 0 0  0 0 0
0 0 0  0 0 0  0 0 0  0 0 0  0 0 0  0 0 0
0 0 0  0 0 0  0 0 0  0 0 0  0 0 0  0 0 0
0 0 0  0 0 0  0 0 0  0 0 0  0 0 0  0 0 0
0 0 0  0 0 0  0 0 0  0 0 0  0 0 0  0 0 0
0 0 0  0 0 0  0 0 0  0 0 0  0 0 0  0 0 0
0 0 0  0 0 0  0 0 0  0 0 0  0 0 0  0 0 0
0 0 0  0 0 0  0 0 0  0 0 0  0 0 0  0 0 0
0 0 0  0 0 0  0 0 0  0 0 0  0 0 0  0 0 0
0 0 0  0 0 0  0 0 0  0 0 0  0 0 0  0 0 0
0 0 0  0 0 0  0 0 0  0 0 0  0 0 0  0 0 0
0 0 0  11 27 52  33 80 152  33 81 153  33 81 153  33 81 153
33 81 153  33 81 153  33 81 153  33 81 153  33 81 153  33 81 153
33 81 153  33 81 153  33 81 153  33 81 153  33 81 153  33 81 153
33 81 153  33 81 153  33 81 153  33 81 153  33 81 153  33 81 153
33 81 153  17 42 80  0 0 0  0 0 0  0 0 0  0 0 0
0 0 0  0 0 0  0 0 0  0 0 0  0 0 0  0 0 0
0 0 0  0 0 0  0 0 0  0 0 0  0 0 0  0 0 0
0 0 0  0 0 0  0 0 0  0 0 0  0 0 0  0 0 0
0 0 0  0 0 0  0 0 0  0 0 0  0 0 0  0 0 0
0 0 0  0 0 0  0 0 0  0 0 0  0 0 0  0 0 0
0 0 0  0 0 0  0 0 0  0 0 0  0 0 0  0 0 0
0 0 0  0 0 0  0 0 0  0 0 0  0 0 0  1 1 2
23 57 107  33 81 153  33 81 153  33 81 153  33 81 153  33 81 153
33 81 153  33 81 153  33 81 153  33 81 153  33 81 153  33 81 153
33 81 153  33 81 153  33 81 153  33 81 153  33 81 153  33 81 153
33 81 153  33 81 153  33 81 153  33 81 153  33 81 153  17 41 77
0 0 0  0 0 0  0 0 0  0 0 0  0 0 0  0 0 0
0 0 0  0 0 0  0 0 0  0 0 0  0 0 0  0 0 0
0 0 0  0 0 0  0 0 0  0 0 0  0 0 0  0 0 0
0 0 0  0 0 0  0 0 0  0 0 0  0 0 0  0 0 0
0 0 0  0 0 0  0 0 0  0 0 0  0 0 0  0 0 0
0 0 0  0 0 0  0 0 0  0 0 0  0 0 0  0 0 0
0 0 0  0 0 0  0 0 0  0 0 0  0 0 0  0 0 0
0 0 0  0 0 0  0 0 0  0 0 0  0 0 0  0 0 0
0 0 0  0 0 0  0 0 0  0 0 0  0 0 0  0 0 0
0 0 0  0 0 0  6 14 27  31 75 142  33 81 153  33 81 153
33 81 153  33 81 153  33 81 153  33 81 153  33 81 153  33 81 153
33 81 153  33 81 153  33 81 153  33 81 153  33 81 153  33 81 153
33 81 153  33 81 153  33 81 153  33 81 153  33 81 153  33 81 153
33 81 153  31 77 145  7 17 32  0 0 0  0 0 0  0 0 0
0 0 0  0 0 0  0 0 0  0 0 0  0 0 0  0 0 0
0 0 0  0 0 0  0 0 0  0 0 0  0 0 0  0 0 0
2 5 9  26 64 121  33 81 153  33 81 153  33 81 153  33 81 153
33 81 153  33 81 153  33 81 153  33 81 153  33 81 153  33 81 153
33 81 153  33 81 153  33 81 153  33 81 153  33 81 153  33 81 153
33 81 153  33 81 153  33 81 153  33 81 153  33 81 153  29 72 136
4 11 20  0 0 0  0 0 0  0 0 0  0 0 0  0 0 0
0 0 0  0 0 0  0 0 0  0 0 0  0 0 0  0 0 0
0 0 0  0 0 0  0 0 0  0 0 0  0 0 0  0 0 0
0 0 0  0 0 0  0 0 0  0 0 0  0 0 0  0 0 0
0 0 0  0 0 0  0 0 0  0 0 0  0 0 0  0 0 0
0 0 0  0 0 0  0 0 0  0 0 0  0 0 0  0 0 0
0 0 0  0 0 0  0 0 0  0 0 0  0 0 0  0 0 0
0 0 0  0 0 0  0 0 0  0 0 0  0 0 0  0 0 0
0 0 0  1 2 4  23 57 108  33 81 153  33 81 153  33 81 153
33 81 153  33 81 153  33 81 153  33 81 153  33 81 153  33 81 153
33 81 153  33 81 153  33 81 153  33 81 153  33 81 153  33 81 153
33 81 153  33 81 153  33 81 153  33 81 153  33 81 153  33 81 153
33 81 153  33 81 153  33 81 153  27 67 127  3 6 12  0 0 0
0 0 0  0 0 0  0 0 0  0 0 0  0 0 0  0 0 0
0 0 0  0 0 0  0 0 0  0 0 0  0 0 0  0 0 0
0 0 0  0 0 0  0 0 0  0 0 0  0 0 0  0 0 0
0 0 0  0 0 0  0 0 0  0 0 0  0 0 0  0 0 0
0 0 0  0 0 0  0 0 0  0 0 0  0 0 0  0 0 0
0 0 0  0 0 0  0 0 0  0 0 0  0 0 0  0 0 0
0 0 0  0 0 0  0 0 0  0 0 0  0 0 0  19 47 89
33 81 153  33 81 153  31 75 142  32 79 149  33 81 153  29 72 136
4 11 20  0 0 0  0 0 0  0 0 0  0 0 0  19 46 86
33 81 153  33 81 153  28 70 132  30 75 141  33 81 153  30 74 139
5 13 24  0 0 0  0 0 0  0 0 0  0 0 0  0 0 0
0 0 0  0 0 0  0 0 0  0 0 0  0 1 1  9 23 44
23 57 109  31 76 143  33 81 153  33 81 153  33 81 153  32 79 150
28 69 130  17 43 80  3 9 16  0 0 0  0 0 0  0 0 0
0 0 0  0 0 0  0 0 0  17 43 80  33 81 153  33 81 153
17 41 77  0 0 0  0 0 0  0 0 0  0 0 0  1 2 3
16 39 74  32 79 149  33 81 153  33 81 153  16 40 75  0 0 0
0 0 0  0 0 0  0 0 0  0 0 0  0 0 0  0 1 1
10 25 48  25 63 118  32 78 148  33 81 153  33 81 153  33 81 153
33 81 152  30 75 141  22 54 103  7 17 31  0 0 0  0 0 0
0 0 0  0 0 0  0 0 0  0 0 0  0 0 0  0 0 0
0 0 0  0 0 0  0 0 0  0 0 0  0 0 0  0 0 0
0 0 0  0 0 0  9 22 41  31 76 144  33 81 153  33 80 152
13 33 62  0 0 0  0 0 0  0 0 0  6 14 26  30 73 137
33 81 153  33 80 152  13 32 60  0 0 0  0 0 0  0 0 0
0 0 0  0 0 0  0 0 0  0 0 0  0 0 0  0 0 0
1 2 3  11 27 52  25 61 115  31 76 144  33 80 152  33 81 153
32 79 150  28 70 131  15 36 68  1 3 5  0 0 0  0 0 0
0 0 0  0 0 0  0 0 0  0 0 0  3 7 14  28 68 128
33 81 153  30 74 140  5 13 24  0 0 0  0 0 0  0 0 0
0 0 0  0 0 0  5 11 21  30 72 137  33 81 153  27 67 127
3 7 13  0 0 0  0 0 0  0 0 0  0 0 0  12 30 58
32 79 150  29 71 135  6 14 27  1 3 6  14 34 64  27 66 124
32 79 149  33 81 153  33 81 153  33 81 153  27 66 125  4 10 18
0 0 0  0 0 0  0 0 0  0 0 0  0 0 0  0 0 0
0 0 0  0 0 0  0 0 0  0 0 0  0 0 0  0 0 0
0 0 0  0 0 0  0 0 0  0 0 0  20 49 93  33 81 153
33 81 153  17 42 80  0 0 0  0 0 0  0 0 0  0 0 0
0 0 0  0 0 0  0 0 0  0 0 0  0 0 0  0 0 0
0 0 0  0 0 0  0 0 0  1 2 4  12 29 55  26 63 119
32 78 147  33 81 153  33 81 153  33 81 153  32 79 149  24 59 111
14 35 65  31 76 144  33 81 153  22 54 103  0 1 2  0 0 0
0 0 0  0 0 0  0 0 0  0 0 0  0 0 0  0 0 0
8 20 38  24 58 110  31 77 146  33 81 153  33 81 153  33 81 153
33 81 153  31 76 143  24 58 110  9 21 40  0 0 0  0 0 0
0 0 0  0 0 0  0 0 0  0 0 0  0 0 0  0 0 0
0 0 0  4 9 17  17 42 80  28 69 131  32 79 150  33 81 153
33 81 153  33 81 153  31 75 142  23 57 109  10 24 44  0 1 1
0 0 0  0 0 0  0 0 0  0 0 0  0 0 0  0 0 0
0 0 0  0 0 0  0 0 0  0 0 0  0 0 0  0 0 0
5 13 25  30 74 140  33 81 153  30 74 140  5 13 25  0 0 0
0 0 0  0 0 0  0 0 0  0 0 0  0 0 0  0 0 0
2 4 8  26 63 119  33 81 153  33 81 153  12 30 57  0 0 0
0 0 0  0 0 0  0 0 0  0 0 0  0 0 0  0 0 0
1 2 4  13 31 59  27 66 125  32 79 149  33 81 153  33 81 153
33 81 153  33 80 151  30 73 138  20 49 93  5 11 22  0 0 0
0 0 0  0 0 0  0 0 0  0 0 0  0 0 0  0 0 0
0 0 0  0 0 0  7 17 31  21 51 97  30 73 139  33 80 152
33 81 153  33 81 153  33 80 151  29 72 136  20 49 93  6 14 26
0 0 0  0 0 0  0 0 0  0 0 0  0 0 0  0 0 0
9 22 41  32 79 149  33 81 153  29 72 136
0 0 0  19 46 88  33 81 153  33 81 153  33 81 153  33 81 153
33 81 153  33 81 153  33 81 153  33 81 153  33 81 153  33 81 153
33 81 153  33 81 153  33 81 153  33 81 153  33 81 153  33 81 153
33 81 153  33 81 153  33 81 153  33 81 153  33 81 153  33 81 153
32 80 151  10 25 47  0 0 0  0 0 0  0 0 0  0 0 0
0 0 0  0 0 0  0 0 0  0 0 0  0 0 0  0 0 0
0 0 0  0 0 0  0 0 0  0 0 0  0 0 0  0 0 0
0 0 0  0 0 0  0 0 0  0 0 0  0 0 0  0 0 0
0 0 0  0 0 0  0 0 0  0 0 0  0 0 0  0 0 0
0 0 0  0 0 0  0 0 0  0 0 0  0 0 0  0 0 0
0 0 0  0 0 0  0 0 0  0 0 0  0 0 0  0 0 0
0 0 0  0 0 0  0 0 0  0 0 0  0 0 0  0 0 0
0 0 0  0 0 0  0 0 0  0 0 0  0 0 0  0 0 0
0 0 0  0 0 0  0 0 0  0 0 0  0 0 0  0 0 0
0 0 0  0 0 0  0 0 0  0 0 0  0 0 0  0 0 0
0 0 0  9 23 43  32 79 149  33 81 153  33 81 153  33 81 153
33 81 153  33 81 153  33 81 153  33 81 153  33 81 153  33 81 153
33 81 153  33 81 153  33 81 153  33 81 153  33 81 153  33 81 153
33 81 153  33 81 153  33 81 153  33 81 153  33 81 153  33 81 153
33 81 153  20 49 92  0 0 0  0 0 0  0 0 0  0 0 0
0 0 0  0 0 0  0 0 0  0 0 0  0 0 0  0 0 0
0 0 0  0 0 0  0 0 0  0 0 0  0 0 0  0 0 0
0 0 0  0 0 0  0 0 0  0 0 0  0 0 0  0 0 0
0 0 0  0 0 0  0 0 0  0 0 0  0 0 0  0 0 0
0 0 0  0 0 0  0 0 0  0 0 0  0 0 0  0 0 0
0 0 0  0 0 0  0 0 0  0 0 0  0 0 0  0 0 0
0 0 0  0 0 0  0 0 0  0 0 0  0 0 0  1 1 2
23 57 107  33 81 153  33 81 153  33 81 153  33 81 153  33 81 153
33 81 153  33 81 153  33 81 153  33 81 153  33 81 153  33 81 153
33 81 153  33 81 153  33 81 153  33 81 153  33 81 153  33 81 153
33 81 153  33 81 153  33 81 153  33 81 153  33 81 153  17 41 77
0 0 0  0 0 0  0 0 0  0 0 0  0 0 0  0 0 0
0 0 0  0 0 0  0 0 0  0 0 0  0 0 0  0 0 0
0 0 0  0 0 0  0 0 0  0 0 0  0 0 0  0 0 0
0 0 0  0 0 0  0 0 0  0 0 0  0 0 0  0 0 0
0 0 0  0 0 0  0 0 0  0 0 0  0 0 0  0 0 0
0 0 0  0 0 0  0 0 0  0 0 0  0 0 0  0 0 0
0 0 0  0 0 0  0 0 0  0 0 0  0 0 0  0 0 0
0 0 0  0 0 0  0 0 0  0 0 0  0 0 0  0 0 0
0 0 0  0 0 0  0 0 0  0 0 0  0 0 0  0 0 0
0 0 0  0 0 0  6 14 27  31 75 142  33 81 153  33 81 153
33 81 153  33 81 153  33 81 153  33 81 153  33 81 153  33 81 153
33 81 153  33 81 153  33 81 153  33 81 153  33 81 153  33 81 153
33 81 153  33 81 153  33 81 153  33 81 153  33 81 153  33 81 153
33 81 153  31 77 145  7 17 32  0 0 0  0 0 0  0 0 0
0 0 0  0 0 0  0 0 0  0 0 0  0 0 0  0 0 0
0 0 0  0 0 0  0 0 0  0 0 0  0 0 0  0 0 0
2 5 9  26 64 121  33 81 153  33 81 153  33 81 153  33 81 153
33 81 153  33 81 153  33 81 153  33 81 153  33 81 153  33 81 153
33 81 153  33 81 153  33 81 153  33 81 153  33 81 153  33 81 153
33 81 153  33 81 153  33 81 153  33 81 153  33 81 153  29 72 136
4 11 20  0 0 0  0 0 0  0 0 0  0 0 0  0 0 0
0 0 0  0 0 0  0 0 0  0 0 0  0 0 0  0 0 0
0 0 0  0 0 0  0 0 0  0 0 0  0 0 0  0 0 0
0 0 0  0 0 0  0 0 0  0 0 0  0 0 0  0 0 0
0 0 0  0 0 0  0 0 0  0 0 0  0 0 0  0 0 0
0 0 0  0 0 0  0 0 0  0 0 0  0 0 0  0 0 0
0 0 0  0 0 0  0 0 0  0 0 0  0 0 0  0 0 0
0 0 0  0 0 0  0 0 0  0 0 0  0 0 0  0 0 0
0 0 0  0 0 0  19 48 90  33 81 153  33 81 153  33 81 153
33 81 153  33 81 153  33 81 153  33 81 153  33 81 153  33 81 153
33 81 153  33 81 153  33 81 153  33 81 153  33 81 153  33 81 153
33 81 153  33 81 153  33 81 153  33 81 153  33 81 153  33 81 153
33 81 153  33 81 153  33 81 153  29 71 135  4 10 19  0 0 0
0 0 0  0 0 0  0 0 0  0 0 0  0 0 0  0 0 0
0 0 0  0 0 0  0 0 0  0 0 0  0 0 0  0 0 0
0 0 0  0 0 0  0 0 0  0 0 0  0 0 0  0 0 0
0 0 0  0 0 0  0 0 0  0 0 0  0 0 0  0 0 0
0 0 0  0 0 0  0 0 0  0 0 0  0 0 0  0 0 0
0 0 0  0 0 0  0 0 0  0 0 0  0 0 0  0 0 0
0 0 0  0 0 0  0 0 0  0 0 0  1 3 5  24 59 112
33 81 153  33 81 153  22 54 101  29 71 135  33 81 153  32 78 148
9 21 40  0 0 0  0 0 0  0 0 0  2 5 10  26 64 121
33 81 153  33 81 153  17 42 80  26 63 119  33 81 153  32 78 148
9 21 40  0 0 0  0 0 0  0 0 0  0 0 0  0 0 0
0 0 0  0 0 0  0 0 0  1 3 5  16 40 75  31 77 145
33 81 153  33 81 153  33 81 153  33 81 152  33 81 153  33 81 153
33 81 153  33 81 153  23 56 106  2 4 8  0 0 0  0 0 0
0 0 0  0 0 0  0 0 0  18 44 83  33 81 153  33 81 153
16 39 74  0 0 0  0 0 0  0 0 0  0 1 2  15 38 71
32 78 148  33 81 153  33 81 153  25 62 117  4 10 19  0 0 0
0 0 0  0 0 0  0 0 0  0 0 0  0 0 1  13 33 62
31 76 144  33 81 153  33 81 153  33 81 153  33 80 152  33 81 153
33 81 153  33 81 153  33 81 153  27 67 127  5 13 25  0 0 0
0 0 0  0 0 0  0 0 0  0 0 0  0 0 0  0 0 0
0 0 0  0 0 0  0 0 0  0 0 0  0 0 0  0 0 0
0 0 0  0 0 0  1 1 2  21 51 97  33 81 153  33 81 153
25 62 117  2 5 9  0 0 0  0 0 0  16 39 73  33 81 153
33 81 153  28 69 130  4 10 18  0 0 0  0 0 0  0 0 0
0 0 0  0 0 0  0 0 0  0 0 0  0 0 0  1 2 4
17 41 77  32 78 147  33 81 153  33 81 153  33 81 153  33 81 153
33 81 153  33 81 153  32 80 151  16 39 73  0 1 1  0 0 0
0 0 0  0 0 0  0 0 0  0 0 0  6 15 28  31 75 142
33 81 153  30 74 139  5 13 24  0 0 0  0 0 0  0 0 0
0 0 0  0 0 0  8 18 35  31 77 146  33 81 153  28 69 130
3 8 14  0 0 0  0 0 0  0 0 0  0 0 0  17 42 79
33 81 153  33 81 152  17 41 77  21 52 99  33 80 151  33 81 153
33 81 153  33 81 153  33 81 152  33 81 153  33 80 152  12 28 53
0 0 0  0 0 0  0 0 0  0 0 0  0 0 0  0 0 0
0 0 0  0 0 0  0 0 0  0 0 0  0 0 0  0 0 0
0 0 0  0 0 0  0 0 0  0 0 1  21 52 99  33 81 153
33 81 153  16 40 75  0 0 0  0 0 0  0 0 0  0 0 0
0 0 0  0 0 0  0 0 0  0 0 0  0 0 0  0 0 0
0 0 0  0 0 0  1 3 5  17 43 81  32 78 148  33 81 153
33 81 153  33 81 153  33 81 153  33 81 153  33 81 153  33 81 153
32 78 146  33 80 152  33 81 153  20 49 92  0 0 0  0 0 0
0 0 0  0 0 0  0 0 0  0 0 0  0 0 0  11 26 49
30 73 138  33 81 153  33 81 153  33 81 153  33 81 152  33 81 153
33 81 153  33 81 153  33 81 153  30 72 137  8 19 37  0 0 0
0 0 0  0 0 0  0 0 0  0 0 0  0 0 0  0 0 0
7 17 32  26 63 119  33 81 153  33 81 153  33 81 153  33 81 153
33 80 152  33 81 153  33 81 153  33 81 153  31 76 143  10 25 47
0 0 0  0 0 0  0 0 0  0 0 0  0 0 0  0 0 0
0 0 0  0 0 0  0 0 0  0 0 0  0 0 0  0 0 0
7 17 33  31 77 145  33 81 153  29 71 133  4 10 18  0 0 0
0 0 0  0 0 0  0 0 0  0 0 0  0 0 0  0 0 0
1 3 5  24 60 113  33 81 153  33 81 153  14 34 64  0 0 0
0 0 0  0 0 0  0 0 0  0 0 0  0 0 0  1 2 3
17 41 77  32 79 149  33 81 153  33 81 153  33 81 153  33 80 152
33 81 153  33 81 153  33 81 153  33 81 153  25 61 115  3 8 14
0 0 0  0 0 0  0 0 0  0 0 0  0 0 0  0 0 0
0 0 1  12 30 56  29 72 136  33 81 153  33 81 153  33 81 153
33 81 153  33 80 152  33 81 153  33 81 153  33 81 153  27 66 125
5 11 21  0 0 0  0 0 0  0 0 0  0 0 0  0 0 0
9 22 42  32 79 149  33 81 153  29 71 135
0 1 1  21 53 100  33 81 153  33 81 153  33 81 153  33 81 153
33 81 153  33 81 153  33 81 153  33 81 153  33 81 153  33 81 153
33 81 153  33 81 153  33 81 153  33 81 153  33 81 153  33 81 153
33 81 153  33 81 153  33 81 153  33 81 153  33 81 153  33 81 153
32 78 148  8 21 39  0 0 0  0 0 0  0 0 0  0 0 0
0 0 0  0 0 0  0 0 0  0 0 0  0 0 0  0 0 0
0 0 0  0 0 0  0 0 0  0 0 0  0 0 0  0 0 0
0 0 0  0 0 0  0 0 0  0 0 0  0 0 0  0 0 0
0 0 0  0 0 0  0 0 0  0 0 0  0 0 0  0 0 0
0 0 0  0 0 0  0 0 0  0 0 0  0 0 0  0 0 0
0 0 0  0 0 0  0 0 0  0 0 0  0 0 0  0 0 0
0 0 0  0 0 0  0 0 0  0 0 0  0 0 0  0 0 0
0 0 0  0 0 0  0 0 0  0 0 0  0 0 0  0 0 0
0 0 0  0 0 0  0 0 0  0 0 0  0 0 0  0 0 0
0 0 0  0 0 0  0 0 0  0 0 0  0 0 0  0 0 0
0 0 0  8 18 35  31 77 146  33 81 153  33 81 153  33 81 153
33 81 153  33 81 153  33 81 153  33 81 153  33 81 153  33 81 153
33 81 153  33 81 153  33 81 153  33 81 153  33 81 153  33 81 153
33 81 153  33 81 153  33 81 153  33 81 153  33 81 153  33 81 153
33 81 153  23 55 104  1 1 2  0 0 0  0 0 0  0 0 0
0 0 0  0 0 0  0 0 0  0 0 0  0 0 0  0 0 0
0 0 0  0 0 0  0 0 0  0 0 0  0 0 0  0 0 0
0 0 0  0 0 0  0 0 0  0 0 0  0 0 0  0 0 0
0 0 0  0 0 0  0 0 0  0 0 0  0 0 0  0 0 0
0 0 0  0 0 0  0 0 0  0 0 0  0 0 0  0 0 0
0 0 0  0 0 0  0 0 0  0 0 0  0 0 0  0 0 0
0 0 0  0 0 0  0 0 0  0 0 0  0 0 0  1 1 2
23 57 107  33 81 153  33 81 153  33 81 153  33 81 153  33 81 153
33 81 153  33 81 153  33 81 153  33 81 153  33 81 153  33 81 153
33 81 153  33 81 153  33 81 153  33 81 153  33 81 153  33 81 153
33 81 153  33 81 153  33 81 153  33 81 153  33 81 153  17 41 77
0 0 0  0 0 0  0 0 0  0 0 0  0 0 0  0 0 0
0 0 0  0 0 0  0 0 0  0 0 0  0 0 0  0 0 0
0 0 0  0 0 0  0 0 0  0 0 0  0 0 0  0 0 0
0 0 0  0 0 0  0 0 0  0 0 0  0 0 0  0 0 0
0 0 0  0 0 0  0 0 0  0 0 0  0 0 0  0 0 0
0 0 0  0 0 0  0 0 0  0 0 0  0 0 0  0 0 0
0 0 0  0 0 0  0 0 0  0 0 0  0 0 0  0 0 0
0 0 0  0 0 0  0 0 0  0 0 0  0 0 0  0 0 0
0 0 0  0 0 0  0 0 0  0 0 0  0 0 0  0 0 0
0 0 0  0 0 0  6 14 27  31 75 142  33 81 153  33 81 153
33 81 153  33 81 153  33 81 153  33 81 153  33 81 153  33 81 153
33 81 153  33 81 153  33 81 153  33 81 153  33 81 153  33 81 153
33 81 153  33 81 153  33 81 153  33 81 153  33 81 153  33 81 153
33 81 153  31 77 145  7 17 32  0 0 0  0 0 0  0 0 0
0 0 0  0 0 0  0 0 0  0 0 0  0 0 0  0 0 0
0 0 0  0 0 0  0 0 0  0 0 0  0 0 0  0 0 0
2 5 9  26 64 121  33 81 153  33 81 153  33 81 153  33 81 153
33 81 153  33 81 153  33 81 153  33 81 153  33 81 153  33 81 153
33 81 153  33 81 153  33 81 153  33 81 153  33 81 153  33 81 153
33 81 153  33 81 153  33 81 153  33 81 153  33 81 153  29 72 136
4 11 20  0 0 0  0 0 0  0 0 0  0 0 0  0 0 0
0 0 0  0 0 0  0 0 0  0 0 0  0 0 0  0 0 0
0 0 0  0 0 0  0 0 0  0 0 0  0 0 0  0 0 0
0 0 0  0 0 0  0 0 0  0 0 0  0 0 0  0 0 0
0 0 0  0 0 0  0 0 0  0 0 0  0 0 0  0 0 0
0 0 0  0 0 0  0 0 0  0 0 0  0 0 0  0 0 0
0 0 0  0 0 0  0 0 0  0 0 0  0 0 0  0 0 0
0 0 0  0 0 0  0 0 0  0 0 0  0 0 0  0 0 0
0 0 0  0 0 0  16 39 73  33 81 153  33 81 153  33 81 153
33 81 153  33 81 153  33 81 153  33 81 153  33 81 153  33 81 153
33 81 153  33 81 153  33 81 153  33 81 153  33 81 153  33 81 153
33 81 153  33 81 153  33 81 153  33 81 153  33 81 153  33 81 153
33 81 153  33 81 153  33 81 153  31 75 142  6 15 28  0 0 0
0 0 0  0 0 0  0 0 0  0 0 0  0 0 0  0 0 0
0 0 0  0 0 0  0 0 0  0 0 0  0 0 0  0 0 0
0 0 0  0 0 0  0 0 0  0 0 0  0 0 0  0 0 0
0 0 0  0 0 0  0 0 0  0 0 0  0 0 0  0 0 0
0 0 0  0 0 0  0 0 0  0 0 0  0 0 0  0 0 0
0 0 0  0 0 0  0 0 0  0 0 0  0 0 0  0 0 0
0 0 0  0 0 0  0 0 0  0 0 0  4 9 17  29 70 133
33 81 153  33 80 151  13 32 61  25 61 115  33 81 153  33 81 153
14 34 65  0 0 0  0 0 0  0 0 0  8 19 35  31 77 145
33 81 153  31 75 142  7 17 32  21 53 100  33 81 153  33 81 153
13 32 61  0 0 0  0 0 0  0 0 0  0 0 0  0 0 0
0 0 0  0 0 0  1 1 2  17 41 77  32 80 151  33 81 153
33 81 153  28 70 132  18 44 84  12 29 54  13 31 58  24 59 112
33 81 153  33 81 153  29 71 134  4 10 19  0 0 0  0 0 0
0 0 0  0 0 0  0 0 0  19 45 86  33 81 153  33 81 153
15 37 70  0 0 0  0 0 0  0 1 2  15 36 68  32 78 148
33 81 153  33 81 153  27 66 125  6 15 28  0 0 0  0 0 0
0 0 0  0 0 0  0 0 0  0 0 0  9 23 43  31 75 142
33 81 153  33 81 152  25 62 116  15 37 69  11 28 53  13 32 61
20 48 91  29 71 133  33 81 153  33 81 153  17 41 77  0 0 0
0 0 0  0 0 0  0 0 0  0 0 0  0 0 0  0 0 0
0 0 0  0 0 0  0 0 0  0 0 0  0 0 0  0 0 0
0 0 0  0 0 0  0 0 0  8 20 38  31 77 145  33 81 153
32 79 149  12 28 53  0 0 0  3 6 12  26 65 122  33 81 153
33 81 153  18 45 85  0 0 0  0 0 0  0 0 0  0 0 0
0 0 0  0 0 0  0 0 0  0 0 0  0 0 0  14 34 65
32 79 149  33 81 153  33 81 153  31 77 145  26 65 122  25 62 118
30 73 139  33 81 153  33 81 153  31 75 142  8 19 37  0 0 0
0 0 0  0 0 0  0 0 0  0 0 0  9 23 43  32 79 149
33 81 153  28 69 130  3 8 15  0 0 0  0 0 0  0 0 0
0 0 0  0 0 0  10 24 44  32 79 149  33 81 153  27 66 125
2 6 11  0 0 0  0 0 0  0 0 0  0 0 0  18 44 82
33 81 153  33 81 153  31 77 146  33 81 153  33 81 153  30 74 140
23 55 104  15 36 68  22 55 104  33 81 153  33 81 153  15 38 71
0 0 0  0 0 0  0 0 0  0 0 0  0 0 0  0 0 0
0 0 0  0 0 0  0 0 0  0 0 0  0 0 0  0 0 0
0 0 0  0 0 0  0 0 0  0 1 2  22 55 104  33 81 153
33 81 153  15 38 71  0 0 0  0 0 0  0 0 0  0 0 0
0 0 0  0 0 0  0 0 0  0 0 0  0 0 0  0 0 0
0 0 0  0 0 0  15 37 70  32 80 151  33 81 153  32 79 149
25 61 115  18 44 82  15 37 70  17 42 79  25 61 115  32 79 150
33 81 153  33 81 153  33 81 153  18 43 82  0 0 0  0 0 0
0 0 0  0 0 0  0 0 0  0 0 0  6 16 30  29 71 134
33 81 153  33 81 153  27 65 124  16 39 74  12 28 53  13 31 59
18 45 85  28 68 128  33 80 152  33 81 153  20 50 95  0 0 1
0 0 0  0 0 0  0 0 0  0 0 0  0 0 0  6 16 29
27 67 127  33 81 153  33 81 153  32 78 148  23 57 107  14 34 65
11 27 50  17 43 81  31 75 142  33 81 153  33 81 153  16 39 73
0 0 0  0 0 0  0 0 0  0 0 0  0 0 0  0 0 0
0 0 0  0 0 0  0 0 0  0 0 0  0 0 0  0 0 0
10 24 44  32 79 149  33 81 153  27 65 124  2 5 10  0 0 0
0 0 0  0 0 0  0 0 0  0 0 0  0 0 0  0 0 0
11 28 53  31 77 145  33 81 153  32 79 150  10 25 47  0 0 0
0 0 0  0 0 0  0 0 0  0 0 0  0 0 0  13 31 58
32 78 148  33 81 153  32 79 150  23 57 109  14 34 65  11 28 53
14 34 64  21 51 97  30 73 139  33 81 153  33 81 153  13 31 58
0 0 0  0 0 0  0 0 0  0 0 0  0 0 0  0 0 0
12 30 56  31 76 144  33 81 153  33 81 153  30 74 140  20 49 93
12 30 58  12 28 53  21 52 98  32 79 150  33 81 153  32 78 147
8 20 38  0 0 0  0 0 0  0 0 0  0 0 0  0 0 0
10 24 44  32 79 149  33 81 153  29 71 135
1 3 5  24 58 110  33 81 153  33 81 153  33 81 153  33 81 153
33 81 153  33 81 153  33 81 153  33 81 153  33 81 153  33 81 153
33 81 153  33 81 153  33 81 153  33 81 153  33 81 153  33 81 153
33 81 153  33 81 153  33 81 153  33 81 153  33 81 153  33 81 153
31 76 144  7 17 31  0 0 0  0 0 0  0 0 0  0 0 0
0 0 0  0 0 0  0 0 0  0 0 0  0 0 0  0 0 0
0 0 0  0 0 0  0 0 0  0 0 0  0 0 0  0 0 0
0 0 0  0 0 0  0 0 0  0 0 0  0 0 0  0 0 0
0 0 0  0 0 0  0 0 0  0 0 0  0 0 0  0 0 0
0 0 0  0 0 0  0 0 0  0 0 0  0 0 0  0 0 0
0 0 0  0 0 0  0 0 0  0 0 0  0 0 0  0 0 0
0 0 0  0 0 0  0 0 0  0 0 0  0 0 0  0 0 0
0 0 0  0 0 0  0 0 0  0 0 0  0 0 0  0 0 0
0 0 0  0 0 0  0 0 0  0 0 0  0 0 0  0 0 0
0 0 0  0 0 0  0 0 0  0 0 0  0 0 0  0 0 0
0 0 0  6 15 28  31 75 142  33 81 153  33 81 153  33 81 153
33 81 153  33 81 153  33 81 153  33 81 153  33 81 153  33 81 153
33 81 153  33 81 153  33 81 153  33 81 153  33 81 153  33 81 153
33 81 153  33 81 153  33 81 153  33 81 153  33 81 153  33 81 153
33 81 153  25 61 115  1 3 6  0 0 0  0 0 0  0 0 0
0 0 0  0 0 0  0 0 0  0 0 0  0 0 0  0 0 0
0 0 0  0 0 0  0 0 0  0 0 0  0 0 0  0 0 0
0 0 0  0 0 0  0 0 0  0 0 0  0 0 0  0 0 0
0 0 0  0 0 0  0 0 0  0 0 0  0 0 0  0 0 0
0 0 0  0 0 0  0 0 0  0 0 0  0 0 0  0 0 0
0 0 0  0 0 0  0 0 0  0 0 0  0 0 0  0 0 0
0 0 0  0 0 0  0 0 0  0 0 0  0 0 0  1 1 2
23 57 107  33 81 153  33 81 153  33 81 153  33 81 153  33 81 153
33 81 153  33 81 153  33 81 153  33 81 153  33 81 153  33 81 153
33 81 153  33 81 153  33 81 153  33 81 153  33 81 153  33 81 153
33 81 153  33 81 153  33 81 153  33 81 153  33 81 153  17 41 77
0 0 0  0 0 0  0 0 0  0 0 0  0 0 0  0 0 0
0 0 0  0 0 0  0 0 0  0 0 0  0 0 0  0 0 0
0 0 0  0 0 0  0 0 0  0 0 0  0 0 0  0 0 0
0 0 0  0 0 0  0 0 0  0 0 0  0 0 0  0 0 0
0 0 0  0 0 0  0 0 0  0 0 0  0 0 0  0 0 0
0 0 0  0 0 0  0 0 0  0 0 0  0 0 0  0 0 0
0 0 0  0 0 0  0 0 0  0 0 0  0 0 0  0 0 0
0 0 0  0 0 0  0 0 0  0 0 0  0 0 0  0 0 0
0 0 0  0 0 0  0 0 0  0 0 0  0 0 0  0 0 0
0 0 0  0 0 0  6 14 27  31 75 142  33 81 153  33 81 153
33 81 153  33 81 153  33 81 153  33 81 153  33 81 153  33 81 153
33 81 153  33 81 153  33 81 153  33 81 153  33 81 153  33 81 153
33 81 153  33 81 153  33 81 153  33 81 153  33 81 153  33 81 153
33 81 153  31 77 145  7 17 32  0 0 0  0 0 0  0 0 0
0 0 0  0 0 0  0 0 0  0 0 0  0 0 0  0 0 0
0 0 0  0 0 0  0 0 0  0 0 0  0 0 0  0 0 0
2 5 9  26 64 121  33 81 153  33 81 153  33 81 153  33 81 153
33 81 153  33 81 153  33 81 153  33 81 153  33 81 153  33 81 153
33 81 153  33 81 153  33 81 153  33 81 153  33 81 153  33 81 153
33 81 153  33 81 153  33 81 153  33 81 153  33 81 153  29 72 136
4 11 20  0 0 0  0 0 0  0 0 0  0 0 0  0 0 0
0 0 0  0 0 0  0 0 0  0 0 0  0 0 0  0 0 0
0 0 0  0 0 0  0 0 0  0 0 0  0 0 0  0 0 0
0 0 0  0 0 0  0 0 0  0 0 0  0 0 0  0 0 0
0 0 0  0 0 0  0 0 0  0 0 0  0 0 0  0 0 0
0 0 0  0 0 0  0 0 0  0 0 0  0 0 0  0 0 0
0 0 0  0 0 0  0 0 0  0 0 0  0 0 0  0 0 0
0 0 0  0 0 0  0 0 0  0 0 0  0 0 0  0 0 0
0 0 0  0 0 0  12 30 58  33 81 153  33 81 153  33 81 153
33 81 153  33 81 153  33 81 153  33 81 153  33 81 153  33 81 153
33 81 153  33 81 153  33 81 153  33 81 153  33 81 153  33 81 153
33 81 153  33 81 153  33 81 153  33 81 153  33 81 153  33 81 153
33 81 153  33 81 153  33 81 153  32 78 147  8 20 38  0 0 0
0 0 0  0 0 0  0 0 0  0 0 0  0 0 0  0 0 0
0 0 0  0 0 0  0 0 0  0 0 0  0 0 0  0 0 0
0 0 0  0 0 0  0 0 0  0 0 0  0 0 0  0 0 0
0 0 0  0 0 0  0 0 0  0 0 0  0 0 0  0 0 0
0 0 0  0 0 0  0 0 0  0 0 0  0 0 0  0 0 0
0 0 0  0 0 0  0 0 0  0 0 0  0 0 0  0 0 0
0 0 0  0 0 0  0 0 0  0 0 0  9 23 44  32 79 149
33 81 153  30 75 141  6 15 28  20 48 91  33 81 153  33 81 153
20 50 94  0 0 0  0 0 0  0 0 0  16 39 74  33 81 153
33 81 153  24 60 113  1 2 4  17 42 79  33 81 153  33 81 153
18 44 83  0 0 0  0 0 0  0 0 0  0 0 0  0 0 0
0 0 0  0 0 0  11 27 52  32 78 147  33 81 153  33 81 153
23 55 104  5 13 24  0 0 0  0 0 0  0 0 0  12 30 58
33 81 153  33 81 153  22 54 103  1 1 2  0 0 0  0 0 0
0 0 0  0 0 0  0 0 0  19 47 88  33 81 153  33 81 153
15 37 70  0 0 0  1 2 4  16 39 73  32 78 147  33 81 153
33 81 153  28 68 128  7 17 32  0 0 0  0 0 0  0 0 0
0 0 0  0 0 0  0 0 0  2 5 10  25 61 115  33 81 153
33 81 152  20 48 91  2 6 11  0 0 0  0 0 0  0 0 0
0 0 0  11 26 49  31 76 143  33 81 153  21 52 99  0 0 1
0 0 0  0 0 0  0 0 0  0 0 0  0 0 0  0 0 0
0 0 0  0 0 0  0 0 0  0 0 0  0 0 0  0 0 0
0 0 0  0 0 0  0 0 0  1 3 5  23 56 106  33 81 153
33 81 153  26 65 122  3 8 14  11 26 49  32 79 150  33 81 153
31 76 143  8 18 35  0 0 0  0 0 0  0 0 0  0 0 0
0 0 0  0 0 0  0 0 0  0 0 0  6 14 27  29 72 136
33 81 153  33 81 153  26 63 119  9 22 41  2 5 10  1 3 7
6 16 29  25 61 115  33 81 153  33 81 153  20 49 92  0 1 1
0 0 0  0 0 0  0 0 0  0 0 0  12 29 55  33 81 152
33 81 153  25 62 116  1 3 7  0 0 0  0 0 0  0 0 0
0 0 0  0 0 0  11 27 51  33 80 152  33 81 153  26 64 120
2 4 8  0 0 0  0 0 0  0 0 0  0 0 0  19 45 86
33 81 153  33 81 153  33 81 153  33 81 152  23 55 104  7 17 32
1 2 3  0 0 0  16 38 72  33 81 153  33 81 153  16 40 75
0 0 0  0 0 0  0 0 0  0 0 0  0 0 0  0 0 0
0 0 0  0 0 0  0 0 0  0 0 0  0 0 0  0 0 0
0 0 0  0 0 0  0 0 0  1 1 2  23 56 106  33 81 153
33 81 153  15 37 70  0 0 0  0 0 0  0 0 0  0 0 0
0 0 0  0 0 0  0 0 0  0 0 0  0 0 0  0 0 0
0 0 0  6 16 29  30 73 138  33 81 153  30 75 141  13 32 61
2 4 7  0 0 0  0 0 0  0 0 0  2 4 8  16 39 74
32 79 149  33 81 153  33 81 153  16 39 73  0 0 0  0 0 0
0 0 0  0 0 0  0 0 0  1 2 4  22 53 100  33 81 153
33 81 153  23 55 104  4 9 17  0 0 0  0 0 0  0 0 0
0 0 0  8 19 37  29 72 136  33 81 153  25 61 115  1 3 5
0 0 0  0 0 0  0 0 0  0 0 0  2 6 11  24 59 112
33 81 153  33 81 153  30 73 139  12 30 58  1 3 5  0 0 0
0 0 0  2 5 9  27 65 123  33 81 153  31 77 146  8 19 37
0 0 0  0 0 0  0 0 0  0 0 0  0 0 0  0 0 0
0 0 0  0 0 0  0 0 0  0 0 0  0 0 0  0 0 0
12 30 58  33 81 153  33 81 153  24 59 112  1 2 4  0 0 0
0 0 0  0 0 0  0 0 0  0 0 0  1 3 6  13 31 59
30 73 139  33 81 153  33 81 153  27 66 124  3 8 14  0 0 0
0 0 0  0 0 0  0 0 0  0 0 0  4 10 19  28 68 129
33 81 153  32 79 150  17 41 77  1 3 7  0 0 0  0 0 0
0 0 0  0 0 0  14 34 65  32 79 149  33 81 153  17 42 80
0 0 0  0 0 0  0 0 0  0 0 0  0 0 0  7 17 31
29 72 136  33 81 153  33 81 153  26 64 121  8 19 37  0 0 1
0 0 0  0 0 0  7 17 33  31 77 145  33 81 153  27 66 125
3 6 12  0 0 0  0 0 0  0 0 0  0 0 0  0 0 0
10 24 46  32 79 150  33 81 153  29 71 133
2 5 10  26 64 121  33 81 153  33 81 153  33 81 153  33 81 153
33 81 153  33 81 153  33 81 153  33 81 153  33 81 153  33 81 153
33 81 153  33 81 153  33 81 153  33 81 153  33 81 153  33 81 153
33 81 153  33 81 153  33 81 153  33 81 153  33 81 153  33 81 153
30 74 139  5 13 24  0 0 0  0 0 0  0 0 0  0 0 0
0 0 0  0 0 0  0 0 0  0 0 0  0 0 0  0 0 0
0 0 0  0 0 0  0 0 0  0 0 0  0 0 0  0 0 0
0 0 0  0 0 0  0 0 0  0 0 0  0 0 0  0 0 0
0 0 0  0 0 0  0 0 0  0 0 0  0 0 0  0 0 0
0 0 0  0 0 0  0 0 0  0 0 0  0 0 0  0 0 0
0 0 0  0 0 0  0 0 0  0 0 0  0 0 0  0 0 0
0 0 0  0 0 0  0 0 0  0 0 0  0 0 0  0 0 0
0 0 0  0 0 0  0 0 0  0 0 0  0 0 0  0 0 0
0 0 0  0 0 0  0 0 0  0 0 0  0 0 0  0 0 0
0 0 0  0 0 0  0 0 0  0 0 0  0 0 0  0 0 0
0 0 0  5 11 21  30 72 137  33 81 153  33 81 153  33 81 153
33 81 153  33 81 153  33 81 153  33 81 153  33 81 153  33 81 153
33 81 153  33 81 153  33 81 153  33 81 153  33 81 153  33 81 153
33 81 153  33 81 153  33 81 153  33 81 153  33 81 153  33 81 153
33 81 153  27 66 125  2 6 11  0 0 0  0 0 0  0 0 0
0 0 0  0 0 0  0 0 0  0 0 0  0 0 0  0 0 0
0 0 0  0 0 0  0 0 0  0 0 0  0 0 0  0 0 0
0 0 0  0 0 0  0 0 0  0 0 0  0 0 0  0 0 0
0 0 0  0 0 0  0 0 0  0 0 0  0 0 0  0 0 0
0 0 0  0 0 0  0 0 0  0 0 0  0 0 0  0 0 0
0 0 0  0 0 0  0 0 0  0 0 0  0 0 0  0 0 0
0 0 0  0 0 0  0 0 0  0 0 0  0 0 0  1 1 2
23 57 107  33 81 153  33 81 153  33 81 153  33 81 153  33 81 153
33 81 153  33 81 153  33 81 153  33 81 153  33 81 153  33 81 153
33 81 153  33 81 153  33 81 153  33 81 153  33 81 153  33 81 153
33 81 153  33 81 153  33 81 153  33 81 153  33 81 153  17 41 77
0 0 0  0 0 0  0 0 0  0 0 0  0 0 0  0 0 0
0 0 0  0 0 0  0 0 0  0 0 0  0 0 0  0 0 0
0 0 0  0 0 0  0 0 0  0 0 0  0 0 0  0 0 0
0 0 0  0 0 0  0 0 0  0 0 0  0 0 0  0 0 0
0 0 0  0 0 0  0 0 0  0 0 0  0 0 0  0 0 0
0 0 0  0 0 0  0 0 0  0 0 0  0 0 0  0 0 0
0 0 0  0 0 0  0 0 0  0 0 0  0 0 0  0 0 0
0 0 0  0 0 0  0 0 0  0 0 0  0 0 0  0 0 0
0 0 0  0 0 0  0 0 0  0 0 0  0 0 0  0 0 0
0 0 0  0 0 0  6 14 27  31 75 142  33 81 153  33 81 153
33 81 153  33 81 153  33 81 153  33 81 153  33 81 153  33 81 153
33 81 153  33 81 153  33 81 153  33 81 153  33 81 153  33 81 153
33 81 153  33 81 153  33 81 153  33 81 153  33 81 153  33 81 153
33 81 153  31 77 145  7 17 32  0 0 0  0 0 0  0 0 0
0 0 0  0 0 0  0 0 0  0 0 0  0 0 0  0 0 0
0 0 0  0 0 0  0 0 0  0 0 0  0 0 0  0 0 0
2 5 9  26 64 121  33 81 153  33 81 153  33 81 153  33 81 153
33 81 153  33 81 153  33 81 153  33 81 153  33 81 153  33 81 153
33 81 153  33 81 153  33 81 153  33 81 153  33 81 153  33 81 153
33 81 153  33 81 153  33 81 153  33 81 153  33 81 153  29 72 136
4 11 20  0 0 0  0 0 0  0 0 0  0 0 0  0 0 0
0 0 0  0 0 0  0 0 0  0 0 0  0 0 0  0 0 0
0 0 0  0 0 0  0 0 0  0 0 0  0 0 0  0 0 0
0 0 0  0 0 0  0 0 0  0 0 0  0 0 0  0 0 0
0 0 0  0 0 0  0 0 0  0 0 0  0 0 0  0 0 0
0 0 0  0 0 0  0 0 0  0 0 0  0 0 0  0 0 0
0 0 0  0 0 0  0 0 0  0 0 0  0 0 0  0 0 0
0 0 0  0 0 0  0 0 0  0 0 0  0 0 0  0 0 0
0 0 0  0 0 0  9 23 43  32 79 149  33 81 153  33 81 153
33 81 153  33 81 153  33 81 153  33 81 153  33 81 153  33 81 153
33 81 153  33 81 153  33 81 153  33 81 153  33 81 153  33 81 153
33 81 153  33 81 153  33 81 153  33 81 153  33 81 153  33 81 153
33 81 153  33 81 153  33 81 153  33 80 151  11 27 50  0 0 0
0 0 0  0 0 0  0 0 0  0 0 0  0 0 0  0 0 0
0 0 0  0 0 0  0 0 0  0 0 0  0 0 0  0 0 0
0 0 0  0 0 0  0 0 0  0 0 0  0 0 0  0 0 0
0 0 0  0 0 0  0 0 0  0 0 0  0 0 0  0 0 0
0 0 0  0 0 0  0 0 0  0 0 0  0 0 0  0 0 0
0 0 0  0 0 0  0 0 0  0 0 0  0 0 0  0 0 0
0 0 0  0 0 0  0 0 0  0 0 0  17 42 79  33 81 153
33 81 153  26 64 121  1 3 7  13 33 62  33 81 153  33 81 153
26 64 121  2 5 10  0 0 0  1 3 7  25 60 114  33 81 153
33 81 153  15 38 71  0 0 0  12 30 56  33 81 152  33 81 153
23 57 107  1 2 3  0 0 0  0 0 0  0 0 0  0 0 0
0 0 0  3 6 12  26 64 121  33 81 153  33 81 153  24 58 110
3 7 14  0 0 0  0 0 0  0 0 0  0 0 0  16 40 75
33 81 153  33 81 153  18 45 85  0 0 0  0 0 0  0 0 0
0 0 0  0 0 0  0 0 0  19 47 89  33 81 153  33 81 153
15 36 68  1 3 7  18 44 84  32 79 149  33 81 153  33 81 153
27 67 126  7 17 33  0 0 0  0 0 0  0 0 0  0 0 0
0 0 0  0 0 0  0 0 0  11 27 51  32 79 150  33 81 153
25 61 116  3 6 12  0 0 0  0 0 0  0 0 0  2 4 7
12 29 55  27 66 125  33 81 152  33 81 153  17 42 79  0 0 0
0 0 0  0 0 0  0 0 0  0 0 0  0 0 0  0 0 0
0 0 0  0 0 0  0 0 0  0 0 0  0 0 0  0 0 0
0 0 0  0 0 0  0 0 0  0 0 0  9 22 41  31 76 144
33 81 153  33 81 153  20 49 92  23 56 106  33 81 153  33 81 153
23 57 107  1 3 5  0 0 0  0 0 0  0 0 0  0 0 0
0 0 0  0 0 0  0 0 0  0 0 0  18 44 84  33 81 153
33 81 153  28 70 131  6 15 28  0 0 0  0 0 0  0 0 0
0 0 0  8 19 37  31 76 143  33 81 153  28 69 130  3 9 16
0 0 0  0 0 0  0 0 0  0 0 0  13 33 62  33 81 153
33 81 153  22 55 104  0 1 2  0 0 0  0 0 0  0 0 0
0 0 0  0 0 0  12 30 56  33 81 152  33 81 153  25 61 115
1 3 5  0 0 0  0 0 0  0 0 0  0 0 0  19 46 86
33 81 153  33 81 153  33 81 153  21 52 98  2 5 10  0 0 0
0 0 0  0 0 0  15 36 68  33 81 153  33 81 153  15 36 68
0 0 0  0 0 0  0 0 0  0 0 0  0 0 0  0 0 0
0 0 0  0 0 0  0 0 0  0 0 0  0 0 0  0 0 0
0 0 0  0 0 0  0 0 0  1 2 4  23 57 108  33 81 153
33 81 153  15 37 70  0 0 0  0 0 0  0 0 0  0 0 0
0 0 0  0 0 0  0 0 0  0 0 0  0 0 0  0 0 0
0 0 0  18 44 83  33 81 153  33 81 152  15 37 71  0 0 0
0 0 0  0 0 0  0 0 0  0 0 0  0 0 0  1 2 4
21 52 99  33 81 153  33 81 153  14 35 67  0 0 0  0 0 0
0 0 0  0 0 0  0 0 0  8 19 35  31 76 144  33 81 153
28 68 128  5 11 22  0 0 0  0 0 0  0 0 0  1 2 4
10 24 46  25 62 117  33 80 151  33 81 153  21 51 97  0 1 1
0 0 0  0 0 0  0 0 0  0 0 0  14 33 63  33 80 152
33 81 153  31 77 145  12 28 53  0 0 0  0 0 0  0 0 0
0 0 0  4 10 19  29 71 135  33 81 153  30 73 137  5 12 23
0 0 0  0 0 0  0 0 0  0 0 0  0 0 0  0 0 0
0 0 0  0 0 0  0 0 0  0 0 0  0 0 0  0 0 0
15 37 71  33 81 153  33 81 153  22 55 104  2 6 11  2 5 10
3 7 13  4 10 19  7 18 34  13 33 62  24 58 110  32 78 148
33 81 153  33 81 153  31 77 145  11 27 52  0 0 0  0 0 0
0 0 0  0 0 0  0 0 0  0 0 0  15 37 69  33 81 153
33 81 153  22 54 101  1 3 5  0 0 0  0 0 0  0 0 0
2 6 11  14 35 66  28 70 132  33 81 153  33 81 153  13 32 61
0 0 0  0 0 0  0 0 0  0 0 0  1 2 3  21 52 98
33 81 153  33 81 153  28 68 128  6 14 27  0 0 0  0 0 0
0 0 0  0 0 0  10 26 49  32 80 151  33 81 153  24 58 110
1 2 4  0 0 0  0 0 0  0 0 0  0 0 0  0 0 0
10 24 46  32 79 150  33 81 153  28 69 130
4 9 17  28 69 130  33 81 153  33 81 153  33 81 153  33 81 153
33 81 153  33 81 153  33 81 153  33 81 153  33 81 153  33 81 153
33 81 153  33 81 153  33 81 153  33 81 153  33 81 153  33 81 153
33 81 153  33 81 153  33 81 153  33 81 153  33 81 153  33 81 153
29 71 134  4 10 18  0 0 0  0 0 0  0 0 0  0 0 0
0 0 0  0 0 0  0 0 0  0 0 0  0 0 0  0 0 0
0 0 0  0 0 0  0 0 0  0 0 0  0 0 0  0 0 0
0 0 0  0 0 0  0 0 0  0 0 0  0 0 0  0 0 0
0 0 0  0 0 0  0 0 0  0 0 0  0 0 0  0 0 0
0 0 0  0 0 0  0 0 0  0 0 0  0 0 0  0 0 0
0 0 0  0 0 0  0 0 0  0 0 0  0 0 0  0 0 0
0 0 0  0 0 0  0 0 0  0 0 0  0 0 0  0 0 0
0 0 0  0 0 0  0 0 0  0 0 0  0 0 0  0 0 0
0 0 0  0 0 0  0 0 0  0 0 0  0 0 0  0 0 0
0 0 0  0 0 0  0 0 0  0 0 0  0 0 0  0 0 0
0 0 0  3 8 15  28 69 131  33 81 153  33 81 153  33 81 153
33 81 153  33 81 153  33 81 153  33 81 153  33 81 153  33 81 153
33 81 153  33 81 153  33 81 153  33 81 153  33 81 153  33 81 153
33 81 153  33 81 153  33 81 153  33 81 153  33 81 153  33 81 153
33 81 153  29 71 133  4 9 17  0 0 0  0 0 0  0 0 0
0 0 0  0 0 0  0 0 0  0 0 0  0 0 0  0 0 0
0 0 0  0 0 0  0 0 0  0 0 0  0 0 0  0 0 0
0 0 0  0 0 0  0 0 0  0 0 0  0 0 0  0 0 0
0 0 0  0 0 0  0 0 0  0 0 0  0 0 0  0 0 0
0 0 0  0 0 0  0 0 0  0 0 0  0 0 0  0 0 0
0 0 0  0 0 0  0 0 0  0 0 0  0 0 0  0 0 0
0 0 0  0 0 0  0 0 0  0 0 0  0 0 0  1 1 2
23 57 107  33 81 153  33 81 153  33 81 153  33 81 153  33 81 153
33 81 153  33 81 153  33 81 153  33 81 153  33 81 153  33 81 153
33 81 153  33 81 153  33 81 153  33 81 153  33 81 153  33 81 153
33 81 153  33 81 153  33 81 153  33 81 153  33 81 153  17 41 77
0 0 0  0 0 0  0 0 0  0 0 0  0 0 0  0 0 0
0 0 0  0 0 0  0 0 0  0 0 0  0 0 0  0 0 0
0 0 0  0 0 0  0 0 0  0 0 0  0 0 0  0 0 0
0 0 0  0 0 0  0 0 0  0 0 0  0 0 0  0 0 0
0 0 0  0 0 0  0 0 0  0 0 0  0 0 0  0 0 0
0 0 0  0 0 0  0 0 0  0 0 0  0 0 0  0 0 0
0 0 0  0 0 0  0 0 0  0 0 0  0 0 0  0 0 0
0 0 0  0 0 0  0 0 0  0 0 0  0 0 0  0 0 0
0 0 0  0 0 0  0 0 0  0 0 0  0 0 0  0 0 0
0 0 0  0 0 0  6 14 27  31 75 142  33 81 153  33 81 153
33 81 153  33 81 153  33 81 153  33 81 153  33 81 153  33 81 153
33 81 153  33 81 153  33 81 153  33 81 153  33 81 153  33 81 153
33 81 153  33 81 153  33 81 153  33 81 153  33 81 153  33 81 153
33 81 153  31 77 145  7 17 32  0 0 0  0 0 0  0 0 0
0 0 0  0 0 0  0 0 0  0 0 0  0 0 0  0 0 0
0 0 0  0 0 0  0 0 0  0 0 0  0 0 0  0 0 0
2 5 9  26 64 121  33 81 153  33 81 153  33 81 153  33 81 153
33 81 153  33 81 153  33 81 153  33 81 153  33 81 153  33 81 153
33 81 153  33 81 153  33 81 153  33 81 153  33 81 153  33 81 153
33 81 153  33 81 153  33 81 153  33 81 153  33 81 153  29 72 136
4 11 20  0 0 0  0 0 0  0 0 0  0 0 0  0 0 0
0 0 0  0 0 0  0 0 0  0 0 0  0 0 0  0 0 0
0 0 0  0 0 0  0 0 0  0 0 0  0 0 0  0 0 0
0 0 0  0 0 0  0 0 0  0 0 0  0 0 0  0 0 0
0 0 0  0 0 0  0 0 0  0 0 0  0 0 0  0 0 0
0 0 0  0 0 0  0 0 0  0 0 0  0 0 0  0 0 0
0 0 0  0 0 0  0 0 0  0 0 0  0 0 0  0 0 0
0 0 0  0 0 0  0 0 0  0 0 0  0 0 0  0 0 0
0 0 0  0 0 0  6 16 30  31 76 143  33 81 153  33 81 153
33 81 153  33 81 153  33 81 153  33 81 153  33 81 153  33 81 153
33 81 153  33 81 153  33 81 153  33 81 153  33 81 153  33 81 153
33 81 153  33 81 153  33 81 153  33 81 153  33 81 153  33 81 153
33 81 153  33 81 153  33 81 153  33 81 153  14 34 64  0 0 0
0 0 0  0 0 0  0 0 0  0 0 0  0 0 0  0 0 0
0 0 0  0 0 0  0 0 0  0 0 0  0 0 0  0 0 0
0 0 0  0 0 0  0 0 0  0 0 0  0 0 0  0 0 0
0 0 0  0 0 0  0 0 0  0 0 0  0 0 0  0 0 0
0 0 0  0 0 0  0 0 0  0 0 0  0 0 0  0 0 0
0 0 0  0 0 0  0 0 0  0 0 0  0 0 0  0 0 0
0 0 0  0 0 0  0 0 0  1 3 6  24 60 113  33 81 153
33 81 153  20 48 91  0 0 0  8 19 37  31 77 146  33 81 153
30 75 141  6 15 28  0 0 0  7 17 32  31 75 142  33 81 153
31 76 143  7 17 32  0 0 0  8 19 35  31 77 146  33 81 153
28 68 128  3 7 14  0 0 0  0 0 0  0 0 0  0 0 0
0 0 0  11 27 50  32 79 150  33 81 153  30 74 140  7 17 33
0 0 0  0 0 0  0 0 0  0 0 0  0 0 0  18 45 85
33 81 153  33 81 153  16 40 75  0 0 0  0 0 0  0 0 0
0 0 0  0 0 0  0 0 0  20 49 92  33 81 153  33 81 153
19 47 89  21 52 98  33 81 152  33 81 153  33 81 153  27 66 125
6 16 29  0 0 0  0 0 0  0 0 0  0 0 0  0 0 0
0 0 0  0 0 0  0 0 1  21 51 95  33 81 153  32 79 150
11 28 53  0 0 0  0 0 0  1 3 7  10 25 47  24 58 110
32 79 149  33 81 153  33 81 153  27 65 124  5 12 23  0 0 0
0 0 0  0 0 0  0 0 0  0 0 0  0 0 0  0 0 0
0 0 0  0 0 0  0 0 0  0 0 0  0 0 0  0 0 0
0 0 0  0 0 0  0 0 0  0 0 0  0 1 2  19 45 86
33 81 153  33 81 153  32 80 151  32 80 151  33 81 153  32 80 151
12 29 55  0 0 0  0 0 0  0 0 0  0 0 0  0 0 0
0 0 0  0 0 0  0 0 0  3 7 14  27 67 127  33 81 153
33 81 153  15 37 69  0 0 0  0 0 0  0 0 0  0 0 0
0 0 0  1 3 6  25 61 115  33 81 153  32 78 146  8 19 37
0 0 0  0 0 0  0 0 0  0 0 0  14 35 66  33 81 153
33 81 153  21 52 98  0 0 1  0 0 0  0 0 0  0 0 0
0 0 0  0 0 0  13 31 59  33 81 153  33 81 153  24 58 110
1 2 4  0 0 0  0 0 0  0 0 0  0 0 0  19 46 86
33 81 153  33 81 153  27 66 125  4 10 19  0 0 0  0 0 0
0 0 0  0 0 0  9 23 43  30 74 140  29 70 133  7 17 33
0 0 0  0 0 0  0 0 0  0 0 0  0 0 0  0 0 0
0 0 0  0 0 0  0 0 0  0 0 0  0 0 0  0 0 0
0 0 0  0 0 0  0 0 0  1 1 2  23 56 106  33 81 153
33 81 153  15 37 71  0 0 0  0 0 0  0 0 0  0 0 0
0 0 0  0 0 0  0 0 0  0 0 0  0 0 0  0 0 0
2 5 10  26 65 122  33 81 153  28 69 131  4 9 17  0 0 0
0 0 0  0 0 0  0 0 0  0 0 0  0 0 0  0 0 0
15 36 68  33 81 153  33 81 153  14 33 63  0 0 0  0 0 0
0 0 0  0 0 0  0 0 0  17 41 78  33 81 153  33 81 153
15 37 70  0 0 0  0 0 0  1 2 4  8 21 39  22 54 101
32 78 146  33 81 153  33 81 153  29 71 134  7 18 34  0 0 0
0 0 0  0 0 0  0 0 0  2 4 8  25 61 115  33 81 153
33 81 153  19 47 89  0 1 1  0 0 0  0 0 0  0 0 0
0 0 0  5 13 25  30 74 140  33 81 153  29 70 133  4 9 17
0 0 0  0 0 0  0 0 0  0 0 0  0 0 0  0 0 0
0 0 0  0 0 0  0 0 0  0 0 0  0 0 0  0 0 0
18 43 82  33 81 153  33 81 153  31 75 142  27 65 124  27 65 123
27 67 127  29 71 135  31 77 145  33 81 153  33 81 153  33 81 153
33 81 153  30 73 138  13 31 59  0 1 1  0 0 0  0 0 0
0 0 0  0 0 0  0 0 0  1 3 6  24 60 113  33 81 153
31 76 144  8 19 37  0 0 0  0 0 0  2 5 10  12 30 56
25 62 118  33 80 152  33 81 153  33 81 153  24 59 111  3 7 13
0 0 0  0 0 0  0 0 0  0 0 0  6 15 28  30 74 140
33 81 153  32 79 149  12 29 55  0 0 0  0 0 0  0 0 0
0 0 0  0 0 0  13 31 58  33 81 153  33 81 153  22 54 103
0 1 2  0 0 0  0 0 0  0 0 0  0 0 0  0 0 0
10 26 49  32 80 151  33 81 153  27 67 126
6 14 26  30 72 137  33 81 153  33 81 153  33 81 153  33 81 153
33 81 153  33 81 153  33 81 153  33 81 153  33 81 153  33 81 153
33 81 153  33 81 153  33 81 153  33 81 153  33 81 153  33 81 153
33 81 153  33 81 153  33 81 153  33 81 153  33 81 153  33 81 153
27 67 127  3 7 13  0 0 0  0 0 0  0 0 0  0 0 0
0 0 0  0 0 0  0 0 0  0 0 0  0 0 0  0 0 0
0 0 0  0 0 0  0 0 0  0 0 0  0 0 0  0 0 0
0 0 0  0 0 0  0 0 0  0 0 0  0 0 0  0 0 0
0 0 0  0 0 0  0 0 0  0 0 0  0 0 0  0 0 0
0 0 0  0 0 0  0 0 0  0 0 0  0 0 0  0 0 0
0 0 0  0 0 0  0 0 0  0 0 0  0 0 0  0 0 0
0 0 0  0 0 0  0 0 0  0 0 0  0 0 0  0 0 0
0 0 0  0 0 0  0 0 0  0 0 0  0 0 0  0 0 0
0 0 0  0 0 0  0 0 0  0 0 0  0 0 0  0 0 0
0 0 0  0 0 0  0 0 0  0 0 0  0 0 0  0 0 0
0 0 0  2 5 10  27 65 124  33 81 153  33 81 153  33 81 153
33 81 153  33 81 153  33 81 153  33 81 153  33 81 153  33 81 153
33 81 153  33 81 153  33 81 153  33 81 153  33 81 153  33 81 153
33 81 153  33 81 153  33 81 153  33 81 153  33 81 153  33 81 153
33 81 153  30 74 140  6 14 26  0 0 0  0 0 0  0 0 0
0 0 0  0 0 0  0 0 0  0 0 0  0 0 0  0 0 0
0 0 0  0 0 0  0 0 0  0 0 0  0 0 0  0 0 0
0 0 0  0 0 0  0 0 0  0 0 0  0 0 0  0 0 0
0 0 0  0 0 0  0 0 0  0 0 0  0 0 0  0 0 0
0 0 0  0 0 0  0 0 0  0 0 0  0 0 0  0 0 0
0 0 0  0 0 0  0 0 0  0 0 0  0 0 0  0 0 0
0 0 0  0 0 0  0 0 0  0 0 0  0 0 0  1 1 2
23 57 107  33 81 153  33 81 153  33 81 153  33 81 153  33 81 153
33 81 153  33 81 153  33 81 153  33 81 153  33 81 153  33 81 153
33 81 153  33 81 153  33 81 153  33 81 153  33 81 153  33 81 153
33 81 153  33 81 153  33 81 153  33 81 153  33 81 153  17 41 77
0 0 0  0 0 0  0 0 0  0 0 0  0 0 0  0 0 0
0 0 0  0 0 0  0 0 0  0 0 0  0 0 0  0 0 0
0 0 0  0 0 0  0 0 0  0 0 0  0 0 0  0 0 0
0 0 0  0 0 0  0 0 0  0 0 0  0 0 0  0 0 0
0 0 0  0 0 0  0 0 0  0 0 0  0 0 0  0 0 0
0 0 0  0 0 0  0 0 0  0 0 0  0 0 0  0 0 0
0 0 0  0 0 0  0 0 0  0 0 0  0 0 0  0 0 0
0 0 0  0 0 0  0 0 0  0 0 0  0 0 0  0 0 0
0 0 0  0 0 0  0 0 0  0 0 0  0 0 0  0 0 0
0 0 0  0 0 0  6 14 27  31 75 142  33 81 153  33 81 153
33 81 153  33 81 153  33 81 153  33 81 153  33 81 153  33 81 153
33 81 153  33 81 153  33 81 153  33 81 153  33 81 153  33 81 153
33 81 153  33 81 153  33 81 153  33 81 153  33 81 153  33 81 153
33 81 153  31 77 145  7 17 32  0 0 0  0 0 0  0 0 0
0 0 0  0 0 0  0 0 0  0 0 0  0 0 0  0 0 0
0 0 0  0 0 0  0 0 0  0 0 0  0 0 0  0 0 0
2 5 9  26 64 121  33 81 153  33 81 153  33 81 153  33 81 153
33 81 153  33 81 153  33 81 153  33 81 153  33 81 153  33 81 153
33 81 153  33 81 153  33 81 153  33 81 153  33 81 153  33 81 153
33 81 153  33 81 153  33 81 153  33 81 153  33 81 153  29 72 136
4 11 20  0 0 0  0 0 0  0 0 0  0 0 0  0 0 0
0 0 0  0 0 0  0 0 0  0 0 0  0 0 0  0 0 0
0 0 0  0 0 0  0 0 0  0 0 0  0 0 0  0 0 0
0 0 0  0 0 0  0 0 0  0 0 0  0 0 0  0 0 0
0 0 0  0 0 0  0 0 0  0 0 0  0 0 0  0 0 0
0 0 0  0 0 0  0 0 0  0 0 0  0 0 0  0 0 0
0 0 0  0 0 0  0 0 0  0 0 0  0 0 0  0 0 0
0 0 0  0 0 0  0 0 0  0 0 0  0 0 0  0 0 0
0 0 0  0 0 0  4 10 19  29 71 134  33 81 153  33 81 153
33 81 153  33 81 153  33 81 153  33 81 153  33 81 153  33 81 153
33 81 153  33 81 153  33 81 153  33 81 153  33 81 153  33 81 153
33 81 153  33 81 153  33 81 153  33 81 153  33 81 153  33 81 153
33 81 153  33 81 153  33 81 153  33 81 153  17 42 79  0 0 0
0 0 0  0 0 0  0 0 0  0 0 0  0 0 0  0 0 0
0 0 0  0 0 0  0 0 0  0 0 0  0 0 0  0 0 0
0 0 0  0 0 0  0 0 0  0 0 0  0 0 0  0 0 0
0 0 0  0 0 0  0 0 0  0 0 0  0 0 0  0 0 0
0 0 0  0 0 0  0 0 0  0 0 0  0 0 0  0 0 0
0 0 0  0 0 0  0 0 0  0 0 0  0 0 0  0 0 0
0 0 0  0 0 0  0 0 0  5 13 25  30 73 139  33 81 153
33 81 152  13 31 59  0 0 0  3 8 15  28 68 129  33 81 153
33 81 152  12 30 57  0 0 0  16 39 73  33 81 153  33 81 153
25 60 114  1 3 7  0 0 0  4 10 19  29 71 134  33 81 153
31 76 143  7 17 32  0 0 0  0 0 0  0 0 0  0 0 0
0 0 0  19 46 86  33 81 153  33 81 153  21 52 98  0 1 1
0 0 0  0 0 0  0 0 0  0 0 0  0 0 0  18 45 85
33 81 153  33 81 153  15 37 71  0 0 0  0 0 0  0 0 0
0 0 0  0 0 0  0 0 0  20 49 92  33 81 153  33 81 153
32 78 148  33 81 153  33 81 153  33 81 153  33 81 153  25 62 116
3 6 12  0 0 0  0 0 0  0 0 0  0 0 0  0 0 0
0 0 0  0 0 0  2 6 11  27 66 124  33 81 153  27 67 127
3 7 13  2 4 8  11 27 52  24 58 110  32 78 148  33 81 153
33 81 153  32 79 149  23 57 107  6 15 28  0 0 0  0 0 0
0 0 0  0 0 0  0 0 0  0 0 0  0 0 0  0 0 0
0 0 0  0 0 0  0 0 0  0 0 0  0 0 0  0 0 0
0 0 0  0 0 0  0 0 0  0 0 0  0 0 0  4 9 17
26 64 120  33 81 153  33 81 153  33 81 153  33 81 153  27 65 123
3 7 13  0 0 0  0 0 0  0 0 0  0 0 0  0 0 0
0 0 0  0 0 0  0 0 0  8 19 35  31 77 146  33 81 153
30 73 138  5 13 25  0 0 0  0 0 0  0 0 0  0 0 0
0 0 0  0 0 0  20 49 93  33 81 153  33 80 152  11 27 52
0 0 0  0 0 0  0 0 0  0 0 0  13 33 62  33 81 153
33 81 153  21 53 100  0 1 1  0 0 0  0 0 0  0 0 0
0 0 0  0 0 0  13 32 60  33 81 153  33 81 153  23 55 104
0 1 2  0 0 0  0 0 0  0 0 0  0 0 0  19 46 86
33 81 153  33 81 153  14 35 67  0 0 0  0 0 0  0 0 0
0 0 0  0 0 0  1 2 3  6 15 29  5 13 24  0 0 1
0 0 0  0 0 0  0 0 0  0 0 0  0 0 0  0 0 0
0 0 0  0 0 0  0 0 0  0 0 0  0 0 0  0 0 0
0 0 0  0 0 0  0 0 0  0 1 1  22 54 101  33 81 153
33 81 153  16 39 74  0 0 0  0 0 0  0 0 0  0 0 0
0 0 0  0 0 0  0 0 0  0 0 0  0 0 0  0 0 0
6 14 27  30 75 141  33 81 153  22 54 103  0 1 2  0 0 0
0 0 0  0 0 0  0 0 0  0 0 0  0 0 0  0 0 0
15 37 70  33 81 153  33 81 153  13 32 61  0 0 0  0 0 0
0 0 0  0 0 0  1 2 4  24 58 110  33 81 153  30 73 138
5 12 23  1 2 4  10 24 44  22 55 103  31 77 145  33 81 153
33 81 153  33 80 152  25 61 116  8 20 37  0 0 0  0 0 0
0 0 0  0 0 0  0 0 0  6 15 28  30 75 141  33 81 153
31 76 143  7 18 34  0 0 0  0 0 0  0 0 0  0 0 0
0 0 0  6 14 26  30 74 140  33 81 153  28 68 129  3 7 14
0 0 0  0 0 0  0 0 0  0 0 0  0 0 0  0 0 0
0 0 0  0 0 0  0 0 0  0 0 0  0 0 0  0 0 0
19 48 90  33 81 153  33 81 153  33 81 153  33 81 153  33 81 153
33 81 153  33 81 153  33 81 153  33 81 153  33 81 153  32 78 146
23 56 106  8 18 35  0 0 0  0 0 0  0 0 0  0 0 0
0 0 0  0 0 0  0 0 0  5 11 22  30 72 137  33 81 153
24 59 112  1 2 4  3 7 13  13 32 60  25 62 118  32 79 150
33 81 153  33 81 153  32 78 146  21 51 96  4 10 19  0 0 0
0 0 0  0 0 0  0 0 0  0 0 0  13 32 60  33 81 153
33 81 153  26 64 121  2 5 10  0 0 0  0 0 0  0 0 0
0 0 0  0 0 0  13 31 58  33 81 153  33 81 153  21 52 98
0 0 1  0 0 0  0 0 0  0 0 0  0 0 0  0 0 0
11 28 52  33 80 152  33 81 153  26 64 121
8 19 37  31 76 143  33 81 153  33 81 153  33 81 153  33 81 153
33 81 153  33 81 153  33 81 153  33 81 153  33 81 153  33 81 153
33 81 153  33 81 153  33 81 153  33 81 153  33 81 153  33 81 153
33 81 153  33 81 153  33 81 153  33 81 153  33 81 153  33 81 153
26 64 120  2 4 8  0 0 0  0 0 0  0 0 0  0 0 0
0 0 0  0 0 0  0 0 0  0 0 0  0 0 0  0 0 0
0 0 0  0 0 0  0 0 0  0 0 0  0 0 0  0 0 0
0 0 0  0 0 0  0 0 0  0 0 0  0 0 0  0 0 0
0 0 0  0 0 0  0 0 0  0 0 0  0 0 0  0 0 0
0 0 0  0 0 0  0 0 0  0 0 0  0 0 0  0 0 0
0 0 0  0 0 0  0 0 0  0 0 0  0 0 0  0 0 0
0 0 0  0 0 0  0 0 0  0 0 0  0 0 0  0 0 0
0 0 0  0 0 0  0 0 0  0 0 0  0 0 0  0 0 0
0 0 0  0 0 0  0 0 0  0 0 0  0 0 0  0 0 0
0 0 0  0 0 0  0 0 0  0 0 0  0 0 0  0 0 0
0 0 0  1 3 6  25 62 116  33 81 153  33 81 153  33 81 153
33 81 153  33 81 153  33 81 153  33 81 153  33 81 153  33 81 153
33 81 153  33 81 153  33 81 153  33 81 153  33 81 153  33 81 153
33 81 153  33 81 153  33 81 153  33 81 153  33 81 153  33 81 153
33 81 153  31 77 146  8 19 35  0 0 0  0 0 0  0 0 0
0 0 0  0 0 0  0 0 0  0 0 0  0 0 0  0 0 0
0 0 0  0 0 0  0 0 0  0 0 0  0 0 0  0 0 0
0 0 0  0 0 0  0 0 0  0 0 0  0 0 0  0 0 0
0 0 0  0 0 0  0 0 0  0 0 0  0 0 0  0 0 0
0 0 0  0 0 0  0 0 0  0 0 0  0 0 0  0 0 0
0 0 0  0 0 0  0 0 0  0 0 0  0 0 0  0 0 0
0 0 0  0 0 0  0 0 0  0 0 0  0 0 0  1 1 2
23 57 107  33 81 153  33 81 153  33 81 153  33 81 153  33 81 153
33 81 153  33 81 153  33 81 153  33 81 153  33 81 153  33 81 153
33 81 153  33 81 153  33 81 153  33 81 153  33 81 153  33 81 153
33 81 153  33 81 153  33 81 153  33 81 153  33 81 153  17 41 77
0 0 0  0 0 0  0 0 0  0 0 0  0 0 0  0 0 0
0 0 0  0 0 0  0 0 0  0 0 0  0 0 0  0 0 0
0 0 0  0 0 0  0 0 0  0 0 0  0 0 0  0 0 0
0 0 0  0 0 0  0 0 0  0 0 0  0 0 0  0 0 0
0 0 0  0 0 0  0 0 0  0 0 0  0 0 0  0 0 0
0 0 0  0 0 0  0 0 0  0 0 0  0 0 0  0 0 0
0 0 0  0 0 0  0 0 0  0 0 0  0 0 0  0 0 0
0 0 0  0 0 0  0 0 0  0 0 0  0 0 0  0 0 0
0 0 0  0 0 0  0 0 0  0 0 0  0 0 0  0 0 0
0 0 0  0 0 0  6 14 27  31 75 142  33 81 153  33 81 153
33 81 153  33 81 153  33 81 153  33 81 153  33 81 153  33 81 153
33 81 153  33 81 153  33 81 153  33 81 153  33 81 153  33 81 153
33 81 153  33 81 153  33 81 153  33 81 153  33 81 153  33 81 153
33 81 153  31 77 145  7 17 32  0 0 0  0 0 0  0 0 0
0 0 0  0 0 0  0 0 0  0 0 0  0 0 0  0 0 0
0 0 0  0 0 0  0 0 0  0 0 0  0 0 0  0 0 0
2 5 9  26 64 121  33 81 153  33 81 153  33 81 153  33 81 153
33 81 153  33 81 153  33 81 153  33 81 153  33 81 153  33 81 153
33 81 153  33 81 153  33 81 153  33 81 153  33 81 153  33 81 153
33 81 153  33 81 153  33 81 153  33 81 153  33 81 153  29 72 136
4 11 20  0 0 0  0 0 0  0 0 0  0 0 0  0 0 0
0 0 0  0 0 0  0 0 0  0 0 0  0 0 0  0 0 0
0 0 0  0 0 0  0 0 0  0 0 0  0 0 0  0 0 0
0 0 0  0 0 0  0 0 0  0 0 0  0 0 0  0 0 0
0 0 0  0 0 0  0 0 0  0 0 0  0 0 0  0 0 0
0 0 0  0 0 0  0 0 0  0 0 0  0 0 0  0 0 0
0 0 0  0 0 0  0 0 0  0 0 0  0 0 0  0 0 0
0 0 0  0 0 0  0 0 0  0 0 0  0 0 0  0 0 0
0 0 0  0 0 0  2 5 10  26 64 122  33 81 153  33 81 153
33 81 153  33 81 153  33 81 153  33 81 153  33 81 153  33 81 153
33 81 153  33 81 153  33 81 153  33 81 153  33 81 153  33 81 153
33 81 153  33 81 153  33 81 153  33 81 153  33 81 153  33 81 153
33 81 153  33 81 153  33 81 153  33 81 153  21 51 95  0 0 0
0 0 0  0 0 0  0 0 0  0 0 0  0 0 0  0 0 0
0 0 0  0 0 0  0 0 0  0 0 0  0 0 0  0 0 0
0 0 0  0 0 0  0 0 0  0 0 0  0 0 0  0 0 0
0 0 0  0 0 0  0 0 0  0 0 0  0 0 0  0 0 0
0 0 0  0 0 0  0 0 0  0 0 0  0 0 0  0 0 0
0 0 0  0 0 0  0 0 0  0 0 0  0 0 0  0 0 0
0 0 0  0 0 0  0 0 0  12 29 55  33 80 152  33 81 153
31 76 143  7 17 31  0 0 0  1 1 2  22 54 103  33 81 153
33 81 153  20 48 91  2 4 8  25 62 116  33 81 153  33 81 153
16 38 72  0 0 0  0 0 0  1 3 7  25 61 116  33 81 153
33 81 152  12 30 58  0 0 0  0 0 0  0 0 0  0 0 0
1 2 3  23 57 107  33 81 153  33 81 153  13 33 62  0 0 0
0 0 0  0 0 0  0 0 0  0 0 0  0 0 0  17 42 80
33 81 153  33 81 153  15 36 68  0 0 0  0 0 0  0 0 0
0 0 0  0 0 0  0 0 0  20 50 94  33 81 153  33 81 153
33 81 153  33 81 153  33 80 152  33 80 151  33 81 153  33 81 153
18 44 83  0 1 2  0 0 0  0 0 0  0 0 0  0 0 0
0 0 0  0 0 0  5 12 23  30 73 138  33 81 153  23 56 106
13 31 58  25 61 116  32 79 149  33 81 153  33 81 153  32 79 149
25 61 115  12 28 53  2 4 7  0 0 0  0 0 0  0 0 0
0 0 0  0 0 0  0 0 0  0 0 0  0 0 0  0 0 0
0 0 0  0 0 0  0 0 0  0 0 0  0 0 0  0 0 0
0 0 0  0 0 0  0 0 0  0 0 0  0 0 0  0 0 0
9 21 40  30 73 139  33 81 153  33 81 153  33 81 153  15 37 70
0 0 0  0 0 0  0 0 0  0 0 0  0 0 0  0 0 0
0 0 0  0 0 0  0 0 0  11 28 52  33 80 152  33 81 153
25 62 118  2 4 7  0 0 0  0 0 0  0 0 0  0 0 0
0 0 0  0 0 0  18 44 82  33 81 153  33 81 153  12 30 57
0 0 0  0 0 0  0 0 0  0 0 0  12 30 57  33 81 153
33 81 153  22 54 102  0 1 2  0 0 0  0 0 0  0 0 0
0 0 0  0 0 0  13 31 58  33 81 153  33 81 153  22 55 104
0 1 2  0 0 0  0 0 0  0 0 0  0 0 0  19 46 86
33 81 153  33 80 151  11 26 49  0 0 0  0 0 0  0 0 0
0 0 0  0 0 0  0 0 0  0 0 0  0 0 0  0 0 0
0 0 0  0 0 0  0 0 0  0 0 0  0 0 0  0 0 0
0 0 0  0 0 0  0 0 0  0 0 0  0 0 0  0 0 0
0 0 0  0 0 0  0 0 0  0 0 0  20 50 94  33 81 153
33 81 153  17 42 79  0 0 0  0 0 0  0 0 0  0 0 0
0 0 0  0 0 0  0 0 0  0 0 0  0 0 0  0 0 0
9 21 40  32 78 148  33 81 153  18 45 85  0 0 0  0 0 0
0 0 0  0 0 0  0 0 0  0 0 0  0 0 0  0 0 0
16 39 73  33 81 153  33 81 153  13 33 62  0 0 0  0 0 0
0 0 0  0 0 0  3 6 12  27 67 126  33 81 153  26 63 119
12 29 55  23 57 109  32 78 147  33 81 153  33 81 153  33 80 151
26 64 121  13 33 62  2 6 11  0 0 0  0 0 0  0 0 0
0 0 0  0 0 0  0 0 0  10 24 45  32 79 150  33 81 153
27 65 123  2 5 10  0 0 0  0 0 0  0 0 0  0 0 0
0 0 0  5 12 23  30 73 137  33 81 153  27 67 127  3 6 12
0 0 0  0 0 0  0 0 0  0 0 0  0 0 0  0 0 0
0 0 0  0 0 0  0 0 0  0 0 0  0 0 0  0 0 0
20 49 92  33 81 153  33 81 153  33 81 153  33 81 153  33 81 153
33 81 153  33 81 153  33 81 153  33 81 152  23 57 109  9 21 40
1 3 5  0 0 0  0 0 0  0 0 0  0 0 0  0 0 0
0 0 0  0 0 0  0 0 0  8 19 37  32 78 146  33 81 153
20 49 92  14 34 64  27 65 123  33 80 151  33 81 153  33 81 153
32 78 146  23 57 107  10 24 45  1 2 4  0 0 0  0 0 0
0 0 0  0 0 0  0 0 0  0 0 0  17 43 81  33 81 153
33 81 153  19 47 89  0 0 0  0 0 0  0 0 0  0 0 0
0 0 0  0 0 0  11 28 53  33 80 152  33 81 153  20 50 95
0 0 0  0 0 0  0 0 0  0 0 0  0 0 0  0 0 0
12 30 57  33 81 153  33 81 153  25 62 117
10 25 47  32 78 148  33 81 153  33 81 153  33 81 153  33 81 153
33 81 153  33 81 153  33 81 153  33 81 153  33 81 153  33 81 153
33 81 153  33 81 153  33 81 153  33 81 153  33 81 153  33 81 153
33 81 153  33 81 153  33 81 153  33 81 153  33 81 153  33 81 153
24 59 112  1 3 5  0 0 0  0 0 0  0 0 0  0 0 0
0 0 0  0 0 0  0 0 0  0 0 0  0 0 0  0 0 0
0 0 0  0 0 0  0 0 0  0 0 0  0 0 0  0 0 0
0 0 0  0 0 0  0 0 0  0 0 0  0 0 0  0 0 0
0 0 0  0 0 0  0 0 0  0 0 0  0 0 0  0 0 0
0 0 0  0 0 0  0 0 0  0 0 0  0 0 0  0 0 0
0 0 0  0 0 0  0 0 0  0 0 0  0 0 0  0 0 0
0 0 0  0 0 0  0 0 0  0 0 0  0 0 0  0 0 0
0 0 0  0 0 0  0 0 0  0 0 0  0 0 0  0 0 0
0 0 0  0 0 0  0 0 0  0 0 0  0 0 0  0 0 0
0 0 0  0 0 0  0 0 0  0 0 0  0 0 0  0 0 0
0 0 0  1 2 3  23 57 108  33 81 153  33 81 153  33 81 153
33 81 153  33 81 153  33 81 153  33 81 153  33 81 153  33 81 153
33 81 153  33 81 153  33 81 153  33 81 153  33 81 153  33 81 153
33 81 153  33 81 153  33 81 153  33 81 153  33 81 153  33 81 153
33 81 153  32 79 150  10 24 46  0 0 0  0 0 0  0 0 0
0 0 0  0 0 0  0 0 0  0 0 0  0 0 0  0 0 0
0 0 0  0 0 0  0 0 0  0 0 0  0 0 0  0 0 0
0 0 0  0 0 0  0 0 0  0 0 0  0 0 0  0 0 0
0 0 0  0 0 0  0 0 0  0 0 0  0 0 0  0 0 0
0 0 0  0 0 0  0 0 0  0 0 0  0 0 0  0 0 0
0 0 0  0 0 0  0 0 0  0 0 0  0 0 0  0 0 0
0 0 0  0 0 0  0 0 0  0 0 0  0 0 0  1 1 2
23 57 107  33 81 153  33 81 153  33 81 153  33 81 153  33 81 153
33 81 153  33 81 153  33 81 153  33 81 153  33 81 153  33 81 153
33 81 153  33 81 153  33 81 153  33 81 153  33 81 153  33 81 153
33 81 153  33 81 153  33 81 153  33 81 153  33 81 153  17 41 77
0 0 0  0 0 0  0 0 0  0 0 0  0 0 0  0 0 0
0 0 0  0 0 0  0 0 0  0 0 0  0 0 0  0 0 0
0 0 0  0 0 0  0 0 0  0 0 0  0 0 0  0 0 0
0 0 0  0 0 0  0 0 0  0 0 0  0 0 0  0 0 0
0 0 0  0 0 0  0 0 0  0 0 0  0 0 0  0 0 0
0 0 0  0 0 0  0 0 0  0 0 0  0 0 0  0 0 0
0 0 0  0 0 0  0 0 0  0 0 0  0 0 0  0 0 0
0 0 0  0 0 0  0 0 0  0 0 0  0 0 0  0 0 0
0 0 0  0 0 0  0 0 0  0 0 0  0 0 0  0 0 0
0 0 0  0 0 0  6 14 27  31 75 142  33 81 153  33 81 153
33 81 153  33 81 153  33 81 153  33 81 153  33 81 153  33 81 153
33 81 153  33 81 153  33 81 153  33 81 153  33 81 153  33 81 153
33 81 153  33 81 153  33 81 153  33 81 153  33 81 153  33 81 153
33 81 153  31 77 145  7 17 32  0 0 0  0 0 0  0 0 0
0 0 0  0 0 0  0 0 0  0 0 0  0 0 0  0 0 0
0 0 0  0 0 0  0 0 0  0 0 0  0 0 0  0 0 0
2 5 9  26 64 121  33 81 153  33 81 153  33 81 153  33 81 153
33 81 153  33 81 153  33 81 153  33 81 153  33 81 153  33 81 153
33 81 153  33 81 153  33 81 153  33 81 153  33 81 153  33 81 153
33 81 153  33 81 153  33 81 153  33 81 153  33 81 153  29 72 136
4 11 20  0 0 0  0 0 0  0 0 0  0 0 0  0 0 0
0 0 0  0 0 0  0 0 0  0 0 0  0 0 0  0 0 0
0 0 0  0 0 0  0 0 0  0 0 0  0 0 0  0 0 0
0 0 0  0 0 0  0 0 0  0 0 0  0 0 0  0 0 0
0 0 0  0 0 0  0 0 0  0 0 0  0 0 0  0 0 0
0 0 0  0 0 0  0 0 0  0 0 0  0 0 0  0 0 0
0 0 0  0 0 0  0 0 0  0 0 0  0 0 0  0 0 0
0 0 0  0 0 0  0 0 0  0 0 0  0 0 0  0 0 0
0 0 0  0 0 0  1 2 3  23 57 107  33 81 153  33 81 153
33 81 153  33 81 153  33 81 153  33 81 153  33 81 153  33 81 153
33 81 153  33 81 153  33 81 153  33 81 153  33 81 153  33 81 153
33 81 153  33 81 153  33 81 153  33 81 153  33 81 153  33 81 153
33 81 153  33 81 153  33 81 153  33 81 153  24 59 112  1 3 5
0 0 0  0 0 0  0 0 0  0 0 0  0 0 0  0 0 0
0 0 0  0 0 0  0 0 0  0 0 0  0 0 0  0 0 0
0 0 0  0 0 0  0 0 0  0 0 0  0 0 0  0 0 0
0 0 0  0 0 0  0 0 0  0 0 0  0 0 0  0 0 0
0 0 0  0 0 0  0 0 0  0 0 0  0 0 0  0 0 0
0 0 0  0 0 0  0 0 0  0 0 0  0 0 0  0 0 0
0 0 0  0 0 0  0 0 0  20 48 91  33 81 153  33 81 153
27 65 123  2 6 11  0 0 0  0 0 0  15 37 70  33 81 153
33 81 153  26 64 122  11 26 49  31 77 145  33 81 153  31 76 143
7 17 32  0 0 0  0 0 0  0 0 0  20 49 92  33 81 153
33 81 153  19 47 89  0 0 0  0 0 0  0 0 0  0 0 0
1 3 5  25 60 114  33 81 153  32 80 151  10 26 49  0 0 0
0 0 0  0 0 0  0 0 0  0 0 0  0 0 0  15 37 70
33 81 153  33 81 153  14 35 65  0 0 0  0 0 0  0 0 0
0 0 0  0 0 0  0 1 1  22 53 100  33 81 153  33 81 153
33 81 153  30 75 141  15 38 71  19 47 88  33 81 153  33 81 153
32 78 146  11 28 53  0 0 0  0 0 0  0 0 0  0 0 0
0 0 0  0 0 0  6 16 30  31 76 143  33 81 153  31 77 145
32 79 150  33 81 153  33 81 153  32 78 147  24 58 110  11 27 50
2 5 9  0 0 0  0 0 0  0 0 0  0 0 0  0 0 0
0 0 0  0 0 0  0 0 0  0 0 0  0 0 0  0 0 0
0 0 0  0 0 0  0 0 0  0 0 0  0 0 0  0 0 0
0 0 0  0 0 0  0 0 0  0 0 0  0 0 0  0 0 0
0 1 1  21 53 100  33 81 153  33 81 153  28 70 132  4 11 20
0 0 0  0 0 0  0 0 0  0 0 0  0 0 0  0 0 0
0 0 0  0 0 0  0 0 0  13 31 59  33 81 153  33 81 153
23 56 106  1 1 2  0 0 0  0 0 0  0 0 0  0 0 0
0 0 0  0 0 0  17 43 81  33 81 153  33 81 152  12 29 55
0 0 0  0 0 0  0 0 0  0 0 0  10 26 49  32 80 151
33 81 153  23 57 107  1 2 3  0 0 0  0 0 0  0 0 0
0 0 0  0 0 0  13 31 58  33 81 153  33 81 153  22 55 104
0 1 2  0 0 0  0 0 0  0 0 0  0 0 0  19 46 86
33 81 153  33 80 151  11 27 50  0 0 0  0 0 0  0 0 0
0 0 0  0 0 0  0 0 0  0 0 0  0 0 0  0 0 0
0 0 0  0 0 0  0 0 0  0 0 0  0 0 0  0 0 0
0 0 0  0 0 0  0 0 0  0 0 0  0 0 0  0 0 0
0 0 0  0 0 0  0 0 0  0 0 0  19 46 86  33 81 153
33 81 153  18 44 83  0 0 0  0 0 0  0 0 0  0 0 0
0 0 0  0 0 0  0 0 0  0 0 0  0 0 0  0 0 0
9 23 44  32 79 149  33 81 153  17 42 79  0 0 0  0 0 0
0 0 0  0 0 0  0 0 0  0 0 0  0 0 0  0 0 0
16 39 73  33 81 153  33 81 153  14 34 64  0 0 0  0 0 0
0 0 0  0 0 0  4 9 17  29 71 134  33 81 153  32 78 146
32 78 148  33 81 153  33 81 153  32 79 149  25 62 116  13 31 58
3 7 13  0 0 0  0 0 0  0 0 0  0 0 0  0 0 0
0 0 0  0 0 0  0 0 0  11 27 51  33 80 152  33 81 153
24 59 111  1 2 4  0 0 0  0 0 0  0 0 0  0 0 0
0 0 0  3 9 16  28 70 132  33 81 153  27 66 125  2 6 11
0 0 0  0 0 0  0 0 0  0 0 0  0 0 0  0 0 0
0 0 0  0 0 0  0 0 0  0 0 0  0 0 0  0 0 0
20 48 91  33 81 153  33 81 153  27 67 127  26 64 120  32 78 146
33 81 153  33 81 153  33 81 153  33 81 153  28 69 130  14 34 64
2 5 10  0 0 0  0 0 0  0 0 0  0 0 0  0 0 0
0 0 0  0 0 0  0 0 0  10 24 46  32 79 150  33 81 153
31 76 144  33 80 152  33 81 153  33 81 153  31 76 143  22 54 101
9 23 43  1 3 5  0 0 0  0 0 0  0 0 0  0 0 0
0 0 0  0 0 0  0 0 0  0 0 0  19 47 89  33 81 153
33 81 153  16 40 75  0 0 0  0 0 0  0 0 0  0 0 0
0 0 0  0 0 0  9 23 44  32 79 149  33 81 153  20 50 95
0 0 0  0 0 0  0 0 0  0 0 0  0 0 0  0 0 0
13 33 62  33 81 153  33 81 153  24 60 113
13 32 61  32 80 151  33 81 153  33 81 153  33 81 153  33 81 153
33 81 153  33 81 153  33 81 153  33 81 153  33 81 153  33 81 153
33 81 153  33 81 153  33 81 153  33 81 153  33 81 153  33 81 153
33 81 153  33 81 153  33 81 153  33 81 153  33 81 153  33 81 153
22 55 104  0 1 2  0 0 0  0 0 0  0 0 0  0 0 0
0 0 0  0 0 0  0 0 0  0 0 0  0 0 0  0 0 0
0 0 0  0 0 0  0 0 0  0 0 0  0 0 0  0 0 0
0 0 0  0 0 0  0 0 0  0 0 0  0 0 0  0 0 0
0 0 0  0 0 0  0 0 0  0 0 0  0 0 0  0 0 0
0 0 0  0 0 0  0 0 0  0 0 0  0 0 0  0 0 0
0 0 0  0 0 0  0 0 0  0 0 0  0 0 0  0 0 0
0 0 0  0 0 0  0 0 0  0 0 0  0 0 0  0 0 0
0 0 0  0 0 0  0 0 0  0 0 0  0 0 0  0 0 0
0 0 0  0 0 0  0 0 0  0 0 0  0 0 0  0 0 0
0 0 0  0 0 0  0 0 0  0 0 0  0 0 0  0 0 0
0 0 0  0 0 1  21 52 99  33 81 153  33 81 153  33 81 153
33 81 153  33 81 153  33 81 153  33 81 153  33 81 153  33 81 153
33 81 153  33 81 153  33 81 153  33 81 153  33 81 153  33 81 153
33 81 153  33 81 153  33 81 153  33 81 153  33 81 153  33 81 153
33 81 153  33 81 153  12 30 58  0 0 0  0 0 0  0 0 0
0 0 0  0 0 0  0 0 0  0 0 0  0 0 0  0 0 0
0 0 0  0 0 0  0 0 0  0 0 0  0 0 0  0 0 0
0 0 0  0 0 0  0 0 0  0 0 0  0 0 0  0 0 0
0 0 0  0 0 0  0 0 0  0 0 0  0 0 0  0 0 0
0 0 0  0 0 0  0 0 0  0 0 0  0 0 0  0 0 0
0 0 0  0 0 0  0 0 0  0 0 0  0 0 0  0 0 0
0 0 0  0 0 0  0 0 0  0 0 0  0 0 0  1 1 2
23 57 107  33 81 153  33 81 153  33 81 153  33 81 153  33 81 153
33 81 153  33 81 153  33 81 153  33 81 153  33 81 153  33 81 153
33 81 153  33 81 153  33 81 153  33 81 153  33 81 153  33 81 153
33 81 153  33 81 153  33 81 153  33 81 153  33 81 153  17 41 77
0 0 0  0 0 0  0 0 0  0 0 0  0 0 0  0 0 0
0 0 0  0 0 0  0 0 0  0 0 0  0 0 0  0 0 0
0 0 0  0 0 0  0 0 0  0 0 0  0 0 0  0 0 0
0 0 0  0 0 0  0 0 0  0 0 0  0 0 0  0 0 0
0 0 0  0 0 0  0 0 0  0 0 0  0 0 0  0 0 0
0 0 0  0 0 0  0 0 0  0 0 0  0 0 0  0 0 0
0 0 0  0 0 0  0 0 0  0 0 0  0 0 0  0 0 0
0 0 0  0 0 0  0 0 0  0 0 0  0 0 0  0 0 0
0 0 0  0 0 0  0 0 0  0 0 0  0 0 0  0 0 0
0 0 0  0 0 0  6 14 27  31 75 142  33 81 153  33 81 153
33 81 153  33 81 153  33 81 153  33 81 153  33 81 153  33 81 153
33 81 153  33 81 153  33 81 153  33 81 153  33 81 153  33 81 153
33 81 153  33 81 153  33 81 153  33 81 153  33 81 153  33 81 153
33 81 153  31 77 145  7 17 32  0 0 0  0 0 0  0 0 0
0 0 0  0 0 0  0 0 0  0 0 0  0 0 0  0 0 0
0 0 0  0 0 0  0 0 0  0 0 0  0 0 0  0 0 0
2 5 9  26 64 121  33 81 153  33 81 153  33 81 153  33 81 153
33 81 153  33 81 153  33 81 153  33 81 153  33 81 153  33 81 153
33 81 153  33 81 153  33 81 153  33 81 153  33 81 153  33 81 153
33 81 153  33 81 153  33 81 153  33 81 153  33 81 153  29 72 136
4 11 20  0 0 0  0 0 0  0 0 0  0 0 0  0 0 0
0 0 0  0 0 0  0 0 0  0 0 0  0 0 0  0 0 0
0 0 0  0 0 0  0 0 0  0 0 0  0 0 0  0 0 0
0 0 0  0 0 0  0 0 0  0 0 0  0 0 0  0 0 0
0 0 0  0 0 0  0 0 0  0 0 0  0 0 0  0 0 0
0 0 0  0 0 0  0 0 0  0 0 0  0 0 0  0 0 0
0 0 0  0 0 0  0 0 0  0 0 0  0 0 0  0 0 0
0 0 0  0 0 0  0 0 0  0 0 0  0 0 0  0 0 0
0 0 0  0 0 0  0 0 0  19 47 88  33 81 153  33 81 153
33 81 153  33 81 153  33 81 153  33 81 153  33 81 153  33 81 153
33 81 153  33 81 153  33 81 153  33 81 153  33 81 153  33 81 153
33 81 153  33 81 153  33 81 153  33 81 153  33 81 153  33 81 153
33 81 153  33 81 153  33 81 153  33 81 153  28 68 128  3 7 13
0 0 0  0 0 0  0 0 0  0 0 0  0 0 0  0 0 0
0 0 0  0 0 0  0 0 0  0 0 0  0 0 0  0 0 0
0 0 0  0 0 0  0 0 0  0 0 0  0 0 0  0 0 0
0 0 0  0 0 0  0 0 0  0 0 0  0 0 0  0 0 0
0 0 0  0 0 0  0 0 0  0 0 0  0 0 0  0 0 0
0 0 0  0 0 0  0 0 0  0 0 0  0 0 0  0 0 0
0 0 0  0 0 0  2 6 11  27 65 123  33 81 153  33 81 153
20 50 94  0 0 1  0 0 0  0 0 0  8 20 38  32 78 146
33 81 153  31 76 144  25 63 118  33 81 153  33 81 153  25 61 115
1 3 7  0 0 0  0 0 0  0 0 0  14 35 65  33 81 153
33 81 153  26 64 120  2 5 9  0 0 0  0 0 0  0 0 0
1 2 4  24 59 112  33 81 153  33 80 151  11 27 50  0 0 0
0 0 0  0 0 0  0 0 0  0 0 0  0 0 0  13 31 58
33 81 153  33 81 153  15 36 68  0 0 0  0 0 0  0 0 0
0 0 0  0 0 0  1 2 3  23 57 107  33 81 153  33 81 153
26 64 120  9 21 40  0 0 0  3 7 13  25 60 114  33 81 153
33 81 153  28 69 131  6 14 27  0 0 0  0 0 0  0 0 0
0 0 0  0 0 0  7 17 31  31 76 144  33 81 153  33 81 153
33 81 153  31 77 145  22 55 103  10 24 44  1 3 6  0 0 0
0 0 0  0 0 0  0 0 0  0 0 0  0 0 0  0 0 0
0 0 0  0 0 0  0 0 0  0 0 0  0 0 0  0 0 0
0 0 0  0 0 0  0 0 0  0 0 0  0 0 0  0 0 0
0 0 0  0 0 0  0 0 0  0 0 0  0 0 0  0 0 0
6 14 27  29 71 135  33 81 153  33 81 153  17 43 80  0 0 0
0 0 0  0 0 0  0 0 0  0 0 0  0 0 0  0 0 0
0 0 0  0 0 0  0 0 0  12 29 55  33 81 152  33 81 153
23 57 108  1 2 3  0 0 0  0 0 0  0 0 0  0 0 0
0 0 0  0 0 0  20 49 92  33 81 153  32 79 149  9 23 44
0 0 0  0 0 0  0 0 0  0 0 0  8 20 38  32 78 148
33 81 153  25 61 116  1 3 6  0 0 0  0 0 0  0 0 0
0 0 0  0 0 0  12 30 56  33 81 152  33 81 153  22 55 104
0 1 2  0 0 0  0 0 0  0 0 0  0 0 0  19 46 86
33 81 153  33 80 152  11 27 52  0 0 0  0 0 0  0 0 0
0 0 0  0 0 0  0 0 0  0 0 0  0 0 0  0 0 0
0 0 0  0 0 0  0 0 0  0 0 0  0 0 0  0 0 0
0 0 0  0 0 0  0 0 0  0 0 0  0 0 0  0 0 0
0 0 0  0 0 0  0 0 0  0 0 0  18 44 82  33 81 153
33 81 153  18 45 85  0 0 0  0 0 0  0 0 0  0 0 0
0 0 0  0 0 0  0 0 0  0 0 0  0 0 0  0 0 0
9 21 40  32 78 148  33 81 153  19 48 90  0 0 0  0 0 0
0 0 0  0 0 0  0 0 0  0 0 0  0 0 0  0 0 0
15 37 70  33 81 153  33 81 153  14 35 67  0 0 0  0 0 0
0 0 0  0 0 0  4 10 19  29 71 135  33 81 153  33 81 153
33 81 153  32 78 148  24 58 110  11 28 52  2 5 10  0 0 0
0 0 0  0 0 0  0 0 0  0 0 0  0 0 0  0 0 0
0 0 0  0 0 0  0 0 0  11 26 49  33 80 151  33 81 153
24 60 113  1 3 5  0 0 0  0 0 0  0 0 0  0 0 0
0 0 0  2 5 10  27 65 124  33 81 153  28 68 128  3 7 13
0 0 0  0 0 0  0 0 0  0 0 0  0 0 0  0 0 0
0 0 0  0 0 0  0 0 0  0 0 0  0 0 0  0 0 0
19 45 86  33 81 153  33 81 153  19 45 86  2 5 9  9 22 41
20 48 91  30 73 137  33 81 153  33 81 153  33 81 153  33 80 152
24 59 112  8 18 35  0 0 0  0 0 0  0 0 0  0 0 0
0 0 0  0 0 0  0 0 0  10 25 47  32 80 151  33 81 153
33 81 153  33 81 153  30 74 140  20 50 95  8 20 37  1 2 4
0 0 0  0 0 0  0 0 0  0 0 0  0 0 0  0 0 0
0 0 0  0 0 0  0 0 0  0 0 0  19 46 86  33 81 153
33 81 153  17 41 77  0 0 0  0 0 0  0 0 0  0 0 0
0 0 0  0 0 0  7 18 34  31 77 145  33 81 153  21 51 96
0 0 0  0 0 0  0 0 0  0 0 0  0 0 0  0 0 0
15 36 68  33 81 153  33 81 153  23 57 109
16 39 74  33 81 153  33 81 153  33 81 153  33 81 153  33 81 153
33 81 153  33 81 153  33 81 153  33 81 153  33 81 153  33 81 153
33 81 153  33 81 153  33 81 153  33 81 153  33 81 153  33 81 153
33 81 153  33 81 153  33 81 153  33 81 153  33 81 153  33 81 153
20 50 95  0 0 0  0 0 0  0 0 0  0 0 0  0 0 0
0 0 0  0 0 0  0 0 0  0 0 0  0 0 0  0 0 0
0 0 0  0 0 0  0 0 0  0 0 0  0 0 0  0 0 0
0 0 0  0 0 0  0 0 0  0 0 0  0 0 0  0 0 0
0 0 0  0 0 0  0 0 0  0 0 0  0 0 0  0 0 0
0 0 0  0 0 0  0 0 0  0 0 0  0 0 0  0 0 0
0 0 0  0 0 0  0 0 0  0 0 0  0 0 0  0 0 0
0 0 0  0 0 0  0 0 0  0 0 0  0 0 0  0 0 0
0 0 0  0 0 0  0 0 0  0 0 0  0 0 0  0 0 0
0 0 0  0 0 0  0 0 0  0 0 0  0 0 0  0 0 0
0 0 0  0 0 0  0 0 0  0 0 0  0 0 0  0 0 0
0 0 0  0 0 0  19 48 90  33 81 153  33 81 153  33 81 153
33 81 153  33 81 153  33 81 153  33 81 153  33 81 153  33 81 153
33 81 153  33 81 153  33 81 153  33 81 153  33 81 153  33 81 153
33 81 153  33 81 153  33 81 153  33 81 153  33 81 153  33 81 153
33 81 153  33 81 153  15 37 70  0 0 0  0 0 0  0 0 0
0 0 0  0 0 0  0 0 0  0 0 0  0 0 0  0 0 0
0 0 0  0 0 0  0 0 0  0 0 0  0 0 0  0 0 0
0 0 0  0 0 0  0 0 0  0 0 0  0 0 0  0 0 0
0 0 0  0 0 0  0 0 0  0 0 0  0 0 0  0 0 0
0 0 0  0 0 0  0 0 0  0 0 0  0 0 0  0 0 0
0 0 0  0 0 0  0 0 0  0 0 0  0 0 0  0 0 0
0 0 0  0 0 0  0 0 0  0 0 0  0 0 0  1 1 2
23 57 107  33 81 153  33 81 153  33 81 153  33 81 153  33 81 153
33 81 153  33 81 153  33 81 153  33 81 153  33 81 153  33 81 153
33 81 153  33 81 153  33 81 153  33 81 153  33 81 153  33 81 153
33 81 153  33 81 153  33 81 153  33 81 153  33 81 153  17 41 77
0 0 0  0 0 0  0 0 0  0 0 0  0 0 0  0 0 0
0 0 0  0 0 0  0 0 0  0 0 0  0 0 0  0 0 0
0 0 0  0 0 0  0 0 0  0 0 0  0 0 0  0 0 0
0 0 0  0 0 0  0 0 0  0 0 0  0 0 0  0 0 0
0 0 0  0 0 0  0 0 0  0 0 0  0 0 0  0 0 0
0 0 0  0 0 0  0 0 0  0 0 0  0 0 0  0 0 0
0 0 0  0 0 0  0 0 0  0 0 0  0 0 0  0 0 0
0 0 0  0 0 0  0 0 0  0 0 0  0 0 0  0 0 0
0 0 0  0 0 0  0 0 0  0 0 0  0 0 0  0 0 0
0 0 0  0 0 0  6 14 27  31 75 142  33 81 153  33 81 153
33 81 153  33 81 153  33 81 153  33 81 153  33 81 153  33 81 153
33 81 153  33 81 153  33 81 153  33 81 153  33 81 153  33 81 153
33 81 153  33 81 153  33 81 153  33 81 153  33 81 153  33 81 153
33 81 153  31 77 145  7 17 32  0 0 0  0 0 0  0 0 0
0 0 0  0 0 0  0 0 0  0 0 0  0 0 0  0 0 0
0 0 0  0 0 0  0 0 0  0 0 0  0 0 0  0 0 0
2 5 9  26 64 121  33 81 153  33 81 153  33 81 153  33 81 153
33 81 153  33 81 153  33 81 153  33 81 153  33 81 153  33 81 153
33 81 153  33 81 153  33 81 153  33 81 153  33 81 153  33 81 153
33 81 153  33 81 153  33 81 153  33 81 153  33 81 153  29 72 136
4 11 20  0 0 0  0 0 0  0 0 0  0 0 0  0 0 0
0 0 0  0 0 0  0 0 0  0 0 0  0 0 0  0 0 0
0 0 0  0 0 0  0 0 0  0 0 0  0 0 0  0 0 0
0 0 0  0 0 0  0 0 0  0 0 0  0 0 0  0 0 0
0 0 0  0 0 0  0 0 0  0 0 0  0 0 0  0 0 0
0 0 0  0 0 0  0 0 0  0 0 0  0 0 0  0 0 0
0 0 0  0 0 0  0 0 0  0 0 0  0 0 0  0 0 0
0 0 0  0 0 0  0 0 0  0 0 0  0 0 0  0 0 0
0 0 0  0 0 0  0 0 0  15 36 68  33 81 153  33 81 153
33 81 153  33 81 153  33 81 153  33 81 153  33 81 153  33 81 153
33 81 153  33 81 153  33 81 153  33 81 153  33 81 153  33 81 153
33 81 153  33 81 153  33 81 153  33 81 153  33 81 153  33 81 153
33 81 153  33 81 153  33 81 153  33 81 153  30 74 140  6 14 26
0 0 0  0 0 0  0 0 0  0 0 0  0 0 0  0 0 0
0 0 0  0 0 0  0 0 0  0 0 0  0 0 0  0 0 0
0 0 0  0 0 0  0 0 0  0 0 0  0 0 0  0 0 0
0 0 0  0 0 0  0 0 0  0 0 0  0 0 0  0 0 0
0 0 0  0 0 0  0 0 0  0 0 0  0 0 0  0 0 0
0 0 0  0 0 0  0 0 0  0 0 0  0 0 0  0 0 0
0 0 0  0 0 0  7 17 31  31 76 143  33 81 153  33 81 153
13 33 62  0 0 0  0 0 0  0 0 0  3 7 14  27 67 127
33 81 153  33 81 153  33 81 153  33 81 153  33 81 153  16 40 75
0 0 0  0 0 0  0 0 0  0 0 0  8 20 38  32 78 146
33 81 153  31 75 142  7 17 31  0 0 0  0 0 0  0 0 0
0 1 2  22 54 102  33 81 153  33 81 153  14 35 66  0 0 0
0 0 0  0 0 0  0 0 0  0 0 0  0 0 0  10 24 46
32 79 150  33 81 153  17 42 80  0 0 0  0 0 0  0 0 0
0 0 0  0 0 0  1 3 6  25 61 115  33 81 153  32 80 151
11 27 50  0 0 0  0 0 0  0 0 0  7 17 33  29 72 136
33 81 153  33 81 153  23 56 106  2 5 9  0 0 0  0 0 0
0 0 0  0 0 0  5 12 23  30 73 138  33 81 153  32 78 147
21 51 97  8 20 38  1 2 4  0 0 0  0 0 0  0 0 0
0 0 0  0 0 0  0 0 0  0 0 0  2 5 10  2 4 8
0 0 0  0 0 0  0 0 0  0 0 0  0 0 0  0 0 0
0 0 0  0 0 0  0 0 0  0 0 0  0 0 0  0 0 0
0 0 0  0 0 0  0 0 0  0 0 0  0 0 0  0 1 2
19 48 90  33 81 153  33 81 153  29 72 136  5 13 25  0 0 0
0 0 0  0 0 0  0 0 0  0 0 0  0 0 0  0 0 0
0 0 0  0 0 0  0 0 0  9 21 40  32 78 148  33 81 153
27 66 125  3 6 12  0 0 0  0 0 0  0 0 0  0 0 0
0 0 0  2 5 9  26 63 119  33 81 153  30 74 139  5 13 25
0 0 0  0 0 0  0 0 0  0 0 0  6 15 28  31 75 142
33 81 153  27 67 126  3 6 12  0 0 0  0 0 0  0 0 0
0 0 0  0 0 0  12 29 55  33 81 152  33 81 153  22 55 104
0 1 2  0 0 0  0 0 0  0 0 0  0 0 0  19 46 86
33 81 153  33 81 152  12 28 53  0 0 0  0 0 0  0 0 0
0 0 0  0 0 0  0 0 0  0 0 0  0 0 0  0 0 0
0 0 0  0 0 0  0 0 0  0 0 0  0 0 0  0 0 0
0 0 0  0 0 0  0 0 0  0 0 0  0 0 0  0 0 0
0 0 0  0 0 0  0 0 0  0 0 0  18 44 83  33 81 153
33 81 153  18 45 85  0 0 0  0 0 0  0 0 0  0 0 0
0 0 0  0 0 0  0 0 0  0 0 0  0 0 0  0 0 0
6 14 26  30 74 140  33 81 153  27 66 124  3 7 14  0 0 0
0 0 0  0 0 0  0 0 0  0 0 0  0 0 0  0 0 0
15 36 68  33 81 153  33 81 153  16 39 73  0 0 0  0 0 0
0 0 0  0 0 0  3 7 13  27 67 127  33 81 153  32 79 150
23 56 106  10 24 46  1 3 7  0 0 0  0 0 0  0 0 0
0 0 0  0 0 0  0 0 0  0 0 0  2 4 8  2 5 10
0 0 0  0 0 0  0 0 0  9 21 40  32 78 148  33 81 153
27 66 125  2 6 11  0 0 0  0 0 0  0 0 0  0 0 0
0 0 0  1 3 5  24 60 113  33 81 153  29 71 134  4 10 19
0 0 0  0 0 0  0 0 0  0 0 0  0 0 0  0 0 0
0 0 0  0 0 0  0 0 0  0 0 0  0 0 0  0 0 0
17 43 80  33 81 153  33 81 153  20 48 91  0 0 0  0 0 0
0 0 1  6 14 27  19 46 86  30 75 141  33 81 153  33 81 153
33 81 153  30 73 138  14 33 63  1 2 4  0 0 0  0 0 0
0 0 0  0 0 0  0 0 0  8 20 38  32 78 147  33 81 153
31 76 143  19 47 88  7 17 32  0 1 2  0 0 0  0 0 0
0 0 0  0 0 0  0 0 0  0 0 0  0 0 0  3 6 12
1 3 6  0 0 0  0 0 0  0 0 0  16 40 75  33 81 153
33 81 153  20 49 93  0 0 0  0 0 0  0 0 0  0 0 0
0 0 0  0 0 0  5 13 24  30 74 139  33 81 153  23 56 106
1 1 2  0 0 0  0 0 0  0 0 0  0 0 0  0 0 0
16 39 74  33 81 153  33 81 153  22 55 104
19 47 88  33 81 153  33 81 153  33 81 153  33 81 153  33 81 153
33 81 153  33 81 153  33 81 153  33 81 153  33 81 153  33 81 153
33 81 153  33 81 153  33 81 153  33 81 153  33 81 153  33 81 153
33 81 153  33 81 153  33 81 153  33 81 153  33 81 153  33 81 153
18 45 85  0 0 0  0 0 0  0 0 0  0 0 0  0 0 0
0 0 0  0 0 0  0 0 0  0 0 0  0 0 0  0 0 0
0 0 0  0 0 0  0 0 0  0 0 0  0 0 0  0 0 0
0 0 0  0 0 0  0 0 0  0 0 0  0 0 0  0 0 0
0 0 0  0 0 0  0 0 0  0 0 0  0 0 0  0 0 0
0 0 0  0 0 0  0 0 0  0 0 0  0 0 0  0 0 0
0 0 0  0 0 0  0 0 0  0 0 0  0 0 0  0 0 0
0 0 0  0 0 0  0 0 0  0 0 0  0 0 0  0 0 0
0 0 0  0 0 0  0 0 0  0 0 0  0 0 0  0 0 0
0 0 0  0 0 0  0 0 0  0 0 0  0 0 0  0 0 0
0 0 0  0 0 0  0 0 0  0 0 0  0 0 0  0 0 0
0 0 0  0 0 0  17 43 80  33 81 153  33 81 153  33 81 153
33 81 153  33 81 153  33 81 153  33 81 153  33 81 153  33 81 153
33 81 153  33 81 153  33 81 153  33 81 153  33 81 153  33 81 153
33 81 153  33 81 153  33 81 153  33 81 153  33 81 153  33 81 153
33 81 153  33 81 153  18 44 82  0 0 0  0 0 0  0 0 0
0 0 0  0 0 0  0 0 0  0 0 0  0 0 0  0 0 0
0 0 0  0 0 0  0 0 0  0 0 0  0 0 0  0 0 0
0 0 0  0 0 0  0 0 0  0 0 0  0 0 0  0 0 0
0 0 0  0 0 0  0 0 0  0 0 0  0 0 0  0 0 0
0 0 0  0 0 0  0 0 0  0 0 0  0 0 0  0 0 0
0 0 0  0 0 0  0 0 0  0 0 0  0 0 0  0 0 0
0 0 0  0 0 0  0 0 0  0 0 0  0 0 0  1 1 2
23 57 107  33 81 153  33 81 153  33 81 153  33 81 153  33 81 153
33 81 153  33 81 153  33 81 153  33 81 153  33 81 153  33 81 153
33 81 153  33 81 153  33 81 153  33 81 153  33 81 153  33 81 153
33 81 153  33 81 153  33 81 153  33 81 153  33 81 153  17 41 77
0 0 0  0 0 0  0 0 0  0 0 0  0 0 0  0 0 0
0 0 0  0 0 0  0 0 0  0 0 0  0 0 0  0 0 0
0 0 0  0 0 0  0 0 0  0 0 0  0 0 0  0 0 0
0 0 0  0 0 0  0 0 0  0 0 0  0 0 0  0 0 0
0 0 0  0 0 0  0 0 0  0 0 0  0 0 0  0 0 0
0 0 0  0 0 0  0 0 0  0 0 0  0 0 0  0 0 0
0 0 0  0 0 0  0 0 0  0 0 0  0 0 0  0 0 0
0 0 0  0 0 0  0 0 0  0 0 0  0 0 0  0 0 0
0 0 0  0 0 0  0 0 0  0 0 0  0 0 0  0 0 0
0 0 0  0 0 0  6 14 27  31 75 142  33 81 153  33 81 153
33 81 153  33 81 153  33 81 153  33 81 153  33 81 153  33 81 153
33 81 153  33 81 153  33 81 153  33 81 153  33 81 153  33 81 153
33 81 153  33 81 153  33 81 153  33 81 153  33 81 153  33 81 153
33 81 153  31 77 145  7 17 32  0 0 0  0 0 0  0 0 0
0 0 0  0 0 0  0 0 0  0 0 0  0 0 0  0 0 0
0 0 0  0 0 0  0 0 0  0 0 0  0 0 0  0 0 0
2 5 9  26 64 121  33 81 153  33 81 153  33 81 153  33 81 153
33 81 153  33 81 153  33 81 153  33 81 153  33 81 153  33 81 153
33 81 153  33 81 153  33 81 153  33 81 153  33 81 153  33 81 153
33 81 153  33 81 153  33 81 153  33 81 153  33 81 153  29 72 136
4 11 20  0 0 0  0 0 0  0 0 0  0 0 0  0 0 0
0 0 0  0 0 0  0 0 0  0 0 0  0 0 0  0 0 0
0 0 0  0 0 0  0 0 0  0 0 0  0 0 0  0 0 0
0 0 0  0 0 0  0 0 0  0 0 0  0 0 0  0 0 0
0 0 0  0 0 0  0 0 0  0 0 0  0 0 0  0 0 0
0 0 0  0 0 0  0 0 0  0 0 0  0 0 0  0 0 0
0 0 0  0 0 0  0 0 0  0 0 0  0 0 0  0 0 0
0 0 0  0 0 0  0 0 0  0 0 0  0 0 0  0 0 0
0 0 0  0 0 0  0 0 0  10 25 47  32 79 150  33 81 153
33 81 153  33 81 153  33 81 153  33 81 153  33 81 153  33 81 153
33 81 153  33 81 153  33 81 153  33 81 153  33 81 153  33 81 153
33 81 153  33 81 153  33 81 153  33 81 153  33 81 153  33 81 153
33 81 153  33 81 153  33 81 153  33 81 153  32 79 149  10 24 46
0 0 0  0 0 0  0 0 0  0 0 0  0 0 0  0 0 0
0 0 0  0 0 0  0 0 0  0 0 0  0 0 0  0 0 0
0 0 0  0 0 0  0 0 0  0 0 0  0 0 0  0 0 0
0 0 0  0 0 0  0 0 0  0 0 0  0 0 0  0 0 0
0 0 0  0 0 0  0 0 0  0 0 0  0 0 0  0 0 0
0 0 0  0 0 0  0 0 0  0 0 0  0 0 0  0 0 0
0 0 0  0 0 0  12 29 55  33 80 152  33 81 153  32 78 146
8 20 37  0 0 0  0 0 0  0 0 0  0 1 1  21 51 97
33 81 153  33 81 153  33 81 153  33 81 153  31 77 146  8 20 37
0 0 0  0 0 0  0 0 0  0 0 0  4 9 17  28 70 131
33 81 153  33 81 153  14 34 64  0 0 0  0 0 0  0 0 0
0 0 0  17 43 81  33 81 153  33 81 153  21 53 100  0 1 2
0 0 0  0 0 0  0 0 0  0 0 0  0 0 0  7 17 33
31 77 145  33 81 153  22 55 103  1 1 2  0 0 0  0 0 0
0 0 0  0 0 0  2 5 10  26 65 122  33 81 153  32 78 148
9 21 40  0 0 0  0 0 0  0 0 0  0 0 0  13 32 61
32 79 149  33 81 153  33 81 152  16 39 74  0 0 0  0 0 0
0 0 0  0 0 0  2 4 8  25 63 118  33 81 153  31 75 142
9 23 43  0 0 0  0 0 0  0 0 0  0 0 0  0 0 0
0 0 0  0 0 0  0 0 0  6 14 26  25 61 115  24 58 110
4 10 18  0 0 0  0 0 0  0 0 0  0 0 0  0 0 0
0 0 0  0 0 0  0 0 0  0 0 0  0 0 0  0 0 0
0 0 0  0 0 0  0 0 0  0 0 0  0 0 0  8 19 37
31 75 142  33 81 153  33 81 153  17 41 78  0 0 0  0 0 0
0 0 0  0 0 0  0 0 0  0 0 0  0 0 0  0 0 0
0 0 0  0 0 0  0 0 0  4 10 18  28 70 132  33 81 153
32 78 148  11 27 51  0 0 0  0 0 0  0 0 0  0 0 0
0 0 0  12 30 57  32 79 149  33 81 153  24 59 111  1 3 6
0 0 0  0 0 0  0 0 0  0 0 0  4 9 17  28 70 132
33 81 153  30 73 139  5 12 23  0 0 0  0 0 0  0 0 0
0 0 0  0 0 0  11 28 53  33 81 152  33 81 153  23 57 107
1 2 3  0 0 0  0 0 0  0 0 0  0 0 0  19 46 86
33 81 153  33 81 152  12 28 53  0 0 0  0 0 0  0 0 0
0 0 0  0 0 0  0 0 0  0 0 0  0 0 0  0 0 0
0 0 0  0 0 0  0 0 0  0 0 0  0 0 0  0 0 0
0 0 0  0 0 0  0 0 0  0 0 0  0 0 0  0 0 0
0 0 0  0 0 0  0 0 0  0 0 0  19 46 88  33 81 153
33 81 153  17 42 79  0 0 0  0 0 0  0 0 0  0 0 0
0 0 0  0 0 0  0 0 0  0 0 0  0 0 0  0 0 0
2 4 7  25 61 115  33 81 153  33 80 152  17 41 77  0 1 1
0 0 0  0 0 0  0 0 0  0 0 0  0 0 0  3 7 13
22 55 104  33 81 153  33 81 153  17 43 81  0 0 0  0 0 0
0 0 0  0 0 0  1 1 2  22 55 103  33 81 153  32 78 148
12 30 57  0 0 0  0 0 0  0 0 0  0 0 0  0 0 0
0 0 0  0 0 0  0 0 0  3 9 16  23 56 106  25 62 118
6 15 28  0 0 0  0 0 0  5 12 23  30 73 138  33 81 153
31 76 144  8 18 35  0 0 0  0 0 0  0 0 0  0 0 0
0 0 0  0 0 0  22 53 100  33 81 153  31 77 146  8 20 37
0 0 0  0 0 0  0 0 0  0 0 0  0 0 0  0 0 0
0 0 0  0 0 0  0 0 0  0 0 0  0 0 0  0 0 0
16 39 74  33 81 153  33 81 153  21 51 97  0 0 0  0 0 0
0 0 0  0 0 0  0 0 1  8 19 37  24 58 110  33 80 152
33 81 153  33 81 153  32 79 149  18 43 82  1 3 7  0 0 0
0 0 0  0 0 0  0 0 0  4 10 18  29 70 133  33 81 153
29 70 133  6 15 29  0 0 0  0 0 0  0 0 0  0 0 0
0 0 0  0 0 0  0 0 0  0 0 0  8 20 38  27 65 123
21 51 97  2 5 10  0 0 0  0 0 0  12 29 54  33 80 152
33 81 153  26 65 122  2 6 11  0 0 0  0 0 0  0 0 0
0 0 0  0 0 0  3 8 14  28 69 131  33 81 153  27 66 125
3 7 13  0 0 0  0 0 0  0 0 0  0 0 0  0 0 0
17 42 79  33 81 153  33 81 153  22 53 100
22 54 103  33 81 153  33 81 153  33 81 153  33 81 153  33 81 153
33 81 153  33 81 153  33 81 153  33 81 153  33 81 153  33 81 153
33 81 153  33 81 153  33 81 153  33 81 153  33 81 153  33 81 153
33 81 153  33 81 153  33 81 153  33 81 153  33 81 153  33 81 153
16 40 75  0 0 0  0 0 0  0 0 0  0 0 0  0 0 0
0 0 0  0 0 0  0 0 0  0 0 0  0 0 0  0 0 0
0 0 0  0 0 0  0 0 0  0 0 0  0 0 0  0 0 0
0 0 0  0 0 0  0 0 0  0 0 0  0 0 0  0 0 0
0 0 0  0 0 0  0 0 0  0 0 0  0 0 0  0 0 0
0 0 0  0 0 0  0 0 0  0 0 0  0 0 0  0 0 0
0 0 0  0 0 0  0 0 0  0 0 0  0 0 0  0 0 0
0 0 0  0 0 0  0 0 0  0 0 0  0 0 0  0 0 0
0 0 0  0 0 0  0 0 0  0 0 0  0 0 0  0 0 0
0 0 0  0 0 0  0 0 0  0 0 0  0 0 0  0 0 0
0 0 0  0 0 0  0 0 0  0 0 0  0 0 0  0 0 0
0 0 0  0 0 0  15 37 70  33 81 153  33 81 153  33 81 153
33 81 153  33 81 153  33 81 153  33 81 153  33 81 153  33 81 153
33 81 153  33 81 153  33 81 153  33 81 153  33 81 153  33 81 153
33 81 153  33 81 153  33 81 153  33 81 153  33 81 153  33 81 153
33 81 153  33 81 153  20 50 94  0 0 0  0 0 0  0 0 0
0 0 0  0 0 0  0 0 0  0 0 0  0 0 0  0 0 0
0 0 0  0 0 0  0 0 0  0 0 0  0 0 0  0 0 0
0 0 0  0 0 0  0 0 0  0 0 0  0 0 0  0 0 0
0 0 0  0 0 0  0 0 0  0 0 0  0 0 0  0 0 0
0 0 0  0 0 0  0 0 0  0 0 0  0 0 0  0 0 0
0 0 0  0 0 0  0 0 0  0 0 0  0 0 0  0 0 0
0 0 0  0 0 0  0 0 0  0 0 0  0 0 0  1 1 2
23 57 107  33 81 153  33 81 153  33 81 153  33 81 153  33 81 153
33 81 153  33 81 153  33 81 153  33 81 153  33 81 153  33 81 153
33 81 153  33 81 153  33 81 153  33 81 153  33 81 153  33 81 153
33 81 153  33 81 153  33 81 153  33 81 153  33 81 153  17 41 77
0 0 0  0 0 0  0 0 0  0 0 0  0 0 0  0 0 0
0 0 0  0 0 0  0 0 0  0 0 0  0 0 0  0 0 0
0 0 0  0 0 0  0 0 0  0 0 0  0 0 0  0 0 0
0 0 0  0 0 0  0 0 0  0 0 0  0 0 0  0 0 0
0 0 0  0 0 0  0 0 0  0 0 0  0 0 0  0 0 0
0 0 0  0 0 0  0 0 0  0 0 0  0 0 0  0 0 0
0 0 0  0 0 0  0 0 0  0 0 0  0 0 0  0 0 0
0 0 0  0 0 0  0 0 0  0 0 0  0 0 0  0 0 0
0 0 0  0 0 0  0 0 0  0 0 0  0 0 0  0 0 0
0 0 0  0 0 0  6 14 27  31 75 142  33 81 153  33 81 153
33 81 153  33 81 153  33 81 153  33 81 153  33 81 153  33 81 153
33 81 153  33 81 153  33 81 153  33 81 153  33 81 153  33 81 153
33 81 153  33 81 153  33 81 153  33 81 153  33 81 153  33 81 153
33 81 153  31 77 145  7 17 32  0 0 0  0 0 0  0 0 0
0 0 0  0 0 0  0 0 0  0 0 0  0 0 0  0 0 0
0 0 0  0 0 0  0 0 0  0 0 0  0 0 0  0 0 0
2 5 9  26 64 121  33 81 153  33 81 153  33 81 153  33 81 153
33 81 153  33 81 153  33 81 153  33 81 153  33 81 153  33 81 153
33 81 153  33 81 153  33 81 153  33 81 153  33 81 153  33 81 153
33 81 153  33 81 153  33 81 153  33 81 153  33 81 153  29 72 136
4 11 20  0 0 0  0 0 0  0 0 0  0 0 0  0 0 0
0 0 0  0 0 0  0 0 0  0 0 0  0 0 0  0 0 0
0 0 0  0 0 0  0 0 0  0 0 0  0 0 0  0 0 0
0 0 0  0 0 0  0 0 0  0 0 0  0 0 0  0 0 0
0 0 0  0 0 0  0 0 0  0 0 0  0 0 0  0 0 0
0 0 0  0 0 0  0 0 0  0 0 0  0 0 0  0 0 0
0 0 0  0 0 0  0 0 0  0 0 0  0 0 0  0 0 0
0 0 0  0 0 0  0 0 0  0 0 0  0 0 0  0 0 0
0 0 0  0 0 0  0 0 0  6 15 28  31 75 142  33 81 153
33 81 153  33 81 153  33 81 153  33 81 153  33 81 153  33 81 153
33 81 153  33 81 153  33 81 153  33 81 153  33 81 153  33 81 153
33 81 153  33 81 153  33 81 153  33 81 153  33 81 153  33 81 153
33 81 153  33 81 153  33 81 153  33 81 153  33 81 153  15 37 70
0 0 0  0 0 0  0 0 0  0 0 0  0 0 0  0 0 0
0 0 0  0 0 0  0 0 0  0 0 0  0 0 0  0 0 0
0 0 0  0 0 0  0 0 0  0 0 0  0 0 0  0 0 0
0 0 0  0 0 0  0 0 0  0 0 0  0 0 0  0 0 0
0 0 0  0 0 0  0 0 0  0 0 0  0 0 0  0 0 0
0 0 0  0 0 0  0 0 0  0 0 0  0 0 0  0 0 0
0 0 0  0 0 0  17 41 78  33 81 153  33 81 153  30 73 137
5 12 23  0 0 0  0 0 0  0 0 0  0 0 0  13 32 61
33 81 153  33 81 153  33 81 153  33 81 153  26 64 121  2 5 10
0 0 0  0 0 0  0 0 0  0 0 0  1 2 4  24 58 110
33 81 153  33 81 153  22 54 101  1 1 2  0 0 0  0 0 0
0 0 0  10 25 47  32 79 149  33 81 153  31 75 142  9 23 43
0 0 0  0 0 0  0 0 0  0 0 0  3 7 13  19 47 88
33 80 151  33 81 153  29 71 134  5 11 22  0 0 0  0 0 0
0 0 0  0 0 0  3 7 13  27 67 127  33 81 153  32 78 146
8 19 37  0 0 0  0 0 0  0 0 0  0 0 0  1 2 4
20 48 91  33 81 153  33 81 153  30 74 140  8 19 35  0 0 0
0 0 0  0 0 0  0 0 0  15 38 71  33 81 153  33 81 153
29 70 133  12 29 55  2 4 8  0 0 0  0 0 0  0 0 0
0 0 0  2 5 10  10 24 44  25 63 118  33 81 153  33 80 152
9 23 44  0 0 0  0 0 0  0 0 0  0 0 0  0 0 0
0 0 0  0 0 0  0 0 0  0 0 0  0 0 0  0 0 0
0 0 0  0 0 0  0 0 0  0 0 0  1 2 4  21 52 99
33 81 153  33 81 153  27 67 127  4 10 18  0 0 0  0 0 0
0 0 0  0 0 0  0 0 0  0 0 0  0 0 0  0 0 0
0 0 0  0 0 0  0 0 0  0 1 1  20 49 92  33 81 153
33 81 153  28 68 128  8 20 37  0 1 1  0 0 0  1 2 4
11 27 50  29 72 136  33 81 153  33 80 151  13 31 59  0 0 0
0 0 0  0 0 0  0 0 0  0 0 0  2 4 8  26 63 119
33 81 153  32 79 150  14 34 64  1 3 7  0 1 2  1 2 4
2 6 11  5 13 25  18 44 84  33 81 153  33 81 153  23 57 107
1 2 3  0 0 0  0 0 0  0 0 0  0 0 0  19 46 86
33 81 153  33 81 152  12 28 53  0 0 0  0 0 0  0 0 0
0 0 0  0 0 0  0 0 0  0 0 0  0 0 0  0 0 0
0 0 0  0 0 0  0 0 0  0 0 0  0 0 0  0 0 0
0 0 0  0 0 0  0 0 0  0 0 0  0 0 0  0 0 0
2 4 8  4 9 17  5 12 23  8 19 35  24 60 113  33 81 153
33 81 153  25 62 117  18 44 83  18 45 85  19 46 88  19 47 89
18 44 84  6 16 29  0 0 0  0 0 0  0 0 0  0 0 0
0 0 0  13 32 61  33 80 151  33 81 153  32 78 146  17 41 77
3 7 14  0 0 0  0 0 0  1 1 2  7 17 32  24 58 110
33 81 153  33 81 153  33 81 153  20 49 92  0 0 0  0 0 0
0 0 0  0 0 0  0 0 0  12 29 55  32 80 151  33 81 153
30 74 139  14 35 66  3 6 12  0 0 0  0 0 0  0 0 0
0 0 0  2 4 8  8 20 37  23 57 108  33 81 153  33 81 153
13 32 61  0 0 0  0 0 0  1 3 6  24 60 113  33 81 153
33 81 153  21 51 97  1 3 7  0 0 0  0 0 0  0 0 0
0 0 1  9 23 44  28 70 132  33 81 153  33 81 153  16 40 75
0 0 0  0 0 0  0 0 0  0 0 0  0 0 0  0 0 0
0 0 0  0 0 0  0 0 0  0 0 0  0 0 0  0 0 0
15 36 68  33 81 153  33 81 153  22 53 100  0 1 1  0 0 0
0 0 0  0 0 0  0 0 0  0 0 0  2 5 9  16 39 74
31 76 143  33 81 153  33 81 153  33 80 152  18 45 85  1 3 5
0 0 0  0 0 0  0 0 0  0 1 1  19 47 89  33 81 153
33 81 153  27 65 124  10 24 45  1 3 6  0 0 0  0 0 0
0 0 0  0 0 1  3 7 13  11 28 53  28 68 128  33 81 153
31 76 144  6 15 28  0 0 0  0 0 0  5 13 25  30 73 139
33 81 153  32 79 150  14 34 65  0 0 0  0 0 0  0 0 0
0 0 0  1 3 6  15 36 68  31 77 146  33 81 153  32 78 147
9 22 41  0 0 0  0 0 0  0 0 0  0 0 0  0 0 0
18 44 83  33 81 153  33 81 153  21 51 97
25 61 116  33 81 153  33 81 153  33 81 153  33 81 153  33 81 153
33 81 153  33 81 153  33 81 153  33 81 153  33 81 153  33 81 153
33 81 153  33 81 153  33 81 153  33 81 153  33 81 153  33 81 153
33 81 153  33 81 153  33 81 153  33 81 153  33 81 153  33 81 153
14 35 66  0 0 0  0 0 0  0 0 0  0 0 0  0 0 0
0 0 0  0 0 0  0 0 0  0 0 0  0 0 0  0 0 0
0 0 0  0 0 0  0 0 0  0 0 0  0 0 0  0 0 0
0 0 0  0 0 0  0 0 0  0 0 0  0 0 0  0 0 0
0 0 0  0 0 0  0 0 0  0 0 0  0 0 0  0 0 0
0 0 0  0 0 0  0 0 0  0 0 0  0 0 0  0 0 0
0 0 0  0 0 0  0 0 0  0 0 0  0 0 0  0 0 0
0 0 0  0 0 0  0 0 0  0 0 0  0 0 0  0 0 0
0 0 0  0 0 0  0 0 0  0 0 0  0 0 0  0 0 0
0 0 0  0 0 0  0 0 0  0 0 0  0 0 0  0 0 0
0 0 0  0 0 0  0 0 0  0 0 0  0 0 0  0 0 0
0 0 0  0 0 0  13 32 61  33 81 153  33 81 153  33 81 153
33 81 153  33 81 153  33 81 153  33 81 153  33 81 153  33 81 153
33 81 153  33 81 153  33 81 153  33 81 153  33 81 153  33 81 153
33 81 153  33 81 153  33 81 153  33 81 153  33 81 153  33 81 153
33 81 153  33 81 153  23 56 106  1 1 2  0 0 0  0 0 0
0 0 0  0 0 0  0 0 0  0 0 0  0 0 0  0 0 0
0 0 0  0 0 0  0 0 0  0 0 0  0 0 0  0 0 0
0 0 0  0 0 0  0 0 0  0 0 0  0 0 0  0 0 0
0 0 0  0 0 0  0 0 0  0 0 0  0 0 0  0 0 0
0 0 0  0 0 0  0 0 0  0 0 0  0 0 0  0 0 0
0 0 0  0 0 0  0 0 0  0 0 0  0 0 0  0 0 0
0 0 0  0 0 0  0 0 0  0 0 0  0 0 0  1 1 2
23 57 107  33 81 153  33 81 153  33 81 153  33 81 153  33 81 153
33 81 153  33 81 153  33 81 153  33 81 153  33 81 153  33 81 153
33 81 153  33 81 153  33 81 153  33 81 153  33 81 153  33 81 153
33 81 153  33 81 153  33 81 153  33 81 153  33 81 153  17 41 77
0 0 0  0 0 0  0 0 0  0 0 0  0 0 0  0 0 0
0 0 0  0 0 0  0 0 0  0 0 0  0 0 0  0 0 0
0 0 0  0 0 0  0 0 0  0 0 0  0 0 0  0 0 0
0 0 0  0 0 0  0 0 0  0 0 0  0 0 0  0 0 0
0 0 0  0 0 0  0 0 0  0 0 0  0 0 0  0 0 0
0 0 0  0 0 0  0 0 0  0 0 0  0 0 0  0 0 0
0 0 0  0 0 0  0 0 0  0 0 0  0 0 0  0 0 0
0 0 0  0 0 0  0 0 0  0 0 0  0 0 0  0 0 0
0 0 0  0 0 0  0 0 0  0 0 0  0 0 0  0 0 0
0 0 0  0 0 0  6 14 27  31 75 142  33 81 153  33 81 153
33 81 153  33 81 153  33 81 153  33 81 153  33 81 153  33 81 153
33 81 153  33 81 153  33 81 153  33 81 153  33 81 153  33 81 153
33 81 153  33 81 153  33 81 153  33 81 153  33 81 153  33 81 153
33 81 153  31 77 145  7 17 32  0 0 0  0 0 0  0 0 0
0 0 0  0 0 0  0 0 0  0 0 0  0 0 0  0 0 0
0 0 0  0 0 0  0 0 0  0 0 0  0 0 0  0 0 0
2 5 9  26 64 121  33 81 153  33 81 153  33 81 153  33 81 153
33 81 153  33 81 153  33 81 153  33 81 153  33 81 153  33 81 153
33 81 153  33 81 153  33 81 153  33 81 153  33 81 153  33 81 153
33 81 153  33 81 153  33 81 153  33 81 153  33 81 153  29 72 136
4 11 20  0 0 0  0 0 0  0 0 0  0 0 0  0 0 0
0 0 0  0 0 0  0 0 0  0 0 0  0 0 0  0 0 0
0 0 0  0 0 0  0 0 0  0 0 0  0 0 0  0 0 0
0 0 0  0 0 0  0 0 0  0 0 0  0 0 0  0 0 0
0 0 0  0 0 0  0 0 0  0 0 0  0 0 0  0 0 0
0 0 0  0 0 0  0 0 0  0 0 0  0 0 0  0 0 0
0 0 0  0 0 0  0 0 0  0 0 0  0 0 0  0 0 0
0 0 0  0 0 0  0 0 0  0 0 0  0 0 0  0 0 0
0 0 0  0 0 0  0 0 0  3 7 13  27 67 127  33 81 153
33 81 153  33 81 153  33 81 153  33 81 153  33 81 153  33 81 153
33 81 153  33 81 153  33 81 153  33 81 153  33 81 153  33 81 153
33 81 153  33 81 153  33 81 153  33 81 153  33 81 153  33 81 153
33 81 153  33 81 153  33 81 153  33 81 153  33 81 153  21 52 98
0 1 1  0 0 0  0 0 0  0 0 0  0 0 0  0 0 0
0 0 0  0 0 0  0 0 0  0 0 0  0 0 0  0 0 0
0 0 0  0 0 0  0 0 0  0 0 0  0 0 0  0 0 0
0 0 0  0 0 0  0 0 0  0 0 0  0 0 0  0 0 0
0 0 0  0 0 0  0 0 0  0 0 0  0 0 0  0 0 0
0 0 0  0 0 0  0 0 0  0 0 0  0 0 0  0 0 0
0 0 0  0 0 0  20 50 94  33 81 153  33 81 153  26 64 121
2 5 10  0 0 0  0 0 0  0 0 0  0 0 0  6 16 30
31 75 142  33 81 153  33 81 153  33 81 153  17 42 79  0 0 0
0 0 0  0 0 0  0 0 0  0 0 0  0 0 0  18 44 83
33 81 153  33 81 153  28 69 131  4 9 17  0 0 0  0 0 0
0 0 0  2 6 11  25 63 118  33 81 153  33 81 153  29 71 134
16 39 73  9 23 43  9 23 44  15 36 68  25 63 118  33 81 152
33 81 153  33 81 153  33 81 152  13 33 62  0 0 0  0 0 0
0 0 0  0 0 0  3 8 16  28 69 131  33 81 153  31 77 145
7 17 33  0 0 0  0 0 0  0 0 0  0 0 0  0 0 0
4 10 18  27 65 124  33 81 153  33 81 153  22 55 104  1 3 5
0 0 0  0 0 0  0 0 0  3 8 14  25 61 115  33 81 153
33 81 153  32 79 149  25 62 118  18 45 85  15 36 68  16 38 72
20 49 92  26 64 121  32 78 147  33 81 153  33 81 153  27 65 124
4 10 18  0 0 0  0 0 0  0 0 0  0 0 0  0 0 0
0 0 0  0 0 0  0 0 0  0 0 0  0 0 0  0 0 0
0 0 0  0 0 0  0 0 0  0 0 0  8 20 38  31 76 144
33 81 153  33 80 151  14 33 63  0 0 0  0 0 0  0 0 0
0 0 0  0 0 0  0 0 0  0 0 0  0 0 0  0 0 0
0 0 0  0 0 0  0 0 0  0 0 0  7 17 31  30 72 137
33 81 153  33 81 153  30 74 139  21 53 100  19 46 86  23 57 109
31 77 145  33 81 153  33 81 153  24 58 110  2 5 10  0 0 0
0 0 0  0 0 0  0 0 0  0 0 0  0 0 0  19 48 90
33 81 153  33 81 153  31 77 145  25 62 118  23 55 104  24 59 111
27 66 124  30 74 140  33 80 151  33 81 153  33 81 153  23 57 107
1 2 3  0 0 0  0 0 0  0 0 0  0 0 0  19 46 86
33 81 153  33 81 152  12 28 53  0 0 0  0 0 0  0 0 0
0 0 0  0 0 0  0 0 0  0 0 0  0 0 0  0 0 0
0 0 0  0 0 0  0 0 0  0 0 0  0 0 0  0 0 0
0 0 0  0 0 0  0 0 0  0 0 0  0 0 0  7 17 31
25 61 115  29 70 133  30 73 139  31 77 146  33 80 152  33 81 153
33 81 153  33 81 153  33 81 153  33 81 153  33 81 153  33 81 153
33 81 153  23 57 107  1 3 5  0 0 0  0 0 0  0 0 0
0 0 0  2 4 8  22 55 104  33 81 153  33 81 153  33 80 152
27 66 125  20 49 93  19 45 86  22 55 103  30 73 139  33 81 153
33 81 153  33 81 153  33 81 153  23 57 107  1 2 3  0 0 0
0 0 0  0 0 0  0 0 0  2 4 8  22 54 102  33 81 153
33 81 153  32 80 151  26 65 122  19 47 88  15 37 70  15 37 70
19 47 89  25 62 118  31 77 145  33 81 153  33 81 153  29 71 134
6 15 29  0 0 0  0 0 0  0 0 0  13 32 61  33 80 152
33 81 153  32 80 151  22 54 102  11 27 52  9 21 40  11 28 53
20 48 91  31 75 142  33 81 153  33 81 153  33 81 153  26 64 121
2 6 11  0 0 0  0 0 0  0 0 0  0 0 0  0 0 0
0 0 0  0 0 0  0 0 0  0 0 0  0 0 0  0 0 0
14 34 64  33 81 153  33 81 153  22 55 103  0 1 2  0 0 0
0 0 0  0 0 0  0 0 0  0 0 0  0 0 0  0 0 0
10 25 48  28 70 132  33 81 153  33 81 153  32 80 151  13 31 59
0 0 0  0 0 0  0 0 0  0 0 0  5 13 25  28 68 128
33 81 153  33 81 153  31 77 146  24 59 112  17 43 81  15 36 68
16 39 74  21 51 96  27 66 125  32 79 149  33 81 153  33 81 153
24 58 110  2 5 9  0 0 0  0 0 0  1 1 2  21 51 95
33 81 153  33 81 153  31 76 143  18 44 84  10 24 45  9 22 41
13 32 61  23 57 107  32 79 149  33 81 153  33 81 153  33 81 153
19 47 89  0 0 0  0 0 0  0 0 0  0 0 0  0 0 0
19 46 86  33 81 153  33 81 153  20 48 91
28 68 129  33 81 153  33 81 153  33 81 153  33 81 153  33 81 153
33 81 153  33 81 153  33 81 153  33 81 153  33 81 153  33 81 153
33 81 153  33 81 153  33 81 153  33 81 153  33 81 153  33 81 153
33 81 153  33 81 153  33 81 153  33 81 153  33 81 153  33 81 152
12 30 56  0 0 0  0 0 0  0 0 0  0 0 0  0 0 0
0 0 0  0 0 0  0 0 0  0 0 0  0 0 0  0 0 0
0 0 0  0 0 0  0 0 0  0 0 0  0 0 0  0 0 0
0 0 0  0 0 0  0 0 0  0 0 0  0 0 0  0 0 0
0 0 0  0 0 0  0 0 0  0 0 0  0 0 0  0 0 0
0 0 0  0 0 0  0 0 0  0 0 0  0 0 0  0 0 0
0 0 0  0 0 0  0 0 0  0 0 0  0 0 0  0 0 0
0 0 0  0 0 0  0 0 0  0 0 0  0 0 0  0 0 0
0 0 0  0 0 0  0 0 0  0 0 0  0 0 0  0 0 0
0 0 0  0 0 0  0 0 0  0 0 0  0 0 0  0 0 0
0 0 0  0 0 0  0 0 0  0 0 0  0 0 0  0 0 0
0 0 0  0 0 0  11 27 52  33 80 152  33 81 153  33 81 153
33 81 153  33 81 153  33 81 153  33 81 153  33 81 153  33 81 153
33 81 153  33 81 153  33 81 153  33 81 153  33 81 153  33 81 153
33 81 153  33 81 153  33 81 153  33 81 153  33 81 153  33 81 153
33 81 153  33 81 153  25 62 117  1 3 7  0 0 0  0 0 0
0 0 0  0 0 0  0 0 0  0 0 0  0 0 0  0 0 0
0 0 0  0 0 0  0 0 0  0 0 0  0 0 0  0 0 0
0 0 0  0 0 0  0 0 0  0 0 0  0 0 0  0 0 0
0 0 0  0 0 0  0 0 0  0 0 0  0 0 0  0 0 0
0 0 0  0 0 0  0 0 0  0 0 0  0 0 0  0 0 0
0 0 0  0 0 0  0 0 0  0 0 0  0 0 0  0 0 0
0 0 0  0 0 0  0 0 0  0 0 0  0 0 0  1 1 2
23 57 107  33 81 153  33 81 153  33 81 153  33 81 153  33 81 153
33 81 153  33 81 153  33 81 153  33 81 153  33 81 153  33 81 153
33 81 153  33 81 153  33 81 153  33 81 153  33 81 153  33 81 153
33 81 153  33 81 153  33 81 153  33 81 153  33 81 153  17 41 77
0 0 0  0 0 0  0 0 0  0 0 0  0 0 0  0 0 0
0 0 0  0 0 0  0 0 0  0 0 0  0 0 0  0 0 0
0 0 0  0 0 0  0 0 0  0 0 0  0 0 0  0 0 0
0 0 0  0 0 0  0 0 0  0 0 0  0 0 0  0 0 0
0 0 0  0 0 0  0 0 0  0 0 0  0 0 0  0 0 0
0 0 0  0 0 0  0 0 0  0 0 0  0 0 0  0 0 0
0 0 0  0 0 0  0 0 0  0 0 0  0 0 0  0 0 0
0 0 0  0 0 0  0 0 0  0 0 0  0 0 0  0 0 0
0 0 0  0 0 0  0 0 0  0 0 0  0 0 0  0 0 0
0 0 0  0 0 0  6 14 27  31 75 142  33 81 153  33 81 153
33 81 153  33 81 153  33 81 153  33 81 153  33 81 153  33 81 153
33 81 153  33 81 153  33 81 153  33 81 153  33 81 153  33 81 153
33 81 153  33 81 153  33 81 153  33 81 153  33 81 153  33 81 153
33 81 153  31 77 145  7 17 32  0 0 0  0 0 0  0 0 0
0 0 0  0 0 0  0 0 0  0 0 0  0 0 0  0 0 0
0 0 0  0 0 0  0 0 0  0 0 0  0 0 0  0 0 0
2 5 9  26 64 121  33 81 153  33 81 153  33 81 153  33 81 153
33 81 153  33 81 153  33 81 153  33 81 153  33 81 153  33 81 153
33 81 153  33 81 153  33 81 153  33 81 153  33 81 153  33 81 153
33 81 153  33 81 153  33 81 153  33 81 153  33 81 153  29 72 136
4 11 20  0 0 0  0 0 0  0 0 0  0 0 0  0 0 0
0 0 0  0 0 0  0 0 0  0 0 0  0 0 0  0 0 0
0 0 0  0 0 0  0 0 0  0 0 0  0 0 0  0 0 0
0 0 0  0 0 0  0 0 0  0 0 0  0 0 0  0 0 0
0 0 0  0 0 0  0 0 0  0 0 0  0 0 0  0 0 0
0 0 0  0 0 0  0 0 0  0 0 0  0 0 0  0 0 0
0 0 0  0 0 0  0 0 0  0 0 0  0 0 0  0 0 0
0 0 0  0 0 0  0 0 0  0 0 0  0 0 0  0 0 0
0 0 0  0 0 0  0 0 0  1 1 2  22 55 103  33 81 153
33 81 153  33 81 153  33 81 153  33 81 153  33 81 153  33 81 153
33 81 153  33 81 153  33 81 153  33 81 153  33 81 153  33 81 153
33 81 153  33 81 153  33 81 153  33 81 153  33 81 153  33 81 153
33 81 153  33 81 153  33 81 153  33 81 153  33 81 153  27 66 125
3 7 13  0 0 0  0 0 0  0 0 0  0 0 0  0 0 0
0 0 0  0 0 0  0 0 0  0 0 0  0 0 0  0 0 0
0 0 0  0 0 0  0 0 0  0 0 0  0 0 0  0 0 0
0 0 0  0 0 0  0 0 0  0 0 0  0 0 0  0 0 0
0 0 0  0 0 0  0 0 0  0 0 0  0 0 0  0 0 0
0 0 0  0 0 0  0 0 0  0 0 0  0 0 0  0 0 0
0 0 0  0 1 2  22 55 104  33 81 153  33 81 153  21 51 97
0 0 1  0 0 0  0 0 0  0 0 0  0 0 0  2 4 7
25 61 115  33 81 153  33 81 153  30 74 140  6 16 29  0 0 0
0 0 0  0 0 0  0 0 0  0 0 0  0 0 0  11 27 52
33 80 151  33 81 153  32 78 148  9 21 40  0 0 0  0 0 0
0 0 0  0 0 0  9 23 43  30 73 139  33 81 153  33 81 153
33 81 153  32 79 149  32 79 149  33 81 153  33 81 153  33 81 152
31 76 143  33 81 153  33 81 153  24 60 113  2 4 8  0 0 0
0 0 0  0 0 0  3 7 14  28 69 130  33 81 153  31 77 145
7 17 31  0 0 0  0 0 0  0 0 0  0 0 0  0 0 0
0 0 0  11 27 52  32 78 148  33 81 153  31 76 143  6 15 29
0 0 0  0 0 0  0 0 0  0 0 0  6 14 26  25 61 115
33 81 153  33 81 153  33 81 153  33 81 153  33 81 153  33 81 153
33 81 153  33 81 153  33 81 153  33 80 151  25 61 115  7 17 33
0 0 0  0 0 0  0 0 0  0 0 0  0 0 0  0 0 0
0 0 0  0 0 0  0 0 0  0 0 0  0 0 0  0 0 0
0 0 0  0 0 0  0 0 0  0 0 1  20 49 92  33 81 153
33 81 153  25 63 118  2 6 11  0 0 0  0 0 0  0 0 0
0 0 0  0 0 0  0 0 0  0 0 0  0 0 0  0 0 0
0 0 0  0 0 0  0 0 0  0 0 0  0 0 0  12 30 58
31 76 144  33 81 153  33 81 153  33 81 153  33 81 153  33 81 153
33 81 153  33 81 153  27 67 127  6 16 29  0 0 0  0 0 0
0 0 0  0 0 0  0 0 0  0 0 0  0 0 0  7 17 33
29 72 136  33 81 153  33 81 153  33 81 153  33 81 153  33 81 153
33 81 153  33 81 153  33 81 153  33 81 153  33 81 153  25 60 114
1 3 5  0 0 0  0 0 0  0 0 0  0 0 0  19 46 86
33 81 153  33 81 152  12 28 53  0 0 0  0 0 0  0 0 0
0 0 0  0 0 0  0 0 0  0 0 0  0 0 0  0 0 0
0 0 0  0 0 0  0 0 0  0 0 0  0 0 0  0 0 0
0 0 0  0 0 0  0 0 0  0 0 0  0 0 0  17 41 78
33 81 153  33 81 153  33 81 153  33 81 153  33 81 153  33 81 153
33 81 153  33 81 153  33 81 153  33 81 153  33 81 153  33 81 153
33 81 153  23 57 107  1 2 4  0 0 0  0 0 0  0 0 0
0 0 0  0 0 0  4 10 19  23 57 107  33 81 153  33 81 153
33 81 153  33 81 153  33 81 153  33 81 153  33 81 153  33 81 153
31 75 142  32 78 148  33 81 153  26 65 122  2 5 9  0 0 0
0 0 0  0 0 0  0 0 0  0 0 0  4 9 17  22 55 104
33 80 152  33 81 153  33 81 153  33 81 153  33 81 153  33 81 153
33 81 153  33 81 153  33 81 153  33 81 153  27 65 123  9 23 43
0 0 0  0 0 0  0 0 0  0 0 0  2 4 8  21 53 100
33 81 153  33 81 153  33 81 153  33 80 151  32 78 148  33 80 152
33 81 153  33 81 153  31 77 145  32 79 149  33 81 153  32 79 149
11 26 49  0 0 0  0 0 0  0 0 0  0 0 0  0 0 0
0 0 0  0 0 0  0 0 0  0 0 0  0 0 0  0 0 0
13 32 61  33 81 153  33 81 153  23 56 106  1 1 2  0 0 0
0 0 0  0 0 0  0 0 0  0 0 0  0 0 0  0 0 0
0 0 0  7 18 34  27 66 124  33 81 153  33 81 153  17 42 80
0 0 0  0 0 0  0 0 0  0 0 0  0 0 0  8 20 37
27 66 125  33 81 153  33 81 153  33 81 153  33 81 153  33 81 153
33 81 153  33 81 153  33 81 153  33 81 153  32 79 149  23 55 104
5 12 23  0 0 0  0 0 0  0 0 0  0 0 0  5 13 25
27 66 125  33 81 153  33 81 153  33 81 153  32 79 150  32 79 149
33 81 153  33 81 153  33 81 153  31 76 143  33 80 152  33 81 153
29 70 133  5 11 21  0 0 0  0 0 0  0 0 0  0 0 0
19 47 89  33 81 153  33 81 153  18 44 84
30 74 140  33 81 153  33 81 153  33 81 153  33 81 153  33 81 153
33 81 153  33 81 153  33 81 153  33 81 153  33 81 153  33 81 153
33 81 153  33 81 153  33 81 153  33 81 153  33 81 153  33 81 153
33 81 153  33 81 153  33 81 153  33 81 153  33 81 153  32 80 151
10 25 47  0 0 0  0 0 0  0 0 0  0 0 0  0 0 0
0 0 0  0 0 0  0 0 0  0 0 0  0 0 0  0 0 0
0 0 0  0 0 0  0 0 0  0 0 0  0 0 0  0 0 0
0 0 0  0 0 0  0 0 0  0 0 0  0 0 0  0 0 0
0 0 0  0 0 0  0 0 0  0 0 0  0 0 0  0 0 0
0 0 0  0 0 0  0 0 0  0 0 0  0 0 0  0 0 0
0 0 0  0 0 0  0 0 0  0 0 0  0 0 0  0 0 0
0 0 0  0 0 0  0 0 0  0 0 0  0 0 0  0 0 0
0 0 0  0 0 0  0 0 0  0 0 0  0 0 0  0 0 0
0 0 0  0 0 0  0 0 0  0 0 0  0 0 0  0 0 0
0 0 0  0 0 0  0 0 0  0 0 0  0 0 0  0 0 0
0 0 0  0 0 0  9 23 43  32 79 149  33 81 153  33 81 153
33 81 153  33 81 153  33 81 153  33 81 153  33 81 153  33 81 153
33 81 153  33 81 153  33 81 153  33 81 153  33 81 153  33 81 153
33 81 153  33 81 153  33 81 153  33 81 153  33 81 153  33 81 153
33 81 153  33 81 153  27 67 127  3 6 12  0 0 0  0 0 0
0 0 0  0 0 0  0 0 0  0 0 0  0 0 0  0 0 0
0 0 0  0 0 0  0 0 0  0 0 0  0 0 0  0 0 0
0 0 0  0 0 0  0 0 0  0 0 0  0 0 0  0 0 0
0 0 0  0 0 0  0 0 0  0 0 0  0 0 0  0 0 0
0 0 0  0 0 0  0 0 0  0 0 0  0 0 0  0 0 0
0 0 0  0 0 0  0 0 0  0 0 0  0 0 0  0 0 0
0 0 0  0 0 0  0 0 0  0 0 0  0 0 0  1 1 2
23 57 107  33 81 153  33 81 153  33 81 153  33 81 153  33 81 153
33 81 153  33 81 153  33 81 153  33 81 153  33 81 153  33 81 153
33 81 153  33 81 153  33 81 153  33 81 153  33 81 153  33 81 153
33 81 153  33 81 153  33 81 153  33 81 153  33 81 153  17 41 77
0 0 0  0 0 0  0 0 0  0 0 0  0 0 0  0 0 0
0 0 0  0 0 0  0 0 0  0 0 0  0 0 0  0 0 0
0 0 0  0 0 0  0 0 0  0 0 0  0 0 0  0 0 0
0 0 0  0 0 0  0 0 0  0 0 0  0 0 0  0 0 0
0 0 0  0 0 0  0 0 0  0 0 0  0 0 0  0 0 0
0 0 0  0 0 0  0 0 0  0 0 0  0 0 0  0 0 0
0 0 0  0 0 0  0 0 0  0 0 0  0 0 0  0 0 0
0 0 0  0 0 0  0 0 0  0 0 0  0 0 0  0 0 0
0 0 0  0 0 0  0 0 0  0 0 0  0 0 0  0 0 0
0 0 0  0 0 0  6 15 28  31 75 142  33 81 153  33 81 153
33 81 153  33 81 153  33 81 153  33 81 153  33 81 153  33 81 153
33 81 153  33 81 153  33 81 153  33 81 153  33 81 153  33 81 153
33 81 153  33 81 153  33 81 153  33 81 153  33 81 153  33 81 153
33 81 153  31 77 145  7 17 32  0 0 0  0 0 0  0 0 0
0 0 0  0 0 0  0 0 0  0 0 0  0 0 0  0 0 0
0 0 0  0 0 0  0 0 0  0 0 0  0 0 0  0 0 0
2 5 9  26 64 122  33 81 153  33 81 153  33 81 153  33 81 153
33 81 153  33 81 153  33 81 153  33 81 153  33 81 153  33 81 153
33 81 153  33 81 153  33 81 153  33 81 153  33 81 153  33 81 153
33 81 153  33 81 153  33 81 153  33 81 153  33 81 153  29 72 136
4 11 20  0 0 0  0 0 0  0 0 0  0 0 0  0 0 0
0 0 0  0 0 0  0 0 0  0 0 0  0 0 0  0 0 0
0 0 0  0 0 0  0 0 0  0 0 0  0 0 0  0 0 0
0 0 0  0 0 0  0 0 0  0 0 0  0 0 0  0 0 0
0 0 0  0 0 0  0 0 0  0 0 0  0 0 0  0 0 0
0 0 0  0 0 0  0 0 0  0 0 0  0 0 0  0 0 0
0 0 0  0 0 0  0 0 0  0 0 0  0 0 0  0 0 0
0 0 0  0 0 0  0 0 0  0 0 0  0 0 0  0 0 0
0 0 0  0 0 0  0 0 0  0 0 0  16 38 72  33 81 153
33 81 153  33 81 153  33 81 153  33 81 153  33 81 153  33 81 153
33 81 153  33 81 153  33 81 153  33 81 153  33 81 153  33 81 153
33 81 153  33 81 153  33 81 153  33 81 153  33 81 153  33 81 153
33 81 153  33 81 153  33 81 153  33 81 153  33 81 153  31 77 146
8 20 38  0 0 0  0 0 0  0 0 0  0 0 0  0 0 0
0 0 0  0 0 0  0 0 0  0 0 0  0 0 0  0 0 0
0 0 0  0 0 0  0 0 0  0 0 0  0 0 0  0 0 0
0 0 0  0 0 0  0 0 0  0 0 0  0 0 0  0 0 0
0 0 0  0 0 0  0 0 0  0 0 0  0 0 0  0 0 0
0 0 0  0 0 0  0 0 0  0 0 0  0 0 0  0 0 0
0 0 0  0 0 0  20 48 91  33 81 153  33 81 152  13 32 61
0 0 0  0 0 0  0 0 0  0 0 0  0 0 0  0 0 0
12 29 55  31 77 145  32 78 148  17 42 79  0 1 1  0 0 0
0 0 0  0 0 0  0 0 0  0 0 0  0 0 0  4 10 18
28 69 130  33 81 153  33 80 152  11 27 50  0 0 0  0 0 0
0 0 0  0 0 0  0 0 0  9 22 42  25 60 114  31 77 145
33 81 153  33 81 153  33 81 153  32 78 148  26 65 122  15 36 68
8 20 37  25 63 118  33 81 153  29 72 136  5 11 21  0 0 0
0 0 0  0 0 0  1 2 3  20 48 91  32 78 148  25 60 114
3 7 14  0 0 0  0 0 0  0 0 0  0 0 0  0 0 0
0 0 0  1 3 5  21 52 98  33 80 151  26 64 121  4 9 17
0 0 0  0 0 0  0 0 0  0 0 0  0 0 0  3 7 14
15 37 71  26 64 122  31 76 143  32 80 151  33 81 152  33 80 152
32 79 149  30 72 137  23 57 107  12 30 57  2 6 11  0 0 0
0 0 0  0 0 0  0 0 0  0 0 0  0 0 0  0 0 0
0 0 0  0 0 0  0 0 0  0 0 0  0 0 0  0 0 0
0 0 0  0 0 0  0 0 0  1 2 4  23 57 107  33 81 153
32 80 151  12 30 58  0 0 0  0 0 0  0 0 0  0 0 0
0 0 0  0 0 0  0 0 0  0 0 0  0 0 0  0 0 0
0 0 0  0 0 0  0 0 0  0 0 0  0 0 0  0 0 1
11 27 50  27 66 124  32 80 151  33 81 153  33 81 153  33 81 153
32 78 147  23 57 107  6 16 29  0 0 0  0 0 0  0 0 0
0 0 0  0 0 0  0 0 0  0 0 0  0 0 0  0 0 0
9 23 44  26 63 119  32 78 148  33 81 153  33 81 153  33 81 152
32 78 148  28 69 130  23 57 107  32 78 148  33 81 153  25 61 115
1 3 6  0 0 0  0 0 0  0 0 0  0 0 0  17 43 81
33 81 153  32 80 151  10 25 47  0 0 0  0 0 0  0 0 0
0 0 0  0 0 0  0 0 0  0 0 0  0 0 0  0 0 0
0 0 0  0 0 0  0 0 0  0 0 0  0 0 0  0 0 0
0 0 0  0 0 0  0 0 0  0 0 0  0 0 0  10 26 49
30 74 140  32 78 148  31 76 143  29 72 136  27 66 124  24 59 112
22 54 101  21 52 99  21 51 97  20 50 94  20 49 92  19 47 89
18 44 82  6 15 29  0 0 0  0 0 0  0 0 0  0 0 0
0 0 0  0 0 0  0 0 0  2 6 11  16 39 73  27 67 127
32 78 147  33 80 152  33 81 152  32 79 149  29 72 136  21 51 96
8 18 35  18 45 85  31 75 142  18 45 85  1 1 2  0 0 0
0 0 0  0 0 0  0 0 0  0 0 0  0 0 0  2 5 9
13 33 62  25 62 116  31 75 142  32 79 150  33 81 152  33 81 152
32 79 149  30 74 139  24 59 112  14 34 64  3 8 16  0 0 0
0 0 0  0 0 0  0 0 0  0 0 0  0 0 0  3 7 13
18 44 82  29 72 136  32 80 151  33 81 153  33 81 153  33 81 152
30 73 138  21 51 97  9 21 40  16 39 73  32 78 148  33 81 153
17 41 77  0 0 0  0 0 0  0 0 0  0 0 0  0 0 0
0 0 0  0 0 0  0 0 0  0 0 0  0 0 0  0 0 0
7 17 31  28 69 131  31 77 145  14 35 67  0 0 0  0 0 0
0 0 0  0 0 0  0 0 0  0 0 0  0 0 0  0 0 0
0 0 0  0 0 0  6 15 28  22 54 103  22 55 103  5 13 25
0 0 0  0 0 0  0 0 0  0 0 0  0 0 0  0 0 0
4 10 20  17 42 80  27 67 126  31 77 145  33 80 151  33 81 152
33 80 152  32 78 148  29 71 134  22 54 101  11 26 49  2 4 7
0 0 0  0 0 0  0 0 0  0 0 0  0 0 0  0 0 0
6 15 28  22 54 102  31 75 142  33 80 152  33 81 153  33 81 153
32 79 150  28 69 130  17 42 80  7 18 34  22 54 101  33 81 153
32 79 149  9 22 41  0 0 0  0 0 0  0 0 0  0 0 0
14 35 66  32 79 150  31 76 143  11 27 52
32 78 146  32 80 151  32 79 150  32 79 150  32 79 150  32 79 150
32 79 150  32 79 150  32 79 150  32 79 150  32 79 150  32 79 150
32 79 150  32 79 150  32 79 150  32 79 150  32 79 150  32 79 150
32 79 150  32 79 150  32 79 150  32 79 150  32 80 151  31 77 145
8 21 39  0 0 0  0 0 0  0 0 0  0 0 0  0 0 0
0 0 0  0 0 0  0 0 0  0 0 0  0 0 0  0 0 0
0 0 0  0 0 0  0 0 0  0 0 0  0 0 0  0 0 0
0 0 0  0 0 0  0 0 0  0 0 0  0 0 0  0 0 0
0 0 0  0 0 0  0 0 0  0 0 0  0 0 0  0 0 0
0 0 0  0 0 0  0 0 0  0 0 0  0 0 0  0 0 0
0 0 0  0 0 0  0 0 0  0 0 0  0 0 0  0 0 0
0 0 0  0 0 0  0 0 0  0 0 0  0 0 0  0 0 0
0 0 0  0 0 0  0 0 0  0 0 0  0 0 0  0 0 0
0 0 0  0 0 0  0 0 0  0 0 0  0 0 0  0 0 0
0 0 0  0 0 0  0 0 0  0 0 0  0 0 0  0 0 0
0 0 0  0 0 0  8 18 35  31 76 143  32 80 151  32 79 150
32 79 150  32 79 150  32 79 150  32 79 150  32 79 150  32 79 150
32 79 150  32 79 150  32 79 150  32 79 150  32 79 150  32 79 150
32 79 150  32 79 150  32 79 150  32 79 150  32 79 150  32 79 150
32 79 150  33 80 151  28 70 131  4 10 18  0 0 0  0 0 0
0 0 0  0 0 0  0 0 0  0 0 0  0 0 0  0 0 0
0 0 0  0 0 0  0 0 0  0 0 0  0 0 0  0 0 0
0 0 0  0 0 0  0 0 0  0 0 0  0 0 0  0 0 0
0 0 0  0 0 0  0 0 0  0 0 0  0 0 0  0 0 0
0 0 0  0 0 0  0 0 0  0 0 0  0 0 0  0 0 0
0 0 0  0 0 0  0 0 0  0 0 0  0 0 0  0 0 0
0 0 0  0 0 0  0 0 0  0 0 0  0 0 0  1 1 2
23 56 105  33 81 152  32 79 150  32 79 150  32 79 150  32 79 150
32 79 150  32 79 150  32 79 150  32 79 150  32 79 150  32 79 150
32 79 150  32 79 150  32 79 150  32 79 150  32 79 150  32 79 150
32 79 150  32 79 150  32 79 150  32 79 150  33 81 152  16 40 75
0 0 0  0 0 0  0 0 0  0 0 0  0 0 0  0 0 0
0 0 0  0 0 0  0 0 0  0 0 0  0 0 0  0 0 0
0 0 0  0 0 0  0 0 0  0 0 0  0 0 0  0 0 0
0 0 0  0 0 0  0 0 0  0 0 0  0 0 0  0 0 0
0 0 0  0 0 0  0 0 0  0 0 0  0 0 0  0 0 0
0 0 0  0 0 0  0 0 0  0 0 0  0 0 0  0 0 0
0 0 0  0 0 0  0 0 0  0 0 0  0 0 0  0 0 0
0 0 0  0 0 0  0 0 0  0 0 0  0 0 0  0 0 0
0 0 0  0 0 0  0 0 0  0 0 0  0 0 0  0 0 0
0 0 0  0 0 0  6 14 27  30 73 139  32 80 151  32 79 150
32 79 150  32 79 150  32 79 150  32 79 150  32 79 150  32 79 150
32 79 150  32 79 150  32 79 150  32 79 150  32 79 150  32 79 150
32 79 150  32 79 150  32 79 150  32 79 150  32 79 150  32 79 150
32 80 151  31 75 142  7 17 32  0 0 0  0 0 0  0 0 0
0 0 0  0 0 0  0 0 0  0 0 0  0 0 0  0 0 0
0 0 0  0 0 0  0 0 0  0 0 0  0 0 0  0 0 0
2 5 9  26 63 119  33 80 152  32 79 150  32 79 150  32 79 150
32 79 150  32 79 150  32 79 150  32 79 150  32 79 150  32 79 150
32 79 150  32 79 150  32 79 150  32 79 150  32 79 150  32 79 150
32 79 150  32 79 150  32 79 150  32 79 150  33 80 151  29 71 133
4 10 20  0 0 0  0 0 0  0 0 0  0 0 0  0 0 0
0 0 0  0 0 0  0 0 0  0 0 0  0 0 0  0 0 0
0 0 0  0 0 0  0 0 0  0 0 0  0 0 0  0 0 0
0 0 0  0 0 0  0 0 0  0 0 0  0 0 0  0 0 0
0 0 0  0 0 0  0 0 0  0 0 0  0 0 0  0 0 0
0 0 0  0 0 0  0 0 0  0 0 0  0 0 0  0 0 0
0 0 0  0 0 0  0 0 0  0 0 0  0 0 0  0 0 0
0 0 0  0 0 0  0 0 0  0 0 0  0 0 0  0 0 0
0 0 0  0 0 0  0 0 0  0 0 0  9 21 40  31 77 145
32 80 151  32 79 150  32 79 150  32 79 150  32 79 150  32 79 150
32 79 150  32 79 150  32 79 150  32 79 150  32 79 150  32 79 150
32 79 150  32 79 150  32 79 150  32 79 150  32 79 150  32 79 150
32 79 150  32 79 150  32 79 150  32 79 150  32 79 150  33 80 152
16 38 72  0 0 0  0 0 0  0 0 0  0 0 0  0 0 0
0 0 0  0 0 0  0 0 0  0 0 0  0 0 0  0 0 0
0 0 0  0 0 0  0 0 0  0 0 0  0 0 0  0 0 0
0 0 0  0 0 0  0 0 0  0 0 0  0 0 0  0 0 0
0 0 0  0 0 0  0 0 0  0 0 0  0 0 0  0 0 0
0 0 0  0 0 0  0 0 0  0 0 0  0 0 0  0 0 0
0 0 0  0 0 0  6 15 29  22 55 104  19 47 89  3 7 13
0 0 0  0 0 0  0 0 0  0 0 0  0 0 0  0 0 0
1 2 4  10 24 46  11 27 50  2 4 7  0 0 0  0 0 0
0 0 0  0 0 0  0 0 0  0 0 0  0 0 0  0 0 0
14 35 65  31 77 145  25 61 115  4 10 18  0 0 0  0 0 0
0 0 0  0 0 0  0 0 0  0 0 0  2 5 10  9 23 44
16 39 73  19 47 88  18 44 83  11 27 52  3 8 14  0 0 0
0 0 0  6 14 26  22 54 101  15 37 71  1 2 4  0 0 0
0 0 0  0 0 0  0 0 0  3 7 13  9 22 42  4 10 20
0 0 0  0 0 0  0 0 0  0 0 0  0 0 0  0 0 0
0 0 0  0 0 0  3 9 16  12 28 53  5 13 25  0 0 0
0 0 0  0 0 0  0 0 0  0 0 0  0 0 0  0 0 0
0 0 0  3 7 13  8 20 38  13 31 59  15 37 70  15 36 68
11 27 52  6 14 27  1 3 5  0 0 0  0 0 0  0 0 0
0 0 0  0 0 0  0 0 0  0 0 0  0 0 0  0 0 0
0 0 0  0 0 0  0 0 0  0 0 0  0 0 0  0 0 0
0 0 0  0 0 0  0 0 0  0 0 0  9 22 42  25 62 117
19 47 89  2 5 9  0 0 0  0 0 0  0 0 0  0 0 0
0 0 0  0 0 0  0 0 0  0 0 0  0 0 0  0 0 0
0 0 0  0 0 0  0 0 0  0 0 0  0 0 0  0 0 0
0 0 0  4 10 18  13 33 62  20 49 93  21 53 100  19 45 86
10 26 49  2 4 8  0 0 0  0 0 0  0 0 0  0 0 0
0 0 0  0 0 0  0 0 0  0 0 0  0 0 0  0 0 0
0 0 0  3 7 14  11 26 49  16 39 74  17 42 79  15 38 71
11 26 49  4 10 20  2 6 11  23 55 104  30 74 140  14 34 64
0 0 0  0 0 0  0 0 0  0 0 0  0 0 0  7 18 34
24 59 112  20 50 94  3 7 14  0 0 0  0 0 0  0 0 0
0 0 0  0 0 0  0 0 0  0 0 0  0 0 0  0 0 0
0 0 0  0 0 0  0 0 0  0 0 0  0 0 0  0 0 0
0 0 0  0 0 0  0 0 0  0 0 0  0 0 0  1 1 2
8 18 35  10 25 47  8 20 37  5 13 25  3 7 13  1 3 5
0 1 2  0 0 1  0 0 1  0 0 0  0 0 0  0 0 0
0 0 0  0 0 0  0 0 0  0 0 0  0 0 0  0 0 0
0 0 0  0 0 0  0 0 0  0 0 0  0 0 0  4 9 17
10 24 46  14 35 66  15 37 70  12 29 55  6 14 27  1 2 3
0 0 0  2 4 8  6 16 29  2 4 8  0 0 0  0 0 0
0 0 0  0 0 0  0 0 0  0 0 0  0 0 0  0 0 0
0 0 0  2 5 10  8 18 35  12 30 58  15 37 69  15 37 69
12 29 55  7 17 31  2 4 7  0 0 0  0 0 0  0 0 0
0 0 0  0 0 0  0 0 0  0 0 0  0 0 0  0 0 0
0 1 1  6 14 26  13 32 61  18 44 83  19 47 89  15 37 70
7 17 31  1 2 3  0 0 0  1 2 4  15 36 68  22 54 103
6 14 27  0 0 0  0 0 0  0 0 0  0 0 0  0 0 0
0 0 0  0 0 0  0 0 0  0 0 0  0 0 0  0 0 0
0 0 1  6 15 28  8 20 38  1 3 6  0 0 0  0 0 0
0 0 0  0 0 0  0 0 0  0 0 0  0 0 0  0 0 0
0 0 0  0 0 0  0 0 0  1 2 4  1 3 5  0 0 0
0 0 0  0 0 0  0 0 0  0 0 0  0 0 0  0 0 0
0 0 0  0 0 0  3 9 16  9 22 42  13 33 62  15 37 70
14 35 66  10 26 49  5 12 23  1 2 3  0 0 0  0 0 0
0 0 0  0 0 0  0 0 0  0 0 0  0 0 0  0 0 0
0 0 0  1 3 5  8 19 37  15 36 68  19 46 86  19 46 86
13 31 59  4 11 20  0 0 0  0 0 0  3 8 14  19 48 90
19 46 86  2 5 10  0 0 0  0 0 0  0 0 0  0 0 0
2 5 10  12 29 54  10 24 46  1 3 5
